<?xml version="1.0" encoding="UTF-8"?>
<map version="1.10" tiledversion="1.12.2" orientation="orthogonal" renderorder="right-down" width="32" height="18" tilewidth="16" tileheight="16" infinite="0" nextlayerid="11" nextobjectid="1">
 <editorsettings>
  <export target="barrage.json" format="json"/>
 </editorsettings>
 <tileset firstgid="1" source="../tilesets/Water.tsx"/>
 <tileset firstgid="5" source="../tilesets/Wood Bridge.tsx"/>
 <tileset firstgid="11" source="../tilesets/Grass.tsx"/>
 <tileset firstgid="88" source="../tilesets/Dungeon_walls.tsx"/>
 <tileset firstgid="352" source="../tilesets/Hills.tsx"/>
 <tileset firstgid="451" source="../tilesets/dungeon_walls_decor_gates.tsx"/>
 <tileset firstgid="500" source="../tilesets/WaterDark.tsx"/>
 <tileset firstgid="504" source="../tilesets/big fish 2 swimming in cirkels.tsx"/>
 <tileset firstgid="513" source="../tilesets/small_House_with_door_grass.tsx"/>
 <tileset firstgid="657" source="../tilesets/collisions.tsx"/>
 <tileset firstgid="689" source="../tilesets/Basic_Grass_Biom_things.tsx"/>
 <tileset firstgid="734" source="../tilesets/WaterLight.tsx"/>
 <tileset firstgid="738" source="../tilesets/Bush_Tiles.tsx"/>
 <tileset firstgid="753" source="../Wood_Bridge.tsx"/>
 <layer id="1" name="Water" width="32" height="18">
  <data encoding="csv">
0,0,0,0,0,0,0,0,0,0,0,0,0,0,0,0,0,0,0,0,0,0,0,0,0,0,0,0,0,0,0,0,
0,2,3,4,1,2,3,4,1,2,3,4,1,2,3,4,1,2,3,4,1,503,500,501,502,503,500,501,502,503,500,0,
0,2,3,4,1,2,3,4,1,2,3,4,1,2,3,4,1,2,3,4,1,503,500,501,502,503,500,501,502,503,500,0,
0,2,3,4,1,2,3,4,1,2,3,4,1,2,3,4,1,2,3,4,1,503,500,501,502,503,500,501,502,503,500,0,
0,2,3,4,1,2,3,4,1,2,3,4,1,2,3,4,1,2,3,4,1,503,500,501,502,503,500,501,502,503,500,0,
0,2,3,4,1,2,3,4,1,2,3,4,1,2,3,4,1,2,3,4,1,503,500,501,502,503,500,501,502,503,500,0,
0,2,3,4,1,2,3,4,1,2,3,4,1,2,3,4,1,2,3,4,1,503,500,501,502,503,500,501,502,503,500,0,
0,2,3,4,1,2,3,4,1,2,3,4,1,2,3,4,1,2,3,4,1,503,500,501,502,503,500,501,502,503,500,0,
0,2,3,4,1,2,3,4,1,2,3,4,1,2,3,4,1,2,3,4,1,503,500,501,502,503,500,501,502,503,500,0,
0,2,3,4,1,2,3,4,1,2,3,4,1,2,3,4,1,2,3,4,1,503,500,501,502,503,500,501,502,503,500,0,
0,2,3,4,1,2,3,4,1,2,3,4,1,2,3,4,1,2,3,4,1,734,735,736,737,734,735,736,737,734,735,0,
0,2,3,4,1,2,3,4,1,2,3,4,1,2,3,4,1,2,3,4,1,734,735,736,737,734,735,736,737,734,735,0,
0,2,3,4,1,2,3,4,1,2,3,4,1,2,3,4,1,2,3,4,1,734,735,736,737,734,735,736,737,734,735,0,
0,2,3,4,1,2,3,4,1,2,3,4,1,2,3,4,1,2,3,4,1,734,735,736,737,734,735,736,737,734,735,0,
0,2,3,4,1,2,3,4,1,2,3,4,1,2,3,4,1,2,3,4,737,734,735,736,737,734,735,736,737,734,735,0,
0,2,3,4,1,2,3,4,1,2,3,4,1,2,3,4,1,2,3,4,737,734,735,736,737,734,735,736,737,734,735,0,
0,2,3,4,1,2,3,4,1,2,3,4,1,2,3,4,1,2,735,736,737,734,735,736,737,734,735,736,737,734,735,0,
0,0,0,0,0,0,0,0,0,0,0,0,0,0,0,0,0,0,0,0,0,0,0,0,0,0,0,0,0,0,0,0
</data>
 </layer>
 <layer id="2" name="Floor" width="32" height="18">
  <data encoding="csv">
0,0,0,0,0,0,0,0,0,0,0,0,0,0,0,0,0,0,0,0,0,0,0,0,0,0,0,0,0,0,0,0,
0,0,0,0,0,0,0,0,0,0,0,0,0,0,0,0,0,0,11,12,12,13,0,0,0,0,0,0,0,0,0,0,
0,0,0,11,12,12,12,12,12,13,0,0,0,0,0,0,0,11,39,23,23,24,0,0,0,0,0,0,0,0,0,0,
0,0,11,39,23,23,23,23,23,38,12,12,12,12,12,12,12,39,23,23,23,24,0,0,0,0,0,0,0,0,0,0,
0,0,22,23,23,23,23,23,23,23,23,23,23,23,23,23,23,23,23,23,23,24,0,0,0,0,0,0,0,0,0,0,
0,0,22,23,23,23,23,23,23,23,23,23,68,23,23,23,23,23,23,23,23,24,0,0,0,0,0,0,0,0,0,0,
0,0,22,23,23,77,23,23,23,23,68,23,23,23,23,23,23,23,23,23,23,24,0,0,0,0,0,0,0,0,0,0,
0,0,22,23,23,23,23,23,23,23,23,23,23,23,23,23,23,23,23,23,23,24,0,0,0,0,0,0,0,0,0,0,
0,0,22,23,23,23,23,23,23,23,23,23,23,23,23,23,23,23,23,23,23,24,0,0,0,0,0,0,0,0,0,0,
0,0,22,23,68,23,23,23,23,23,23,23,77,23,23,23,23,68,23,23,23,24,0,0,0,0,0,0,0,0,0,0,
0,0,22,23,23,23,23,77,23,23,23,23,23,23,23,68,23,23,23,23,23,24,0,0,0,0,0,0,0,0,0,0,
0,0,33,28,23,23,23,23,23,23,23,23,23,23,23,23,23,23,23,23,23,24,0,0,0,0,0,0,0,0,0,0,
0,0,0,33,34,34,28,23,23,23,23,23,23,23,23,23,23,23,23,23,23,24,0,0,0,0,0,0,0,0,0,0,
0,0,0,0,0,0,33,34,28,23,23,23,23,23,23,23,23,27,34,28,23,24,0,0,0,0,0,0,0,0,0,0,
0,0,0,0,0,0,0,0,33,34,34,34,34,34,34,34,34,35,11,39,27,35,0,0,0,0,0,0,0,11,12,0,
0,0,0,0,0,0,0,0,0,0,0,0,0,0,0,0,0,11,39,27,35,0,0,0,0,0,0,11,12,39,77,0,
0,0,0,0,0,0,0,0,0,0,0,0,0,0,0,0,0,22,27,35,0,0,0,0,0,11,12,39,23,66,23,0,
0,0,0,0,0,0,0,0,0,0,0,0,0,0,0,0,0,0,0,0,0,0,0,0,0,0,0,0,0,0,0,0
</data>
 </layer>
 <layer id="9" name="Barrage" width="32" height="18">
  <data encoding="csv">
0,0,0,0,0,0,0,0,0,0,0,0,0,0,0,0,0,0,0,0,0,0,0,0,0,0,0,0,0,0,0,0,
0,0,0,0,0,0,0,0,0,0,0,0,0,0,0,0,0,0,0,0,0,0,0,0,0,0,0,0,0,0,0,0,
0,0,0,0,0,0,0,0,0,0,0,0,0,0,0,0,0,0,0,0,0,0,0,0,0,0,0,0,0,0,0,0,
0,0,0,0,0,0,0,0,0,0,0,0,0,0,0,0,0,0,0,0,0,0,0,0,0,0,0,0,0,0,0,0,
0,0,0,0,0,0,0,0,0,0,0,0,0,0,0,0,0,0,0,0,0,0,0,0,0,0,0,0,0,0,0,0,
0,0,0,0,0,0,0,0,0,0,0,0,0,0,0,0,0,0,0,0,0,0,0,0,0,0,0,0,0,0,0,0,
0,0,0,0,0,0,0,0,0,0,0,0,0,0,0,0,0,0,0,0,0,0,0,0,0,0,0,0,0,0,0,0,
0,0,0,0,0,0,0,0,0,0,0,0,0,0,0,0,0,0,0,0,0,150,148,149,149,149,149,149,149,149,150,0,
0,0,0,0,0,0,0,0,0,0,0,0,0,0,0,0,0,0,0,0,0,162,160,161,161,161,161,161,161,161,162,0,
0,0,0,0,0,0,0,0,0,0,0,0,0,0,0,0,0,0,0,0,0,162,160,161,161,161,161,161,161,161,162,0,
0,0,0,0,0,0,0,0,0,0,0,0,0,0,0,0,0,0,0,0,0,334,332,333,333,333,333,333,333,333,334,0,
0,0,0,0,0,0,0,0,0,0,0,0,0,0,0,0,0,0,0,0,0,0,0,0,0,0,0,0,0,0,0,0,
0,0,0,0,0,0,0,0,0,0,0,0,0,0,0,0,0,0,0,0,0,0,0,0,0,0,0,0,0,0,0,0,
0,0,0,0,0,0,0,0,0,0,0,0,0,0,0,0,0,0,0,0,0,0,0,0,0,0,0,0,0,0,0,0,
0,0,0,0,0,0,0,0,0,0,0,0,0,0,0,0,0,0,0,0,0,0,0,0,0,0,0,0,0,0,0,0,
0,0,0,0,0,0,0,0,0,0,0,0,0,0,0,0,0,0,0,0,0,0,0,0,0,0,0,0,0,0,0,0,
0,0,0,0,0,0,0,0,0,0,0,0,0,0,0,0,0,0,0,0,0,0,0,0,0,0,0,0,0,0,0,0,
0,0,0,0,0,0,0,0,0,0,0,0,0,0,0,0,0,0,0,0,0,0,0,0,0,0,0,0,0,0,0,0
</data>
 </layer>
 <layer id="6" name="Hill" width="32" height="18">
  <data encoding="csv">
0,0,0,0,0,0,0,0,0,0,0,0,0,0,0,0,0,0,0,0,0,0,0,0,0,0,0,0,0,0,0,0,
0,0,0,0,0,0,0,0,0,0,0,0,0,0,0,0,0,0,352,353,353,354,0,0,0,0,0,0,0,0,0,0,
0,0,0,0,0,0,0,0,0,0,0,0,0,0,0,0,0,0,363,364,364,365,0,0,0,0,0,0,0,0,0,0,
0,0,0,0,0,0,0,0,0,0,0,0,0,0,0,0,0,0,363,364,364,365,0,0,0,0,0,0,0,0,0,0,
0,0,0,0,0,0,0,0,0,0,0,0,0,0,0,0,0,0,363,364,364,365,0,0,0,0,0,0,0,0,0,0,
0,0,0,0,0,0,0,0,0,0,0,0,0,0,0,0,0,0,363,364,364,365,0,0,0,0,0,0,0,0,0,0,
0,0,0,0,0,0,0,0,0,0,0,0,0,0,0,0,0,0,363,364,364,365,0,0,0,0,0,0,0,0,0,0,
0,0,0,0,0,0,0,0,0,0,0,0,0,0,0,0,0,0,363,364,364,365,0,0,0,0,0,0,0,0,0,0,
0,0,0,0,0,0,0,0,0,0,0,0,0,0,0,0,0,0,363,364,364,365,0,0,0,0,0,0,0,0,0,0,
0,0,0,0,0,0,0,0,0,0,0,0,0,0,0,0,0,0,363,364,364,365,0,0,0,0,0,0,0,0,0,0,
0,0,0,0,0,0,0,0,0,0,0,0,0,0,0,0,0,0,363,364,364,365,0,0,0,0,0,0,0,0,0,0,
0,0,0,0,0,0,0,0,0,0,0,0,0,0,0,0,0,0,363,364,364,365,0,0,0,0,0,0,0,0,0,0,
0,0,0,0,0,0,0,0,0,0,0,0,0,0,0,0,0,0,374,375,375,376,0,0,0,0,0,0,0,0,0,0,
0,0,0,0,0,0,0,0,0,0,0,0,0,0,0,0,0,0,0,0,0,0,0,0,0,0,0,0,0,0,0,0,
0,0,0,0,0,0,0,0,0,0,0,0,0,0,0,0,0,0,0,0,0,0,0,0,0,0,0,0,0,0,0,0,
0,0,0,0,0,0,0,0,0,0,0,0,0,0,0,0,0,0,0,0,0,0,0,0,0,0,0,0,0,0,0,0,
0,0,0,0,0,0,0,0,0,0,0,0,0,0,0,0,0,0,0,0,0,0,0,0,0,0,0,0,0,0,0,0,
0,0,0,0,0,0,0,0,0,0,0,0,0,0,0,0,0,0,0,0,0,0,0,0,0,0,0,0,0,0,0,0
</data>
 </layer>
 <layer id="7" name="Hill2" width="32" height="18">
  <data encoding="csv">
0,0,0,0,0,0,0,0,0,0,0,0,0,0,0,0,0,0,0,0,0,0,0,0,0,0,0,0,0,0,0,0,
0,0,0,0,0,0,0,0,0,0,0,0,0,0,0,0,0,0,0,363,364,365,0,0,0,0,0,0,0,0,0,0,
0,0,0,0,0,0,0,0,0,0,0,0,0,0,0,0,0,0,0,363,364,365,0,0,0,0,0,0,0,0,0,0,
0,0,0,0,0,0,0,0,0,0,0,0,0,0,0,0,0,0,0,363,364,365,0,0,0,0,0,0,0,0,0,0,
0,0,0,0,0,0,0,0,0,0,0,0,0,0,0,0,0,0,0,363,364,365,0,0,0,0,0,0,0,0,0,0,
0,0,0,0,0,0,0,0,0,0,0,0,0,0,0,0,0,0,0,363,364,365,0,0,0,0,0,0,0,0,0,0,
0,0,0,0,0,0,0,0,0,0,0,0,0,0,0,0,0,0,0,363,364,365,0,0,0,0,0,0,0,0,0,0,
0,0,0,0,0,0,0,0,0,0,0,0,0,0,0,0,0,0,0,363,364,365,0,0,0,0,0,0,0,0,0,0,
0,0,0,0,0,0,0,0,0,0,0,0,0,0,0,0,0,0,0,363,364,365,0,0,0,0,0,0,0,0,0,0,
0,0,0,0,0,0,0,0,0,0,0,0,0,0,0,0,0,0,0,363,364,365,0,0,0,0,0,0,0,0,0,0,
0,0,0,0,0,0,0,0,0,0,0,0,0,0,0,0,0,0,0,374,375,376,0,0,0,0,0,0,0,0,0,0,
0,0,0,0,0,0,0,0,0,0,0,0,0,0,0,0,0,0,0,0,0,0,0,0,0,0,0,0,0,0,0,0,
0,0,0,0,0,0,0,0,0,0,0,0,0,0,0,0,0,0,0,0,0,0,0,0,0,0,0,0,0,0,0,0,
0,0,0,0,0,0,0,0,0,0,0,0,0,0,0,0,0,0,0,0,0,0,0,0,0,0,0,0,0,0,0,0,
0,0,0,0,0,0,0,0,0,0,0,0,0,0,0,0,0,0,0,0,0,0,0,0,0,0,0,0,0,0,0,0,
0,0,0,0,0,0,0,0,0,0,0,0,0,0,0,0,0,0,0,0,0,0,0,0,0,0,0,0,0,0,0,0,
0,0,0,0,0,0,0,0,0,0,0,0,0,0,0,0,0,0,0,0,0,0,0,0,0,0,0,0,0,0,0,0,
0,0,0,0,0,0,0,0,0,0,0,0,0,0,0,0,0,0,0,0,0,0,0,0,0,0,0,0,0,0,0,0
</data>
 </layer>
 <layer id="8" name="Hill3" width="32" height="18">
  <data encoding="csv">
0,0,0,0,0,0,0,0,0,0,0,0,0,0,0,0,0,0,0,0,0,0,0,0,0,0,0,0,0,0,0,0,
0,0,0,0,0,0,0,0,0,0,0,0,0,0,0,0,0,0,0,0,363,365,0,0,0,0,0,0,0,0,0,0,
0,0,0,0,0,0,0,0,0,0,0,0,0,0,0,0,0,0,0,0,363,365,0,0,0,0,0,0,0,0,0,0,
0,0,0,0,0,0,0,0,0,0,0,0,0,0,0,0,0,0,0,0,363,365,0,0,0,0,0,0,0,0,0,0,
0,0,0,0,0,0,0,0,0,0,0,0,0,0,0,0,0,0,0,0,363,365,0,0,0,0,0,0,0,0,0,0,
0,0,0,0,0,0,0,0,0,0,0,0,0,0,0,0,0,0,0,0,363,365,0,0,0,0,0,0,0,0,0,0,
0,0,0,0,0,0,0,0,0,0,0,0,0,0,0,0,0,0,0,0,363,365,0,0,0,0,0,0,0,0,0,0,
0,0,0,0,0,0,0,0,0,0,0,0,0,0,0,0,0,0,0,0,363,365,0,0,0,0,0,0,0,0,0,0,
0,0,0,0,0,0,0,0,0,0,0,0,0,0,0,0,0,0,0,0,374,376,0,0,0,0,0,0,0,0,0,0,
0,0,0,0,0,0,0,0,0,0,0,0,0,0,0,0,0,0,0,0,0,0,0,0,0,0,0,0,0,0,0,0,
0,0,0,0,0,0,0,0,0,0,0,0,0,0,0,0,0,0,0,0,0,0,0,0,0,0,0,0,0,0,0,0,
0,0,0,0,0,0,0,0,0,0,0,0,0,0,0,0,0,0,0,0,0,0,0,0,0,0,0,0,0,0,0,0,
0,0,0,0,0,0,0,0,0,0,0,0,0,0,0,0,0,0,0,0,0,0,0,0,0,0,0,0,0,0,0,0,
0,0,0,0,0,0,0,0,0,0,0,0,0,0,0,0,0,0,0,0,0,0,0,0,0,0,0,0,0,0,0,0,
0,0,0,0,0,0,0,0,0,0,0,0,0,0,0,0,0,0,0,0,0,0,0,0,0,0,0,0,0,0,0,0,
0,0,0,0,0,0,0,0,0,0,0,0,0,0,0,0,0,0,0,0,0,0,0,0,0,0,0,0,0,0,0,0,
0,0,0,0,0,0,0,0,0,0,0,0,0,0,0,0,0,0,0,0,0,0,0,0,0,0,0,0,0,0,0,0,
0,0,0,0,0,0,0,0,0,0,0,0,0,0,0,0,0,0,0,0,0,0,0,0,0,0,0,0,0,0,0,0
</data>
 </layer>
 <layer id="10" name="BarrageExit" width="32" height="18">
  <data encoding="csv">
0,0,0,0,0,0,0,0,0,0,0,0,0,0,0,0,0,0,0,0,0,0,0,0,0,0,0,0,0,0,0,0,
0,0,0,0,0,0,0,0,0,0,0,0,0,0,0,0,0,0,0,0,0,0,0,0,0,0,0,0,0,0,0,0,
0,0,0,0,0,0,0,0,0,0,0,0,0,0,0,0,0,0,0,0,0,0,0,0,0,0,0,0,0,0,0,0,
0,0,0,0,0,0,0,0,0,0,0,0,0,0,0,0,0,0,0,0,0,0,0,0,0,0,0,0,0,0,0,0,
0,0,0,0,0,0,0,0,0,0,0,0,0,0,0,0,0,0,0,0,0,0,0,0,0,0,0,0,0,0,0,0,
0,0,0,0,0,0,0,0,0,0,0,0,0,0,0,0,0,0,0,0,0,0,0,0,0,0,0,0,0,0,0,0,
0,0,0,0,0,0,0,0,0,0,0,0,0,0,0,0,0,0,0,0,0,0,0,0,0,0,0,0,0,0,0,0,
0,0,0,0,0,0,0,0,0,0,0,0,0,0,0,0,0,0,0,0,0,0,0,0,0,0,0,0,0,0,0,0,
0,0,0,0,0,0,0,0,0,0,0,0,0,0,0,0,0,0,0,0,0,0,0,0,0,0,0,0,0,0,0,0,
0,0,0,0,0,0,0,0,0,0,0,0,0,0,0,0,0,0,0,0,0,0,479,480,481,479,480,481,479,480,481,0,
0,0,0,0,0,0,0,0,0,0,0,0,0,0,0,0,0,0,0,0,0,0,486,487,488,486,487,488,486,487,488,0,
0,0,0,0,0,0,0,0,0,0,0,0,0,0,0,0,0,0,0,0,0,0,493,494,495,493,494,495,493,494,495,0,
0,0,0,0,0,0,0,0,0,0,0,0,0,0,0,0,0,0,0,0,0,0,0,0,0,0,0,0,0,0,0,0,
0,0,0,0,0,0,0,0,0,0,0,0,0,0,0,0,0,0,0,0,0,0,0,0,0,0,0,0,0,0,0,0,
0,0,0,0,0,0,0,0,0,0,0,0,0,0,0,0,0,0,0,0,0,0,0,0,0,0,0,0,0,0,0,0,
0,0,0,0,0,0,0,0,0,0,0,0,0,0,0,0,0,0,0,0,0,0,0,0,0,0,0,0,0,0,0,0,
0,0,0,0,0,0,0,0,0,0,0,0,0,0,0,0,0,0,0,0,0,0,0,0,0,0,0,0,0,0,0,0,
0,0,0,0,0,0,0,0,0,0,0,0,0,0,0,0,0,0,0,0,0,0,0,0,0,0,0,0,0,0,0,0
</data>
 </layer>
 <layer id="3" name="OnFloor" width="32" height="18">
  <data encoding="csv">
0,0,0,0,0,0,0,0,0,0,0,0,0,0,0,0,0,0,0,0,0,0,0,0,0,0,0,0,0,0,0,0,
0,0,0,0,730,0,0,0,0,0,731,0,0,0,0,10,0,0,0,0,0,0,0,0,0,0,0,0,0,0,0,0,
0,0,0,0,0,0,0,0,0,0,0,0,0,0,0,758,0,0,0,0,723,0,0,0,504,0,0,0,731,0,0,0,
0,732,0,0,725,726,0,713,0,0,0,0,0,0,0,763,0,0,0,0,0,0,0,733,0,0,0,0,0,0,0,0,
0,0,0,0,723,0,0,0,0,0,0,713,0,0,0,0,0,0,0,0,0,0,0,0,0,0,0,0,512,0,0,0,
0,0,0,0,0,0,0,0,0,0,0,0,0,0,0,0,0,723,0,0,722,0,0,0,508,0,0,0,0,0,0,0,
0,0,0,0,0,0,701,702,0,714,0,0,722,0,0,77,0,0,714,0,0,0,0,0,0,0,0,732,0,0,0,0,
0,0,0,0,0,0,0,0,0,0,0,0,0,641,642,643,644,0,0,0,0,713,0,0,0,0,0,0,0,0,0,0,
0,0,0,0,0,723,0,0,0,722,0,0,0,653,654,655,656,0,0,722,0,0,0,0,0,0,0,0,0,0,0,0,
0,8,9,0,0,0,0,0,0,0,0,0,0,0,0,0,0,0,0,0,0,0,0,0,0,0,0,0,0,0,0,0,
0,0,0,0,0,0,0,0,699,700,0,0,0,0,0,0,0,0,0,0,0,0,0,0,0,0,0,0,0,0,0,0,
0,0,0,0,713,0,0,0,0,0,0,0,0,0,712,0,0,0,0,713,0,0,0,0,0,0,0,0,0,0,0,0,
0,0,732,0,0,0,0,0,713,0,0,722,0,0,0,0,714,0,0,0,0,0,0,504,0,0,0,0,0,0,0,0,
0,0,0,0,0,0,0,0,0,0,0,0,0,0,0,0,0,0,722,0,0,0,0,0,0,0,730,0,0,0,0,0,
0,0,0,730,0,0,0,0,0,0,0,0,5,0,0,0,0,0,0,0,0,0,0,0,0,733,0,0,0,0,0,0,
0,0,0,0,0,0,0,0,733,0,0,0,10,0,0,0,731,0,0,0,0,0,731,0,0,0,0,0,0,0,0,0,
0,0,0,0,0,731,0,0,0,0,0,0,10,0,0,733,0,0,0,0,0,0,0,0,0,0,0,714,0,0,0,0,
0,0,0,0,0,0,0,0,0,0,0,0,0,0,0,0,0,0,0,0,0,0,0,0,0,0,0,0,0,0,0,0
</data>
 </layer>
 <layer id="4" name="InFrontOfPlayer" width="32" height="18">
  <data encoding="csv">
0,0,0,0,0,0,0,0,0,0,0,0,0,0,0,0,0,0,0,0,0,0,0,0,0,0,0,0,0,0,0,0,
0,0,0,0,0,0,0,0,0,0,0,0,0,0,0,0,0,0,0,0,0,0,0,0,0,0,0,0,0,0,0,0,
0,0,0,0,0,0,0,0,0,0,0,0,0,0,0,0,0,0,0,0,0,0,0,0,0,0,0,0,0,0,0,0,
0,0,0,0,0,0,0,0,0,0,0,0,0,0,0,0,0,0,0,0,0,0,0,0,0,0,0,0,0,0,0,0,
0,0,0,0,0,0,0,0,0,0,0,0,0,0,0,0,0,0,0,0,0,0,0,0,0,0,0,0,0,0,0,0,
0,0,0,0,0,0,692,693,0,0,0,0,0,617,618,619,620,0,0,0,0,0,0,0,0,0,0,0,0,0,0,0,
0,0,0,0,0,0,0,0,0,0,0,0,0,629,630,631,632,0,0,0,0,0,0,0,0,0,0,0,0,0,0,0,
0,0,0,0,0,0,0,0,0,0,0,0,0,0,0,0,0,0,0,0,0,0,0,0,0,0,0,0,0,0,0,0,
0,0,0,0,0,0,0,0,0,0,0,0,0,0,0,0,0,0,0,0,0,0,0,0,0,0,0,0,0,0,0,0,
0,0,0,0,0,0,0,0,690,691,0,0,0,0,0,0,0,0,0,0,0,0,0,0,0,0,0,0,0,0,0,0,
0,0,0,0,0,0,0,0,0,0,0,0,0,0,0,0,0,0,0,0,0,0,0,0,0,0,0,0,0,0,0,0,
0,0,0,0,0,0,0,0,0,0,0,0,0,0,0,0,0,0,0,0,0,0,0,0,0,0,0,0,0,0,0,0,
0,0,0,0,0,0,0,0,0,0,0,0,0,0,0,0,0,0,0,0,0,0,0,0,0,0,0,0,0,0,0,0,
0,0,0,0,0,0,0,0,0,0,0,0,0,0,0,0,0,0,0,0,0,0,0,0,0,0,0,0,0,0,0,0,
0,0,0,0,0,0,0,0,0,0,0,0,0,0,0,0,0,0,0,0,0,0,0,0,0,0,0,0,0,0,0,0,
0,0,0,0,0,0,0,0,0,0,0,0,0,0,0,0,0,0,0,0,0,0,0,0,0,0,0,0,0,0,0,0,
0,0,0,0,0,0,0,0,0,0,0,0,0,0,0,0,0,0,0,0,0,0,0,0,0,0,0,0,0,0,0,0,
0,0,0,0,0,0,0,0,0,0,0,0,0,0,0,0,0,0,0,0,0,0,0,0,0,0,0,0,0,0,0,0
</data>
 </layer>
 <layer id="5" name="Collisions" width="32" height="18" visible="0">
  <data encoding="csv">
661,661,661,661,661,661,661,661,661,661,661,661,661,661,658,0,657,661,661,661,661,661,661,661,661,661,661,661,661,661,661,661,
661,661,661,661,661,661,661,661,661,661,661,661,661,661,658,0,657,661,661,661,661,661,661,661,661,661,661,661,661,661,661,661,
661,661,661,658,0,0,0,0,0,657,661,661,661,661,658,0,657,661,661,661,661,661,661,661,661,661,661,661,661,661,661,661,
661,661,658,0,661,661,0,0,0,0,0,0,0,0,0,0,0,0,661,661,661,661,661,661,661,661,661,661,661,661,661,661,
661,661,658,0,0,0,0,0,0,0,0,0,0,0,0,0,0,0,661,661,661,661,661,661,661,661,661,661,661,661,661,661,
661,661,658,0,0,0,0,0,0,0,0,0,0,0,0,0,0,0,661,661,661,661,661,661,661,661,661,661,661,661,661,661,
661,661,658,0,0,0,657,658,0,0,0,0,0,0,0,0,0,0,661,661,661,661,661,661,661,661,661,661,661,661,661,661,
661,661,658,0,0,0,0,0,0,0,0,0,0,657,661,661,658,0,661,661,661,661,661,661,661,661,661,661,661,661,661,661,
659,659,0,0,0,0,0,0,0,0,0,0,0,657,661,661,658,0,661,661,661,661,661,661,661,661,661,661,661,661,661,661,
0,0,0,0,0,0,0,0,0,0,0,0,0,0,0,0,0,0,661,661,661,661,661,661,661,661,661,661,661,661,661,661,
661,661,658,0,0,0,0,0,657,658,0,0,0,0,0,0,0,0,661,661,661,661,661,661,661,661,661,661,661,661,661,661,
661,661,681,0,0,0,0,0,0,0,0,0,0,0,672,0,0,0,661,661,661,661,661,661,661,661,661,661,661,661,661,661,
661,661,661,681,660,660,0,0,0,0,0,0,0,0,0,0,0,0,661,661,661,661,661,661,661,661,661,661,661,661,661,661,
661,661,661,661,661,661,681,660,0,0,0,0,0,0,0,0,0,0,661,661,661,661,661,661,661,661,661,661,661,661,661,661,
661,661,661,661,661,661,661,661,681,660,660,0,0,0,660,660,660,682,661,661,661,661,661,661,661,661,661,661,661,661,661,661,
661,661,661,661,661,661,661,661,661,661,661,658,0,657,661,661,661,681,661,661,661,661,661,661,661,661,661,661,661,661,661,661,
661,661,661,661,661,661,661,661,661,661,661,658,0,657,661,661,661,661,661,661,661,661,661,661,661,661,661,661,661,661,661,661,
661,661,661,661,661,661,661,661,661,661,661,658,0,657,661,661,661,661,661,661,661,661,661,661,661,661,661,661,661,661,661,661
</data>
 </layer>
</map>
