<?xml version="1.0" encoding="UTF-8"?>
<map version="1.10" tiledversion="1.12.2" orientation="orthogonal" renderorder="right-down" width="32" height="18" tilewidth="16" tileheight="16" infinite="0" nextlayerid="6" nextobjectid="1">
 <editorsettings>
  <export target="camping.json" format="json"/>
 </editorsettings>
 <tileset firstgid="1" source="../tilesets/Water.tsx"/>
 <tileset firstgid="5" source="../tilesets/Wood Bridge.tsx"/>
 <tileset firstgid="16" source="../tilesets/Grass.tsx"/>
 <tileset firstgid="93" source="../tilesets/small_huts.tsx"/>
 <tileset firstgid="237" source="../tilesets/Paths.tsx"/>
 <tileset firstgid="253" source="../tilesets/Basic_Grass_Biom_things.tsx"/>
 <tileset firstgid="298" source="../tilesets/collisions.tsx"/>
 <tileset firstgid="330" source="../tilesets/Barn structures.tsx"/>
 <tileset firstgid="341" source="../tilesets/Boats.tsx"/>
 <tileset firstgid="395" source="../tilesets/Bush_Tiles.tsx"/>
 <tileset firstgid="410" source="../Wood_Bridge.tsx"/>
 <layer id="1" name="Water" width="32" height="18">
  <data encoding="csv">
0,0,0,0,0,0,0,0,0,0,0,0,0,0,0,0,0,0,0,0,0,0,0,0,0,0,0,0,0,0,0,0,
0,2,3,4,1,2,3,4,1,2,3,4,1,2,3,4,1,2,3,4,1,2,3,4,1,2,3,4,1,2,3,0,
0,2,3,4,1,2,3,4,1,2,3,4,1,2,3,4,1,2,3,4,1,2,3,4,1,2,3,4,1,2,3,0,
0,2,3,4,1,2,3,4,1,2,3,4,1,2,3,4,1,2,3,4,1,2,3,4,1,2,3,4,1,2,3,0,
0,2,3,4,1,2,3,4,1,2,3,4,1,2,3,4,1,2,3,4,1,2,3,4,1,2,3,4,1,2,3,0,
0,2,3,4,1,2,3,4,1,2,3,4,1,2,3,4,1,2,3,4,1,2,3,4,1,2,3,4,1,2,3,0,
0,2,3,4,1,2,3,4,1,2,3,4,1,2,3,4,1,2,3,4,1,2,3,4,1,2,3,4,1,2,3,0,
0,2,3,4,1,2,3,4,1,2,3,4,1,2,3,4,1,2,3,4,1,2,3,4,1,2,3,4,1,2,3,0,
0,2,3,4,1,2,3,4,1,2,3,4,1,2,3,4,1,2,3,4,1,2,3,4,1,2,3,4,1,2,3,0,
0,2,3,4,1,2,3,4,1,2,3,4,1,2,3,4,1,2,3,4,1,2,3,4,1,2,3,4,1,2,3,0,
0,2,3,4,1,2,3,4,1,2,3,4,1,2,3,4,1,2,3,4,1,2,3,4,1,2,3,4,1,2,3,0,
0,2,3,4,1,2,3,4,1,2,3,4,1,2,3,4,1,2,3,4,1,2,3,4,1,2,3,4,1,2,3,0,
0,2,3,4,1,2,3,4,1,2,3,4,1,2,3,4,1,2,3,4,1,2,3,4,1,2,3,4,1,2,3,0,
0,2,3,4,1,2,3,4,1,2,3,4,1,2,3,4,1,2,3,4,1,2,3,4,1,2,3,4,1,2,3,0,
0,2,3,4,1,2,3,4,1,2,3,4,1,2,3,4,1,2,3,4,1,2,3,4,1,2,3,4,1,2,3,0,
0,2,3,4,1,2,3,4,1,2,3,4,1,2,3,4,1,2,3,4,1,2,3,4,1,2,3,4,1,2,3,0,
0,2,3,4,1,2,3,4,1,2,3,4,1,2,3,4,1,2,3,4,1,2,3,4,1,2,3,4,1,2,3,0,
0,0,0,0,0,0,0,0,0,0,0,0,0,0,0,0,0,0,0,0,0,0,0,0,0,0,0,0,0,0,0,0
</data>
 </layer>
 <layer id="2" name="Floor" width="32" height="18">
  <data encoding="csv">
0,0,0,0,0,0,0,0,0,0,0,0,0,0,0,0,0,0,0,0,0,0,0,0,0,0,0,0,0,0,0,0,
0,0,0,0,0,0,0,0,0,0,0,0,0,0,0,0,0,0,0,0,0,0,0,0,0,0,0,0,0,0,0,0,
0,0,0,0,0,0,0,0,0,0,0,0,0,0,0,0,0,0,0,0,0,0,0,0,0,0,0,0,0,0,0,0,
0,0,0,0,16,17,17,17,17,17,17,17,17,17,17,17,17,17,17,17,17,17,17,17,17,18,0,0,0,0,0,0,
0,0,0,16,44,28,28,28,28,28,28,28,28,28,28,28,28,28,28,28,28,28,28,28,28,43,18,0,0,0,0,0,
0,0,0,27,28,28,28,28,28,28,28,28,28,28,28,28,28,28,28,28,28,28,28,28,28,28,43,18,0,0,0,0,
0,0,16,44,28,28,28,28,28,28,28,28,28,28,28,28,28,28,28,28,28,28,28,28,71,28,28,29,0,0,0,0,
0,0,27,28,28,82,28,28,28,28,28,71,28,28,28,28,28,28,28,28,28,28,28,28,28,28,28,29,0,0,0,0,
0,0,27,28,28,28,28,28,28,28,28,28,28,28,71,28,28,28,82,28,28,82,28,28,28,28,28,29,0,0,0,0,
0,0,27,28,28,28,28,28,28,28,28,28,28,28,28,28,28,28,28,28,28,28,28,28,28,28,28,29,0,0,0,0,
0,0,27,28,28,28,28,28,28,28,28,28,28,28,28,28,28,28,28,28,28,28,28,28,28,28,28,29,0,0,0,0,
0,0,27,28,28,28,28,28,82,28,28,28,28,28,28,82,28,28,28,28,28,28,28,28,28,28,32,40,0,0,0,0,
0,0,27,28,28,28,28,28,28,28,28,28,28,28,28,28,28,28,28,28,28,28,28,28,28,28,29,0,0,0,0,0,
0,0,38,33,28,28,28,28,28,28,28,28,28,28,28,28,28,28,28,28,28,28,28,28,28,28,29,0,0,0,0,0,
0,0,0,38,33,28,28,28,28,28,32,39,39,39,39,39,39,39,39,39,33,28,28,28,28,32,40,0,0,0,0,0,
0,0,0,0,38,39,39,39,39,39,40,0,0,0,0,0,0,0,0,0,38,39,39,39,39,40,0,0,0,0,0,0,
0,0,0,0,0,0,0,0,0,0,0,0,0,0,0,0,0,0,0,0,0,0,0,0,0,0,0,0,0,0,0,0,
0,0,0,0,0,0,0,0,0,0,0,0,0,0,0,0,0,0,0,0,0,0,0,0,0,0,0,0,0,0,0,0
</data>
 </layer>
 <layer id="3" name="OnFloor" width="32" height="18">
  <data encoding="csv">
0,0,0,0,0,0,0,0,0,0,0,0,0,0,0,0,0,0,0,0,0,0,0,0,0,0,0,0,0,0,0,0,
0,0,0,0,0,0,0,0,297,0,0,0,0,0,0,10,0,0,0,0,0,0,295,0,0,0,0,0,0,0,0,0,
0,0,0,0,296,0,0,0,0,0,0,0,0,0,0,415,0,0,0,0,0,0,0,0,0,0,0,0,0,294,0,0,
0,0,0,0,0,0,0,0,0,0,0,0,0,286,0,420,0,0,0,0,0,0,277,0,0,0,0,0,0,0,0,0,
0,0,294,0,0,0,0,0,0,278,0,0,0,0,0,237,0,173,174,175,176,0,0,0,0,0,0,0,0,0,0,0,
0,0,0,0,117,118,119,120,0,0,125,126,127,128,0,241,0,185,186,187,188,0,0,169,170,171,172,0,0,0,0,0,
0,0,0,0,129,130,131,132,0,0,137,138,139,140,0,241,0,0,0,237,0,0,0,181,182,183,184,0,0,0,0,0,
0,0,0,0,0,0,0,0,0,0,0,0,0,0,0,246,242,251,251,247,0,0,0,0,242,247,0,0,0,0,0,0,
0,296,0,0,0,0,278,250,251,251,251,251,251,251,251,243,247,0,246,251,251,251,251,251,247,0,0,0,0,0,295,0,
0,0,0,277,0,0,0,0,0,0,0,0,0,0,0,241,277,0,0,0,0,0,0,0,0,0,0,0,0,0,0,0,
0,0,0,0,0,0,0,0,0,0,217,218,219,220,242,247,0,0,0,0,0,0,0,0,0,0,0,0,296,0,0,0,
0,0,0,0,213,214,215,216,0,0,229,230,231,232,241,0,0,221,222,223,224,0,0,165,166,167,168,0,0,0,0,0,
0,0,0,0,225,226,227,228,0,0,0,0,250,251,247,243,0,233,234,235,236,0,0,177,178,179,180,0,0,0,0,0,
0,295,0,0,0,0,0,0,0,0,0,0,0,0,0,245,0,0,0,0,0,0,0,0,0,0,0,0,0,0,0,0,
0,0,294,0,0,0,0,0,0,277,0,0,0,0,341,342,343,0,0,0,0,0,0,286,0,0,0,0,0,297,0,0,
0,0,0,0,0,0,0,0,0,0,0,0,0,0,350,351,352,0,0,0,0,0,0,0,0,0,0,0,0,0,0,0,
0,0,0,0,296,0,0,0,0,0,0,295,0,0,0,0,0,0,297,0,0,0,0,0,0,0,0,0,0,0,0,0,
0,0,0,0,0,0,0,0,0,0,0,0,0,0,0,0,0,0,0,0,0,0,0,0,0,0,0,0,0,0,0,0
</data>
 </layer>
 <layer id="4" name="InFrontOfPlayer" width="32" height="18">
  <data encoding="csv">
0,0,0,0,0,0,0,0,0,0,0,0,0,0,0,0,0,0,0,0,0,0,0,0,0,0,0,0,0,0,0,0,
0,0,0,0,0,0,0,0,0,0,0,0,0,0,0,0,0,0,0,0,0,0,0,0,0,0,0,0,0,0,0,0,
0,0,0,0,0,0,0,0,0,0,0,0,0,0,0,0,0,149,150,151,152,0,0,0,0,0,0,0,0,0,0,0,
0,0,0,0,93,94,95,96,0,0,101,102,103,104,0,0,0,161,162,163,164,0,0,145,146,147,148,0,0,0,0,0,
0,0,0,0,105,106,107,108,0,0,113,114,115,116,0,0,0,0,0,0,0,0,0,157,158,159,160,0,0,0,0,0,
0,0,0,0,0,0,0,0,0,0,0,0,0,0,0,0,0,0,0,0,0,0,0,0,0,0,0,0,0,0,0,0,
0,0,0,0,0,0,0,0,0,0,0,0,0,0,0,0,0,0,0,0,0,0,0,0,0,0,0,0,0,0,0,0,
0,0,0,0,0,0,0,0,0,0,0,0,0,0,0,0,0,0,0,0,0,0,0,0,0,0,0,0,0,0,0,0,
0,0,0,0,0,0,0,0,0,0,193,194,195,196,0,0,0,0,0,0,0,0,0,0,0,0,0,0,0,0,0,0,
0,0,0,0,189,190,191,192,0,0,205,206,207,208,0,0,0,197,198,199,200,0,0,141,142,143,144,0,0,0,0,0,
0,0,0,0,201,202,203,204,0,0,0,0,0,0,0,0,0,209,210,211,212,0,0,153,154,155,156,0,0,0,0,0,
0,0,0,0,0,0,0,0,0,0,0,0,0,0,0,0,0,0,0,0,0,0,0,0,0,0,0,0,0,0,0,0,
0,0,0,0,0,0,0,0,0,0,0,0,0,0,0,0,0,0,0,0,0,0,0,0,0,0,0,0,0,0,0,0,
0,0,0,0,0,0,0,0,0,0,0,0,0,0,0,0,0,0,0,0,0,0,0,0,0,0,0,0,0,0,0,0,
0,0,0,0,0,0,0,0,0,0,0,0,0,0,0,0,0,0,0,0,0,0,0,0,0,0,0,0,0,0,0,0,
0,0,0,0,0,0,0,0,0,0,0,0,0,0,0,0,0,0,0,0,0,0,0,0,0,0,0,0,0,0,0,0,
0,0,0,0,0,0,0,0,0,0,0,0,0,0,0,0,0,0,0,0,0,0,0,0,0,0,0,0,0,0,0,0,
0,0,0,0,0,0,0,0,0,0,0,0,0,0,0,0,0,0,0,0,0,0,0,0,0,0,0,0,0,0,0,0
</data>
 </layer>
 <layer id="5" name="Collisions" width="32" height="18" visible="0">
  <data encoding="csv">
302,302,302,302,302,302,302,302,302,302,302,302,302,302,299,0,298,302,302,302,302,302,302,302,302,302,302,302,302,302,302,302,
302,302,302,302,302,302,302,302,302,302,302,302,302,302,299,0,298,302,302,302,302,302,302,302,302,302,302,302,302,302,302,302,
302,302,302,302,302,302,302,302,302,302,302,302,302,302,299,0,298,302,302,302,302,302,302,302,302,302,302,302,302,302,302,302,
302,302,302,302,299,0,0,0,0,0,0,0,0,0,0,0,0,0,0,0,0,0,0,0,0,0,302,302,302,302,302,302,
302,302,302,299,0,0,0,0,0,0,0,0,0,0,0,0,0,298,302,302,299,0,0,0,0,0,0,302,302,302,302,302,
302,302,302,299,298,302,302,299,0,0,298,302,302,299,0,0,0,298,302,302,299,0,0,298,302,302,299,298,302,302,302,302,
302,302,299,0,298,302,302,299,0,0,298,302,302,299,0,0,0,0,0,0,0,0,0,298,302,302,299,298,302,302,302,302,
302,302,299,0,0,0,0,0,0,0,0,0,0,0,0,0,0,0,0,0,0,0,0,0,0,0,0,298,302,302,302,302,
302,302,299,0,0,0,0,0,0,0,0,0,0,0,0,0,0,0,0,0,0,0,0,0,0,0,0,298,302,302,302,302,
302,302,299,0,0,0,0,0,0,0,0,0,0,0,0,0,0,0,0,0,0,0,0,0,0,0,0,298,302,302,302,302,
302,302,299,0,0,0,0,0,0,0,298,302,302,299,0,0,0,0,0,0,0,0,0,0,0,0,0,298,302,302,302,302,
302,302,299,0,298,302,302,299,0,0,298,302,302,299,0,0,0,298,302,302,299,0,0,298,302,302,299,323,302,302,302,302,
302,302,299,0,298,302,302,299,0,0,0,0,0,0,0,0,0,298,302,302,299,0,0,298,302,302,302,302,302,302,302,302,
302,302,322,0,0,0,0,0,0,0,0,0,0,0,0,0,0,0,0,0,0,0,0,0,0,0,298,302,302,302,302,302,
302,302,302,322,0,0,0,0,0,0,0,301,301,301,301,301,301,301,301,301,0,0,0,0,0,0,323,302,302,302,302,302,
302,302,302,302,322,301,301,301,301,301,323,302,302,302,302,302,302,302,302,302,322,301,301,301,301,323,302,302,302,302,302,302,
302,302,302,302,302,302,302,302,302,302,302,302,302,302,302,302,302,302,302,302,302,302,302,302,302,302,302,302,302,302,302,302,
302,302,302,302,302,302,302,302,302,302,302,302,302,302,302,302,302,302,302,302,302,302,302,302,302,302,302,302,302,302,302,302
</data>
 </layer>
</map>
