<?xml version="1.0" encoding="UTF-8"?>
<map version="1.10" tiledversion="1.12.2" orientation="orthogonal" renderorder="right-down" width="32" height="18" tilewidth="16" tileheight="16" infinite="0" nextlayerid="8" nextobjectid="1">
 <editorsettings>
  <export target="fontaneilles.json" format="json"/>
 </editorsettings>
 <tileset firstgid="1" source="../tilesets/Water.tsx"/>
 <tileset firstgid="5" source="../tilesets/Wood Bridge.tsx"/>
 <tileset firstgid="16" source="../tilesets/Grass.tsx"/>
 <tileset firstgid="93" source="../tilesets/collisions.tsx"/>
 <tileset firstgid="125" source="../tilesets/Chikcen_Houses.tsx"/>
 <tileset firstgid="389" source="../tilesets/Tilled Dirt.tsx"/>
 <tileset firstgid="433" source="../tilesets/Basic_Grass_Biom_things.tsx"/>
 <tileset firstgid="478" source="../tilesets/Mailbox Animation Frames.tsx"/>
 <tileset firstgid="502" source="../tilesets/Stone_Path.tsx"/>
 <tileset firstgid="518" source="../tilesets/Trees, stumps and bushes v2.tsx"/>
 <layer id="1" name="Water" width="32" height="18">
  <data encoding="csv">
0,0,0,0,0,0,0,0,0,0,0,0,0,0,0,0,0,0,0,0,0,0,0,0,0,0,0,0,0,0,0,0,
0,2,3,4,1,2,3,4,1,2,3,4,1,2,3,4,1,2,3,4,1,2,3,4,1,2,3,4,1,2,3,0,
0,2,3,4,1,2,3,4,1,2,3,4,1,2,3,4,1,2,3,4,1,2,3,4,1,2,3,4,1,2,3,0,
0,2,3,4,1,2,3,4,1,2,3,4,1,2,3,4,1,2,3,4,1,2,3,4,1,2,3,4,1,2,3,0,
0,2,3,4,1,2,3,4,1,2,3,4,1,2,3,4,1,2,3,4,1,2,3,4,1,2,3,4,1,2,3,0,
0,2,3,4,1,2,3,4,1,2,3,4,1,2,3,4,1,2,3,4,1,2,3,4,1,2,3,4,1,2,3,0,
0,2,3,4,1,2,3,4,1,2,3,4,1,2,3,4,1,2,3,4,1,2,3,4,1,2,3,4,1,2,3,0,
0,2,3,4,1,2,3,4,1,2,3,4,1,2,3,4,1,2,3,4,1,2,3,4,1,2,3,4,1,2,3,0,
0,2,3,4,1,2,3,4,1,2,3,4,1,2,3,4,1,2,3,4,1,2,3,4,1,2,3,4,1,2,3,0,
0,2,3,4,1,2,3,4,1,2,3,4,1,2,3,4,1,2,3,4,1,2,3,4,1,2,3,4,1,2,3,0,
0,2,3,4,1,2,3,4,1,2,3,4,1,2,3,4,1,2,3,4,1,2,3,4,1,2,3,4,1,2,3,0,
0,2,3,4,1,2,3,4,1,2,3,4,1,2,3,4,1,2,3,4,1,2,3,4,1,2,3,4,1,2,3,0,
0,2,3,4,1,2,3,4,1,2,3,4,1,2,3,4,1,2,3,4,1,2,3,4,1,2,3,4,1,2,3,0,
0,2,3,4,1,2,3,4,1,2,3,4,1,2,3,4,1,2,3,4,1,2,3,4,1,2,3,4,1,2,3,0,
0,2,3,4,1,2,3,4,1,2,3,4,1,2,3,4,1,2,3,4,1,2,3,4,1,2,3,4,1,2,3,0,
0,2,3,4,1,2,3,4,1,2,3,4,1,2,3,4,1,2,3,4,1,2,3,4,1,2,3,4,1,2,3,0,
0,2,3,4,1,2,3,4,1,2,3,4,1,2,3,4,1,2,3,4,1,2,3,4,1,2,3,4,1,2,3,0,
0,0,0,0,0,0,0,0,0,0,0,0,0,0,0,0,0,0,0,0,0,0,0,0,0,0,0,0,0,0,0,0
</data>
 </layer>
 <layer id="2" name="Floor" width="32" height="18">
  <data encoding="csv">
0,0,0,0,0,0,0,0,0,0,0,0,0,0,0,0,0,0,0,0,0,0,0,0,0,0,0,0,0,0,0,0,
0,0,0,0,0,0,0,0,0,0,0,0,0,0,0,0,0,0,0,0,0,0,0,0,0,0,0,0,0,0,0,0,
0,0,0,0,0,16,17,17,17,17,17,17,17,17,17,17,17,17,17,17,17,17,17,17,17,17,18,0,0,0,0,0,
0,0,0,0,16,44,28,28,28,28,28,28,28,28,71,28,28,28,28,28,28,28,28,28,28,28,43,18,0,0,0,0,
0,0,0,0,27,28,82,28,28,28,28,28,28,28,28,28,28,28,28,28,28,28,28,28,28,82,28,43,18,0,0,0,
0,0,0,16,44,28,28,28,71,28,28,28,28,28,28,28,28,82,28,28,28,71,28,28,28,28,28,28,43,18,0,0,
0,0,0,27,28,28,28,28,28,28,28,28,28,28,71,28,28,28,28,28,28,28,28,28,28,28,28,28,28,29,0,0,
0,0,0,27,28,28,28,28,28,28,82,28,28,28,28,28,28,28,28,28,28,28,28,28,28,28,71,28,28,29,0,0,
0,0,0,27,28,28,28,28,28,28,28,28,28,28,82,28,28,28,28,28,28,82,28,28,28,28,28,28,28,29,0,0,
0,0,0,27,28,82,28,28,28,28,28,28,28,28,28,28,28,71,28,28,28,28,28,28,28,28,28,28,28,29,0,0,
0,0,0,27,28,28,28,71,28,28,28,28,71,28,28,28,28,28,28,28,28,28,28,28,71,28,28,28,28,29,0,0,
0,0,0,38,39,33,28,28,28,28,82,28,28,28,28,28,28,28,28,28,28,28,28,28,28,28,28,82,28,29,0,0,
0,0,0,0,0,38,39,39,33,28,28,28,28,28,28,28,71,28,28,28,28,28,28,28,28,28,28,28,32,40,0,0,
0,0,0,0,0,0,0,0,38,39,39,33,28,82,28,28,28,28,28,28,28,28,28,28,28,32,39,39,40,0,0,0,
0,0,0,0,0,0,0,0,0,0,0,38,39,39,39,39,39,39,39,39,39,39,39,39,39,40,0,0,0,0,0,0,
0,0,0,0,0,0,0,0,0,0,0,0,0,0,0,0,0,0,0,0,0,0,0,0,0,0,0,0,0,0,0,0,
0,0,0,0,0,0,0,0,0,0,0,0,0,0,0,0,0,0,0,0,0,0,0,0,0,0,0,0,0,0,0,0,
0,0,0,0,0,0,0,0,0,0,0,0,0,0,0,0,0,0,0,0,0,0,0,0,0,0,0,0,0,0,0,0
</data>
 </layer>
 <layer id="6" name="DirtFloor" width="32" height="18">
  <data encoding="csv">
0,0,0,0,0,0,0,0,0,0,0,0,0,0,0,0,0,0,0,0,0,0,0,0,0,0,0,0,0,0,0,0,
0,0,0,0,0,0,0,0,0,0,0,0,0,0,0,0,0,0,0,0,0,0,0,0,0,0,0,0,0,0,0,0,
0,0,0,0,0,0,0,0,0,0,0,0,0,0,0,0,0,0,0,0,414,415,415,415,415,406,416,0,0,0,0,0,
0,0,0,0,0,0,0,0,0,0,0,0,0,0,0,0,0,0,0,0,422,423,423,391,423,423,417,416,0,0,0,0,
0,0,0,0,0,0,0,0,0,0,0,0,0,0,0,0,0,0,0,0,422,423,423,423,423,399,423,417,416,0,0,0,
0,0,0,0,0,0,0,0,0,0,0,0,0,0,0,0,0,0,0,0,422,423,399,423,423,423,391,423,417,416,0,0,
0,0,0,0,0,0,0,0,0,0,0,0,0,0,0,0,0,0,0,0,430,410,423,391,423,423,423,423,423,401,0,0,
0,0,0,0,0,0,0,0,0,0,0,0,0,0,0,0,0,0,0,0,0,430,410,423,423,399,423,423,391,424,0,0,
0,0,0,0,0,0,0,0,0,0,0,0,0,0,0,0,0,0,0,0,0,0,430,431,431,431,431,431,431,432,0,0,
0,0,0,0,0,0,0,0,0,0,0,0,0,0,0,0,0,0,0,0,0,0,0,0,0,0,0,0,0,0,0,0,
0,0,0,0,0,0,0,0,0,0,0,0,0,0,0,0,0,0,0,0,0,0,0,0,0,0,0,0,0,0,0,0,
0,0,0,0,0,0,0,0,0,0,0,0,0,0,0,0,0,0,0,0,0,0,0,0,0,0,0,0,0,0,0,0,
0,0,0,0,0,0,0,0,0,0,0,0,0,0,0,0,0,0,0,0,0,0,0,0,0,0,0,0,0,0,0,0,
0,0,0,0,0,0,0,0,0,0,0,0,0,0,0,0,0,0,0,0,0,0,0,0,0,0,0,0,0,0,0,0,
0,0,0,0,0,0,0,0,0,0,0,0,0,0,0,0,0,0,0,0,0,0,0,0,0,0,0,0,0,0,0,0,
0,0,0,0,0,0,0,0,0,0,0,0,0,0,0,0,0,0,0,0,0,0,0,0,0,0,0,0,0,0,0,0,
0,0,0,0,0,0,0,0,0,0,0,0,0,0,0,0,0,0,0,0,0,0,0,0,0,0,0,0,0,0,0,0,
0,0,0,0,0,0,0,0,0,0,0,0,0,0,0,0,0,0,0,0,0,0,0,0,0,0,0,0,0,0,0,0
</data>
 </layer>
 <layer id="3" name="OnFloor" width="32" height="18">
  <data encoding="csv">
0,0,0,0,0,0,0,0,0,0,0,0,0,0,0,0,0,0,0,0,0,0,0,0,0,0,0,0,0,0,0,0,
0,0,0,476,0,0,0,0,0,475,0,0,0,0,0,0,0,0,477,0,0,0,0,0,0,476,0,0,0,0,0,0,
0,474,0,0,0,0,0,0,0,0,0,0,0,0,0,0,0,0,0,466,461,0,0,0,0,0,0,0,474,0,0,0,
0,0,0,0,0,0,0,0,0,0,189,190,191,192,0,0,0,0,466,0,461,0,0,0,0,0,0,0,0,0,475,0,
0,0,0,0,0,173,174,175,176,458,213,214,215,216,457,181,182,183,184,0,461,0,548,549,550,0,606,607,0,0,0,0,
0,0,477,466,0,197,198,199,200,0,237,238,239,240,0,205,206,207,208,0,460,0,0,0,0,0,0,0,0,466,0,0,
0,0,0,0,0,221,222,223,224,0,0,502,0,0,0,229,230,231,232,0,0,460,0,0,0,609,610,0,0,0,0,0,
0,0,0,0,0,0,0,467,0,0,507,512,0,457,0,0,0,0,0,0,458,0,461,0,0,0,0,0,0,0,477,0,
0,0,0,0,0,0,0,0,0,507,512,0,0,0,0,0,507,516,516,516,516,516,516,508,0,0,461,460,461,460,0,0,
0,8,8,9,515,516,516,516,516,508,0,0,0,0,467,507,512,0,0,0,0,0,0,511,516,516,516,516,517,7,8,0,
0,0,0,0,0,0,0,0,0,511,516,508,0,0,507,512,0,0,0,0,0,0,0,0,0,0,0,0,0,0,0,0,
0,0,0,0,0,0,0,467,0,0,0,511,516,516,508,0,0,443,444,0,442,443,444,0,0,0,0,0,0,0,0,0,
0,0,0,0,0,466,0,0,0,0,457,0,0,0,511,508,0,0,442,0,443,444,0,0,0,442,443,444,442,0,476,0,
0,0,0,474,0,0,0,0,0,0,0,0,0,0,0,510,443,444,0,442,0,443,444,443,444,0,0,0,0,0,0,0,
0,0,0,0,0,0,475,0,0,0,0,0,0,0,0,5,0,0,0,0,0,0,0,0,0,0,0,0,0,0,0,0,
0,0,477,0,0,0,0,0,0,0,476,0,0,0,0,10,0,0,0,0,0,475,0,0,0,0,0,0,474,0,0,0,
0,0,0,0,0,0,0,0,0,0,0,0,0,0,0,10,0,0,476,0,0,0,0,0,0,477,0,0,0,0,0,0,
0,0,0,0,0,0,0,0,0,0,0,0,0,0,0,0,0,0,0,0,0,0,0,0,0,0,0,0,0,0,0,0
</data>
 </layer>
 <layer id="7" name="MailBox" width="32" height="18">
  <data encoding="csv">
0,0,0,0,0,0,0,0,0,0,0,0,0,0,0,0,0,0,0,0,0,0,0,0,0,0,0,0,0,0,0,0,
0,0,0,0,0,0,0,0,0,0,0,0,0,0,0,0,0,0,0,0,0,0,0,0,0,0,0,0,0,0,0,0,
0,0,0,0,0,0,0,0,0,0,0,0,0,0,0,0,0,0,0,0,0,0,0,0,0,0,0,0,0,0,0,0,
0,0,0,0,0,0,0,0,0,0,0,0,0,0,0,0,0,0,0,0,0,0,0,0,0,0,0,0,0,0,0,0,
0,0,0,0,0,0,0,0,0,0,0,0,0,489,490,0,0,0,0,0,0,0,0,0,0,0,0,0,0,0,0,0,
0,0,0,0,0,0,0,0,489,490,0,0,0,500,501,0,0,0,489,490,0,0,0,0,0,0,0,0,0,0,0,0,
0,0,0,0,0,0,0,0,500,501,0,0,0,0,0,0,0,0,500,501,0,0,0,0,0,0,0,0,0,0,0,0,
0,0,0,0,0,0,0,0,0,0,0,0,0,0,0,0,0,0,0,0,0,0,0,0,0,0,0,0,0,0,0,0,
0,0,0,0,0,0,0,0,0,0,0,0,0,0,0,0,0,0,0,0,0,0,0,0,0,0,0,0,0,0,0,0,
0,0,0,0,0,0,0,0,0,0,0,0,0,0,0,0,0,0,0,0,0,0,0,0,0,0,0,0,0,0,0,0,
0,0,0,0,0,0,0,0,0,0,0,0,0,0,0,0,0,0,0,0,0,0,0,0,0,0,0,0,0,0,0,0,
0,0,0,0,0,0,0,0,0,0,0,0,0,0,0,0,0,0,0,0,0,0,0,0,0,0,0,0,0,0,0,0,
0,0,0,0,0,0,0,0,0,0,0,0,0,0,0,0,0,0,0,0,0,0,0,0,0,0,0,0,0,0,0,0,
0,0,0,0,0,0,0,0,0,0,0,0,0,0,0,0,0,0,0,0,0,0,0,0,0,0,0,0,0,0,0,0,
0,0,0,0,0,0,0,0,0,0,0,0,0,0,0,0,0,0,0,0,0,0,0,0,0,0,0,0,0,0,0,0,
0,0,0,0,0,0,0,0,0,0,0,0,0,0,0,0,0,0,0,0,0,0,0,0,0,0,0,0,0,0,0,0,
0,0,0,0,0,0,0,0,0,0,0,0,0,0,0,0,0,0,0,0,0,0,0,0,0,0,0,0,0,0,0,0,
0,0,0,0,0,0,0,0,0,0,0,0,0,0,0,0,0,0,0,0,0,0,0,0,0,0,0,0,0,0,0,0
</data>
 </layer>
 <layer id="4" name="InFrontOfPlayer" width="32" height="18">
  <data encoding="csv">
0,0,0,0,0,0,0,0,0,0,0,0,0,0,0,0,0,0,0,0,0,0,0,0,0,0,0,0,0,0,0,0,
0,0,0,0,0,0,0,0,0,0,141,142,143,144,0,0,0,0,0,0,0,0,0,0,0,0,0,0,0,0,0,0,
0,0,0,0,0,125,126,127,128,0,165,166,167,168,0,133,134,135,136,0,0,0,524,525,526,0,0,0,0,0,0,0,
0,0,0,0,0,149,150,151,152,0,0,0,0,0,0,157,158,159,160,0,0,0,536,537,538,0,0,0,0,0,0,0,
0,0,0,0,0,0,0,0,0,0,0,0,0,0,0,0,0,0,0,0,0,0,0,0,0,0,0,0,0,0,0,0,
0,0,0,0,0,0,0,0,0,0,0,0,0,0,0,0,0,0,0,0,0,0,0,0,0,0,0,0,0,0,0,0,
0,0,0,0,0,0,0,0,0,0,0,0,0,0,0,0,0,0,0,0,0,0,0,0,0,0,0,0,0,0,0,0,
0,0,0,0,0,0,0,0,0,0,0,0,0,0,0,0,0,0,0,0,0,0,0,0,0,0,0,0,0,0,0,0,
0,0,0,0,0,0,0,0,0,0,0,0,0,0,0,0,0,0,0,0,0,0,0,0,0,0,0,0,0,0,0,0,
0,0,0,0,0,0,0,0,0,0,0,0,0,0,0,0,0,0,0,0,0,0,0,0,0,0,0,0,0,0,0,0,
0,0,0,0,0,0,0,0,0,0,0,0,0,0,0,0,0,434,435,0,433,434,435,0,0,0,0,0,0,0,0,0,
0,0,0,0,0,0,0,0,0,0,0,0,0,0,0,0,0,0,433,0,434,435,0,0,0,433,434,435,433,0,0,0,
0,0,0,0,0,0,0,0,0,0,0,0,0,0,0,0,434,435,0,433,0,434,435,434,435,0,0,0,0,0,0,0,
0,0,0,0,0,0,0,0,0,0,0,0,0,0,0,0,0,0,0,0,0,0,0,0,0,0,0,0,0,0,0,0,
0,0,0,0,0,0,0,0,0,0,0,0,0,0,0,0,0,0,0,0,0,0,0,0,0,0,0,0,0,0,0,0,
0,0,0,0,0,0,0,0,0,0,0,0,0,0,0,0,0,0,0,0,0,0,0,0,0,0,0,0,0,0,0,0,
0,0,0,0,0,0,0,0,0,0,0,0,0,0,0,0,0,0,0,0,0,0,0,0,0,0,0,0,0,0,0,0,
0,0,0,0,0,0,0,0,0,0,0,0,0,0,0,0,0,0,0,0,0,0,0,0,0,0,0,0,0,0,0,0
</data>
 </layer>
 <layer id="5" name="Collisions" width="32" height="18" visible="0">
  <data encoding="csv">
97,97,97,97,97,97,97,97,97,97,97,97,97,97,97,97,97,97,97,97,97,97,97,97,97,97,97,97,97,97,97,97,
97,97,97,97,97,97,97,97,97,97,97,97,97,97,97,97,97,97,97,97,97,97,97,97,97,97,97,97,97,97,97,97,
97,97,97,97,97,94,0,0,0,0,0,0,0,0,0,0,0,0,0,0,97,0,0,0,0,0,93,97,97,97,97,97,
97,97,97,97,94,0,0,0,0,0,93,97,97,94,0,0,0,0,0,0,97,0,0,0,0,0,0,93,97,97,97,97,
97,97,97,97,94,93,97,97,94,0,93,97,97,94,0,93,97,97,94,0,97,0,93,97,94,0,93,94,93,97,97,97,
97,97,97,94,0,93,97,97,94,0,0,0,0,93,0,93,97,97,94,0,97,0,0,0,0,0,0,0,0,93,97,97,
97,97,97,94,0,0,0,0,93,0,0,0,0,0,0,0,0,0,93,0,0,97,0,0,0,95,95,0,0,93,97,97,
97,97,97,94,0,0,0,0,0,0,0,0,0,0,0,0,0,0,0,0,0,0,97,0,0,0,0,0,0,93,97,97,
95,95,95,0,0,0,0,0,0,0,0,0,0,0,0,0,0,0,0,0,0,0,0,0,0,0,95,95,95,95,95,95,
0,0,0,0,0,0,0,0,0,0,0,0,0,0,0,0,0,0,0,0,0,0,0,0,0,0,0,0,0,0,0,0,
97,97,97,94,0,0,0,0,0,0,0,0,0,0,0,0,0,0,0,0,0,0,0,0,0,0,0,0,0,93,97,97,
97,97,97,117,96,0,0,0,0,0,0,0,0,0,0,0,0,93,94,0,107,93,94,0,0,0,0,0,0,93,97,97,
97,97,97,97,97,117,96,96,0,0,0,0,0,0,0,0,0,0,107,0,93,94,0,0,0,107,93,94,107,118,97,97,
97,97,97,97,97,97,97,97,117,96,96,0,0,0,0,0,93,94,0,107,0,93,94,93,94,0,96,96,118,97,97,97,
97,97,97,97,97,97,97,97,97,97,97,117,96,96,0,0,0,96,96,96,96,96,96,96,96,118,97,97,97,97,97,97,
97,97,97,97,97,97,97,97,97,97,97,97,97,97,94,0,93,97,97,97,97,97,97,97,97,97,97,97,97,97,97,97,
97,97,97,97,97,97,97,97,97,97,97,97,97,97,94,0,93,97,97,97,97,97,97,97,97,97,97,97,97,97,97,97,
97,97,97,97,97,97,97,97,97,97,97,97,97,97,94,0,93,97,97,97,97,97,97,97,97,97,97,97,97,97,97,97
</data>
 </layer>
</map>
