<?xml version="1.0" encoding="UTF-8"?>
<map version="1.10" tiledversion="1.12.2" orientation="orthogonal" renderorder="right-down" width="32" height="18" tilewidth="16" tileheight="16" infinite="0" nextlayerid="8" nextobjectid="1">
 <editorsettings>
  <export target="fromagerie.json" format="json"/>
 </editorsettings>
 <tileset firstgid="1" source="../tilesets/Water.tsx"/>
 <tileset firstgid="5" source="../tilesets/Wood Bridge.tsx"/>
 <tileset firstgid="16" source="../tilesets/Grass.tsx"/>
 <tileset firstgid="93" source="../tilesets/collisions.tsx"/>
 <tileset firstgid="125" source="../tilesets/Free_Chicken_House.tsx"/>
 <tileset firstgid="134" source="../tilesets/Fences.tsx"/>
 <tileset firstgid="150" source="../tilesets/Paths.tsx"/>
 <tileset firstgid="166" source="../tilesets/Basic_Furniture.tsx"/>
 <tileset firstgid="220" source="../tilesets/small_House_with_door_grass.tsx"/>
 <tileset firstgid="364" source="../tilesets/Barn structures.tsx"/>
 <tileset firstgid="375" source="../tilesets/Free Chicken Sprites.tsx"/>
 <tileset firstgid="377" source="../tilesets/Water tray.tsx"/>
 <tileset firstgid="379" source="../tilesets/Free Cow Sprites.tsx"/>
 <tileset firstgid="387" source="../tilesets/baby light cow animations sprites.tsx"/>
 <tileset firstgid="565" source="../tilesets/Chicken_Baby_Red.tsx"/>
 <tileset firstgid="717" source="../tilesets/Basic_Grass_Biom_things.tsx"/>
 <layer id="1" name="Water" width="32" height="18">
  <data encoding="csv">
0,0,0,0,0,0,0,0,0,0,0,0,0,0,0,0,0,0,0,0,0,0,0,0,0,0,0,0,0,0,0,0,
0,2,3,4,1,2,3,4,1,2,3,4,1,2,3,4,1,2,3,4,1,2,3,4,1,2,3,4,1,2,3,0,
0,2,3,4,1,2,3,4,1,2,3,4,1,2,3,4,1,2,3,4,1,2,3,4,1,2,3,4,1,2,3,0,
0,2,3,4,1,2,3,4,1,2,3,4,1,2,3,4,1,2,3,4,1,2,3,4,1,2,3,4,1,2,3,0,
0,2,3,4,1,2,3,4,1,2,3,4,1,2,3,4,1,2,3,4,1,2,3,4,1,2,3,4,1,2,3,0,
0,2,3,4,1,2,3,4,1,2,3,4,1,2,3,4,1,2,3,4,1,2,3,4,1,2,3,4,1,2,3,0,
0,2,3,4,1,2,3,4,1,2,3,4,1,2,3,4,1,2,3,4,1,2,3,4,1,2,3,4,1,2,3,0,
0,2,3,4,1,2,3,4,1,2,3,4,1,2,3,4,1,2,3,4,1,2,3,4,1,2,3,4,1,2,3,0,
0,2,3,4,1,2,3,4,1,2,3,4,1,2,3,4,1,2,3,4,1,2,3,4,1,2,3,4,1,2,3,0,
0,2,3,4,1,2,3,4,1,2,3,4,1,2,3,4,1,2,3,4,1,2,3,4,1,2,3,4,1,2,3,0,
0,2,3,4,1,2,3,4,1,2,3,4,1,2,3,4,1,2,3,4,1,2,3,4,1,2,3,4,1,2,3,0,
0,2,3,4,1,2,3,4,1,2,3,4,1,2,3,4,1,2,3,4,1,2,3,4,1,2,3,4,1,2,3,0,
0,2,3,4,1,2,3,4,1,2,3,4,1,2,3,4,1,2,3,4,1,2,3,4,1,2,3,4,1,2,3,0,
0,2,3,4,1,2,3,4,1,2,3,4,1,2,3,4,1,2,3,4,1,2,3,4,1,2,3,4,1,2,3,0,
0,2,3,4,1,2,3,4,1,2,3,4,1,2,3,4,1,2,3,4,1,2,3,4,1,2,3,4,1,2,3,0,
0,2,3,4,1,2,3,4,1,2,3,4,1,2,3,4,1,2,3,4,1,2,3,4,1,2,3,4,1,2,3,0,
0,2,3,4,1,2,3,4,1,2,3,4,1,2,3,4,1,2,3,4,1,2,3,4,1,2,3,4,1,2,3,0,
0,0,0,0,0,0,0,0,0,0,0,0,0,0,0,0,0,0,0,0,0,0,0,0,0,0,0,0,0,0,0,0
</data>
 </layer>
 <layer id="2" name="Floor" width="32" height="18">
  <data encoding="csv">
0,0,0,0,0,0,0,0,0,0,0,0,0,0,0,0,0,0,0,0,0,0,0,0,0,0,0,0,0,0,0,0,
0,0,0,0,0,0,0,0,0,0,0,0,0,0,0,0,0,0,0,0,0,0,0,0,0,0,0,0,0,0,0,0,
0,0,0,0,0,16,17,17,17,17,17,17,17,17,17,17,17,17,17,17,17,17,17,17,17,17,17,17,18,0,0,0,
0,0,0,0,16,44,28,28,28,28,28,28,28,28,28,28,28,82,28,28,28,28,28,28,28,28,28,28,29,0,0,0,
0,0,0,16,44,28,82,28,28,28,73,28,28,28,28,28,28,28,28,28,71,28,28,28,83,28,73,28,29,0,0,0,
0,0,16,44,28,28,28,28,71,28,28,28,28,71,28,28,28,28,28,28,28,28,28,28,28,28,28,28,29,0,0,0,
0,0,27,28,28,28,28,28,28,28,28,82,28,28,28,28,71,28,28,83,28,28,28,28,28,28,28,28,29,0,0,0,
0,0,27,28,28,28,73,28,28,28,28,28,28,28,28,28,28,28,28,28,28,82,28,28,71,28,28,28,29,0,0,0,
0,0,27,82,28,28,28,28,73,28,28,28,28,28,83,28,71,28,28,28,28,28,28,28,28,28,28,28,29,0,0,0,
0,0,27,28,28,28,28,71,28,82,28,28,71,28,28,28,28,28,28,28,28,83,28,28,71,28,28,28,29,0,0,0,
0,0,27,28,28,28,28,28,28,28,28,73,28,28,28,28,82,28,28,28,28,28,28,28,28,28,28,28,29,0,0,0,
0,0,27,28,28,28,28,28,28,28,28,28,82,28,28,28,28,28,28,28,71,28,28,28,28,28,28,82,29,0,0,0,
0,0,27,28,28,28,28,73,28,82,28,28,82,28,28,28,28,28,28,28,28,28,82,28,28,73,32,39,40,0,0,0,
0,0,27,28,82,28,28,28,28,28,28,28,28,28,28,28,71,28,28,28,28,28,28,28,32,39,40,0,0,0,0,0,
0,0,38,39,39,39,39,39,39,39,39,39,39,39,39,39,39,39,39,39,39,39,39,39,40,0,0,0,0,0,0,0,
0,0,0,0,0,0,0,0,0,0,0,0,0,0,0,0,0,0,0,0,0,0,0,0,0,0,0,0,0,0,0,0,
0,0,0,0,0,0,0,0,0,0,0,0,0,0,0,0,0,0,0,0,0,0,0,0,0,0,0,0,0,0,0,0,
0,0,0,0,0,0,0,0,0,0,0,0,0,0,0,0,0,0,0,0,0,0,0,0,0,0,0,0,0,0,0,0
</data>
 </layer>
 <layer id="3" name="OnFloor" width="32" height="18">
  <data encoding="csv">
0,0,0,0,0,0,0,0,0,0,0,0,0,0,0,0,0,0,0,0,0,0,0,0,0,0,0,0,0,0,0,0,
0,0,0,0,0,0,0,0,0,0,0,0,0,0,0,0,0,0,0,0,0,0,0,0,0,0,0,0,0,0,0,0,
0,0,0,0,0,0,0,0,0,0,0,0,0,0,0,135,148,148,148,148,148,148,148,148,137,0,0,0,0,0,0,0,
0,0,0,0,0,0,0,0,0,750,0,0,0,0,0,138,370,371,370,371,0,377,378,0,138,0,0,0,0,0,0,0,
0,0,0,0,0,0,0,0,0,0,0,0,0,742,0,138,0,0,0,0,0,0,0,0,138,0,0,751,0,0,0,0,
0,0,0,0,0,252,253,254,255,0,0,0,0,0,0,138,0,385,386,0,0,742,373,374,138,0,0,0,0,0,0,0,
0,0,0,0,742,264,265,266,267,0,0,0,0,0,750,143,148,137,0,0,0,0,0,135,145,0,0,0,0,0,0,0,
0,0,0,0,0,0,0,0,741,0,0,0,0,0,0,0,0,143,149,0,0,147,148,145,0,0,0,0,0,0,0,0,
0,0,0,0,0,0,0,0,0,0,0,0,0,0,0,0,0,0,0,0,0,0,0,0,0,0,0,0,0,0,0,0,
0,0,135,148,148,148,148,148,149,0,0,147,137,0,0,155,164,164,164,164,164,164,164,164,164,164,164,165,7,8,8,0,
0,0,138,128,129,130,370,371,0,0,0,0,143,137,0,154,0,0,0,0,0,0,742,0,0,0,0,0,0,0,0,0,
0,0,138,131,132,133,576,374,0,375,0,741,0,138,751,154,0,0,190,0,0,0,188,196,189,0,0,0,0,0,0,0,
0,0,138,0,374,376,0,0,0,0,0,365,366,138,0,154,0,0,196,741,0,0,0,0,0,750,0,0,0,0,0,0,
0,0,138,0,0,0,751,375,0,0,376,368,369,138,0,158,0,0,191,0,0,197,197,197,0,0,0,0,0,0,0,0,
0,0,143,148,148,148,148,148,148,148,148,148,148,145,0,5,0,0,0,0,0,0,0,0,0,0,0,0,0,0,0,0,
0,0,0,0,0,0,0,0,0,0,0,0,0,0,0,10,0,0,0,0,0,0,0,0,0,0,0,0,0,0,0,0,
0,0,0,0,0,0,0,0,0,0,0,0,0,0,0,10,0,0,0,0,0,0,0,0,0,0,0,0,0,0,0,0,
0,0,0,0,0,0,0,0,0,0,0,0,0,0,0,0,0,0,0,0,0,0,0,0,0,0,0,0,0,0,0,0
</data>
 </layer>
 <layer id="6" name="OnPaille" width="32" height="18">
  <data encoding="csv">
0,0,0,0,0,0,0,0,0,0,0,0,0,0,0,0,0,0,0,0,0,0,0,0,0,0,0,0,0,0,0,0,
0,0,0,0,0,0,0,0,0,0,0,0,0,0,0,0,0,0,0,0,0,0,0,0,0,0,0,0,0,0,0,0,
0,0,0,0,0,0,0,0,0,0,0,0,0,0,0,0,0,0,0,0,0,0,0,0,0,0,0,0,0,0,0,0,
0,0,0,0,0,0,0,0,0,0,0,0,0,0,0,0,0,0,0,0,0,0,0,0,0,0,0,0,0,0,0,0,
0,0,0,0,0,0,0,0,0,0,0,0,0,0,0,0,0,0,0,0,0,0,0,0,0,0,0,0,0,0,0,0,
0,0,0,0,0,0,0,0,0,0,0,0,0,0,0,0,0,0,0,0,0,0,563,564,0,0,0,0,0,0,0,0,
0,0,0,0,0,0,0,0,0,0,0,0,0,0,0,0,0,0,0,0,0,0,0,0,0,0,0,0,0,0,0,0,
0,0,0,0,0,0,0,0,0,0,0,0,0,0,0,0,0,0,0,0,0,0,0,0,0,0,0,0,0,0,0,0,
0,0,0,0,0,0,0,0,0,0,0,0,0,0,0,0,0,0,0,0,0,0,0,0,0,0,0,0,0,0,0,0,
0,0,0,0,0,0,0,0,0,0,0,0,0,0,0,0,0,0,0,0,0,0,0,0,0,0,0,0,0,0,0,0,
0,0,0,0,0,0,0,0,0,0,0,0,0,0,0,0,0,0,0,0,0,0,0,0,0,0,0,0,0,0,0,0,
0,0,0,0,0,0,0,0,0,0,0,0,0,0,0,0,0,0,0,0,0,0,0,0,0,0,0,0,0,0,0,0,
0,0,0,0,573,0,0,0,0,0,0,0,0,0,0,0,0,0,0,0,0,0,0,0,0,0,0,0,0,0,0,0,
0,0,0,0,0,0,0,0,0,0,0,0,0,0,0,0,0,0,0,0,0,0,0,0,0,0,0,0,0,0,0,0,
0,0,0,0,0,0,0,0,0,0,0,0,0,0,0,0,0,0,0,0,0,0,0,0,0,0,0,0,0,0,0,0,
0,0,0,0,0,0,0,0,0,0,0,0,0,0,0,0,0,0,0,0,0,0,0,0,0,0,0,0,0,0,0,0,
0,0,0,0,0,0,0,0,0,0,0,0,0,0,0,0,0,0,0,0,0,0,0,0,0,0,0,0,0,0,0,0,
0,0,0,0,0,0,0,0,0,0,0,0,0,0,0,0,0,0,0,0,0,0,0,0,0,0,0,0,0,0,0,0
</data>
 </layer>
 <layer id="4" name="InFrontOfPlayer" width="32" height="18">
  <data encoding="csv">
0,0,0,0,0,0,0,0,0,0,0,0,0,0,0,0,0,0,0,0,0,0,0,0,0,0,0,0,0,0,0,0,
0,0,0,0,0,0,0,0,0,0,0,0,0,0,0,0,0,0,0,0,0,0,0,0,0,0,0,0,0,0,0,0,
0,0,0,0,0,0,0,0,0,0,0,0,0,0,0,0,0,0,0,0,0,0,0,0,0,0,0,0,0,0,0,0,
0,0,0,0,0,228,229,230,231,0,0,0,0,0,0,0,0,0,0,0,0,0,0,0,0,0,0,0,0,0,0,0,
0,0,0,0,0,240,241,242,243,0,0,0,0,0,0,0,0,379,380,0,0,0,0,0,0,0,0,0,0,0,0,0,
0,0,0,0,0,0,0,0,0,0,0,0,0,0,0,0,0,0,0,0,0,0,0,0,0,0,0,0,0,0,0,0,
0,0,0,0,0,0,0,0,0,0,0,0,0,0,0,0,0,0,0,0,0,0,0,0,0,0,0,0,0,0,0,0,
0,0,0,0,0,0,0,0,0,0,0,0,0,0,0,0,0,0,0,0,0,0,0,0,0,0,0,0,0,0,0,0,
0,0,0,0,0,0,0,0,0,0,0,0,0,0,0,0,0,0,0,0,0,0,0,0,0,0,0,0,0,0,0,0,
0,0,0,125,126,127,0,0,0,0,0,0,0,0,0,0,0,0,0,0,0,0,0,0,0,0,0,0,0,0,0,0,
0,0,0,0,0,0,0,0,0,0,0,0,0,0,0,0,0,0,0,0,0,0,0,0,0,0,0,0,0,0,0,0,
0,0,0,0,0,0,0,0,0,0,0,0,0,0,0,0,0,0,0,0,0,0,0,0,0,0,0,0,0,0,0,0,
0,0,0,0,0,0,0,0,0,0,0,0,0,0,0,0,0,0,0,0,0,0,0,0,0,0,0,0,0,0,0,0,
0,0,0,0,0,0,0,0,0,0,0,0,0,0,0,0,0,0,0,0,0,0,0,0,0,0,0,0,0,0,0,0,
0,0,0,0,0,0,0,0,0,0,0,0,0,0,0,0,0,0,0,0,0,0,0,0,0,0,0,0,0,0,0,0,
0,0,0,0,0,0,0,0,0,0,0,0,0,0,0,0,0,0,0,0,0,0,0,0,0,0,0,0,0,0,0,0,
0,0,0,0,0,0,0,0,0,0,0,0,0,0,0,0,0,0,0,0,0,0,0,0,0,0,0,0,0,0,0,0,
0,0,0,0,0,0,0,0,0,0,0,0,0,0,0,0,0,0,0,0,0,0,0,0,0,0,0,0,0,0,0,0
</data>
 </layer>
 <layer id="5" name="Collisions" width="32" height="18" visible="0">
  <data encoding="csv">
97,97,97,97,97,97,97,97,97,97,97,97,97,97,97,97,97,97,97,97,97,97,97,97,97,97,97,97,97,97,97,97,
97,97,97,97,97,97,97,97,97,97,97,97,97,97,97,97,97,97,97,97,97,97,97,97,97,97,97,97,97,97,97,97,
97,97,97,97,97,94,0,0,0,0,0,0,0,0,0,114,108,108,108,108,108,108,108,108,113,0,0,0,0,97,97,97,
97,97,97,97,94,0,0,0,0,0,0,0,0,0,0,103,97,97,97,97,0,97,97,0,103,0,0,0,0,97,97,97,
97,97,97,94,0,0,0,0,0,0,0,0,0,0,0,103,0,0,0,0,0,0,0,0,103,0,0,0,0,97,97,97,
97,97,94,0,0,93,97,97,94,0,0,0,0,0,0,103,0,97,97,0,0,0,108,108,103,0,0,0,93,97,97,97,
97,97,94,0,0,93,97,97,94,0,0,0,0,0,0,116,108,113,0,0,0,0,0,114,115,0,0,0,93,97,97,97,
97,97,94,0,0,0,0,0,0,0,0,0,0,0,0,0,0,116,109,0,0,110,108,115,0,0,0,0,93,97,97,97,
97,97,94,0,0,0,0,0,0,0,0,0,0,0,0,0,0,0,0,0,0,0,0,0,0,0,0,0,0,95,95,95,
97,97,114,108,108,108,108,108,109,0,0,110,113,0,0,0,0,0,0,0,0,0,0,0,0,0,0,0,0,0,0,0,
97,97,103,93,97,94,97,97,0,0,0,0,116,113,0,0,0,0,0,0,0,0,0,0,0,0,0,0,93,97,97,97,
97,97,103,93,97,94,121,0,0,121,0,0,0,103,0,0,0,0,97,0,0,0,97,97,97,0,0,0,93,97,97,97,
97,97,103,0,121,121,0,0,0,0,0,0,97,103,0,0,0,0,97,0,0,0,0,0,0,0,0,96,118,97,97,97,
97,97,103,0,0,0,0,121,0,0,121,97,0,103,0,0,0,0,97,0,0,97,97,97,0,96,118,97,97,97,97,97,
97,97,116,108,108,108,108,108,108,108,108,108,108,115,0,0,0,96,96,96,96,96,96,96,118,97,97,97,97,97,97,97,
97,97,97,97,97,97,97,97,97,97,97,97,97,97,94,0,93,97,97,97,97,97,97,97,97,97,97,97,97,97,97,97,
97,97,97,97,97,97,97,97,97,97,97,97,97,97,94,0,93,97,97,97,97,97,97,97,97,97,97,97,97,97,97,97,
97,97,97,97,97,97,97,97,97,97,97,97,97,97,94,0,93,97,97,97,97,97,97,97,97,97,97,97,97,97,97,97
</data>
 </layer>
</map>
