<?xml version="1.0" encoding="UTF-8"?>
<map version="1.10" tiledversion="1.12.2" orientation="orthogonal" renderorder="right-down" width="32" height="18" tilewidth="16" tileheight="16" infinite="0" nextlayerid="6" nextobjectid="1">
 <editorsettings>
  <export target="jardin.json" format="json"/>
 </editorsettings>
 <tileset firstgid="1" source="../tilesets/Water.tsx"/>
 <tileset firstgid="5" source="../tilesets/Wood Bridge.tsx"/>
 <tileset firstgid="16" source="../tilesets/Grass.tsx"/>
 <tileset firstgid="93" source="../tilesets/Basic_Grass_Biom_things.tsx"/>
 <tileset firstgid="138" source="../tilesets/Fences.tsx"/>
 <tileset firstgid="154" source="../tilesets/small_huts.tsx"/>
 <tileset firstgid="298" source="../tilesets/Barn structures.tsx"/>
 <tileset firstgid="309" source="../tilesets/Tools.tsx"/>
 <tileset firstgid="345" source="../tilesets/Paths.tsx"/>
 <tileset firstgid="361" source="../tilesets/Farming Plants v2 watered.tsx"/>
 <tileset firstgid="591" source="../tilesets/collisions.tsx"/>
 <layer id="1" name="Water" width="32" height="18">
  <data encoding="csv">
0,0,0,0,0,0,0,0,0,0,0,0,0,0,0,0,0,0,0,0,0,0,0,0,0,0,0,0,0,0,0,0,
0,2,3,4,1,2,3,4,1,2,3,4,1,2,3,4,1,2,3,4,1,2,3,4,1,2,3,4,1,2,3,0,
0,2,3,4,1,2,3,4,1,2,3,4,1,2,3,4,1,2,3,4,1,2,3,4,1,2,3,4,1,2,3,0,
0,2,3,4,1,2,3,4,1,2,3,4,1,2,3,4,1,2,3,4,1,2,3,4,1,2,3,4,1,2,3,0,
0,2,3,4,1,2,3,4,1,2,3,4,1,2,3,4,1,2,3,4,1,2,3,4,1,2,3,4,1,2,3,0,
0,2,3,4,1,2,3,4,1,2,3,4,1,2,3,4,1,2,3,4,1,2,3,4,1,2,3,4,1,2,3,0,
0,2,3,4,1,2,3,4,1,2,3,4,1,2,3,4,1,2,3,4,1,2,3,4,1,2,3,4,1,2,3,0,
0,2,3,4,1,2,3,4,1,2,3,4,1,2,3,4,1,2,3,4,1,2,3,4,1,2,3,4,1,2,3,0,
0,2,3,4,1,2,3,4,1,2,3,4,1,2,3,4,1,2,3,4,1,2,3,4,1,2,3,4,1,2,3,0,
0,2,3,4,1,2,3,4,1,2,3,4,1,2,3,4,1,2,3,4,1,2,3,4,1,2,3,4,1,2,3,0,
0,2,3,4,1,2,3,4,1,2,3,4,1,2,3,4,1,2,3,4,1,2,3,4,1,2,3,4,1,2,3,0,
0,2,3,4,1,2,3,4,1,2,3,4,1,2,3,4,1,2,3,4,1,2,3,4,1,2,3,4,1,2,3,0,
0,2,3,4,1,2,3,4,1,2,3,4,1,2,3,4,1,2,3,4,1,2,3,4,1,2,3,4,1,2,3,0,
0,2,3,4,1,2,3,4,1,2,3,4,1,2,3,4,1,2,3,4,1,2,3,4,1,2,3,4,1,2,3,0,
0,2,3,4,1,2,3,4,1,2,3,4,1,2,3,4,1,2,3,4,1,2,3,4,1,2,3,4,1,2,3,0,
0,2,3,4,1,2,3,4,1,2,3,4,1,2,3,4,1,2,3,4,1,2,3,4,1,2,3,4,1,2,3,0,
0,2,3,4,1,2,3,4,1,2,3,4,1,2,3,4,1,2,3,4,1,2,3,4,1,2,3,4,1,2,3,0,
0,0,0,0,0,0,0,0,0,0,0,0,0,0,0,0,0,0,0,0,0,0,0,0,0,0,0,0,0,0,0,0
</data>
 </layer>
 <layer id="2" name="Floor" width="32" height="18">
  <data encoding="csv">
0,0,0,0,0,0,0,0,0,0,0,0,0,0,0,0,0,0,0,0,0,0,0,0,0,0,0,0,0,0,0,0,
0,0,0,0,0,0,0,0,0,0,0,0,0,0,0,0,0,0,0,0,0,0,0,0,0,0,0,0,0,0,0,0,
0,0,0,0,0,0,0,0,0,0,0,0,0,0,0,0,0,0,0,0,0,0,0,0,0,0,0,0,0,0,0,0,
0,0,0,0,0,0,0,0,0,0,16,17,17,17,17,17,17,17,17,17,17,17,18,0,0,0,0,0,0,0,0,0,
0,0,0,0,16,17,17,17,17,17,44,28,28,28,28,28,28,28,28,28,28,28,43,17,17,17,17,18,0,0,0,0,
0,0,0,16,44,28,28,28,28,28,82,28,28,28,28,28,28,28,28,28,82,28,28,28,28,28,28,43,18,0,0,0,
0,0,0,27,28,28,28,71,28,28,28,28,28,28,28,28,82,28,28,28,28,28,28,28,28,28,28,28,29,0,0,0,
0,0,0,27,28,28,28,28,28,28,28,28,28,28,28,28,28,28,28,28,28,28,28,28,71,28,28,28,43,18,0,0,
0,0,0,27,28,28,28,28,28,28,28,28,71,28,28,28,28,28,71,28,28,28,28,28,28,28,28,28,28,29,0,0,
0,0,0,27,28,28,28,71,28,28,28,28,28,28,28,28,28,28,28,28,82,28,28,28,28,28,28,82,28,29,0,0,
0,0,0,27,28,28,28,28,28,28,28,28,28,28,28,82,28,28,28,28,28,28,28,28,28,28,28,28,28,29,0,0,
0,0,0,38,33,28,28,28,28,28,28,82,28,28,28,28,28,28,28,28,28,28,28,28,28,71,28,28,28,29,0,0,
0,0,0,0,27,28,82,28,28,28,28,28,28,28,28,28,28,28,71,28,28,28,28,28,28,28,28,28,28,29,0,0,
0,0,0,0,38,33,28,28,28,28,28,71,28,28,28,28,28,28,28,28,28,28,82,28,28,28,28,28,28,29,0,0,
0,0,0,0,0,27,28,28,28,28,28,28,28,28,28,28,28,28,28,28,28,28,28,28,28,28,28,28,28,29,0,0,
0,0,0,0,0,38,39,39,39,39,39,39,39,39,39,39,39,39,39,39,39,39,39,39,39,39,39,39,39,40,0,0,
0,0,0,0,0,0,0,0,0,0,0,0,0,0,0,0,0,0,0,0,0,0,0,0,0,0,0,0,0,0,0,0,
0,0,0,0,0,0,0,0,0,0,0,0,0,0,0,0,0,0,0,0,0,0,0,0,0,0,0,0,0,0,0,0
</data>
 </layer>
 <layer id="3" name="OnFloor" width="32" height="18">
  <data encoding="csv">
0,0,0,0,0,0,0,0,0,0,0,0,0,0,0,0,0,0,0,0,0,0,0,0,0,0,0,0,0,0,0,0,
0,0,0,0,0,0,0,0,0,0,0,0,0,0,0,10,0,0,136,0,0,0,137,0,0,135,0,0,0,0,0,0,
0,0,0,0,0,0,135,0,0,0,136,0,0,0,0,10,0,0,0,0,0,0,0,0,0,0,0,0,134,0,0,0,
0,0,134,0,0,0,0,0,137,0,0,0,0,0,0,15,0,0,0,0,0,0,0,0,0,136,0,0,0,0,0,0,
0,0,0,0,0,0,0,0,0,0,0,0,120,345,0,345,0,107,108,0,0,0,0,0,0,0,333,0,0,0,0,0,
0,0,0,0,0,0,0,0,0,0,0,120,350,355,0,354,359,359,359,359,359,359,351,0,0,131,132,133,0,0,0,0,
0,0,0,0,0,0,0,128,128,128,0,0,349,120,0,0,0,0,0,0,0,0,354,351,0,0,0,0,0,0,0,0,
0,135,0,373,0,0,350,359,359,359,351,0,354,359,359,359,359,359,351,0,101,100,0,349,0,0,0,0,0,0,0,0,
0,0,0,0,374,0,349,127,126,127,349,0,0,118,117,118,117,118,349,0,0,101,0,349,0,0,0,0,0,0,0,0,
0,0,0,374,0,0,349,0,0,0,354,359,359,359,359,359,359,359,355,0,0,0,350,355,0,0,178,179,180,181,136,0,
0,136,0,0,374,0,349,0,0,0,0,0,0,0,0,0,0,0,0,0,0,350,355,0,139,153,190,191,192,193,0,0,
0,0,0,0,0,0,354,351,0,120,120,0,0,422,421,422,0,0,107,108,0,349,0,0,138,298,0,0,0,0,0,0,
0,0,0,0,374,0,0,354,351,0,0,0,350,359,359,359,351,0,0,108,0,349,0,0,142,301,0,0,0,0,0,0,
0,0,0,0,0,0,0,0,349,98,99,98,349,420,420,422,354,359,359,359,359,355,0,0,142,308,0,0,309,0,0,0,
0,0,0,137,0,0,0,0,354,359,359,359,355,0,0,0,0,0,380,380,379,380,0,0,142,0,0,0,299,300,0,0,
0,0,0,0,0,0,0,0,0,0,0,0,0,0,0,0,0,0,0,0,0,0,0,0,146,0,0,0,302,303,0,0,
0,134,0,0,0,0,0,0,0,136,0,0,135,0,0,0,137,0,0,0,0,0,134,0,0,0,0,0,136,0,0,0,
0,0,0,0,0,0,0,0,0,0,0,0,0,0,0,0,0,0,0,0,0,0,0,0,0,0,0,0,0,0,0,0
</data>
 </layer>
 <layer id="4" name="InFrontOfPlayer" width="32" height="18">
  <data encoding="csv">
0,0,0,0,0,0,0,0,0,0,0,0,0,0,0,0,0,0,0,0,0,0,0,0,0,0,0,0,0,0,0,0,
0,0,0,0,0,0,0,0,0,0,0,0,0,0,0,0,0,0,0,0,0,0,0,0,0,0,0,0,0,0,0,0,
0,0,0,0,0,0,0,0,0,0,0,0,0,0,0,0,0,0,0,0,0,0,0,0,0,0,0,0,0,0,0,0,
0,0,0,0,0,0,0,0,0,0,0,0,0,0,0,0,0,0,0,0,0,0,0,0,0,0,0,0,0,0,0,0,
0,0,0,0,0,0,0,0,0,0,0,0,0,0,0,0,0,0,0,0,0,0,0,0,0,0,0,0,0,0,0,0,
0,0,0,0,0,0,0,119,119,119,0,0,0,0,0,0,0,0,0,0,0,0,0,0,0,0,0,0,0,0,0,0,
0,0,0,366,0,0,0,0,0,0,0,0,0,0,0,0,0,0,0,0,0,0,0,0,0,0,0,0,0,0,0,0,
0,0,0,0,367,0,0,0,0,0,0,0,0,0,0,0,0,0,0,0,0,0,0,0,0,0,154,155,156,157,0,0,
0,0,0,367,0,0,0,0,0,0,0,0,0,0,0,0,0,0,0,0,0,0,0,0,0,0,166,167,168,169,0,0,
0,0,0,0,367,0,0,0,0,0,0,0,0,0,0,0,0,0,0,0,0,0,0,0,0,0,0,0,0,0,0,0,
0,0,0,0,0,0,0,0,0,0,0,0,0,0,0,0,0,0,0,0,0,0,0,0,0,0,0,0,0,0,0,0,
0,0,0,0,367,0,0,0,0,0,0,0,0,0,0,0,0,0,0,0,0,0,0,0,0,0,0,0,0,0,0,0,
0,0,0,0,0,0,0,0,0,0,0,0,0,0,0,0,0,0,0,0,0,0,0,0,0,0,0,0,0,0,0,0,
0,0,0,0,0,0,0,0,0,0,0,0,0,0,0,0,0,0,0,0,0,0,0,0,0,0,0,0,0,0,0,0,
0,0,0,0,0,0,0,0,0,0,0,0,0,0,0,0,0,0,0,0,0,0,0,0,0,0,0,0,0,0,0,0,
0,0,0,0,0,0,0,0,0,0,0,0,0,0,0,0,0,0,0,0,0,0,0,0,0,0,0,0,0,0,0,0,
0,0,0,0,0,0,0,0,0,0,0,0,0,0,0,0,0,0,0,0,0,0,0,0,0,0,0,0,0,0,0,0,
0,0,0,0,0,0,0,0,0,0,0,0,0,0,0,0,0,0,0,0,0,0,0,0,0,0,0,0,0,0,0,0
</data>
 </layer>
 <layer id="5" name="Collisions" width="32" height="18" visible="0">
  <data encoding="csv">
595,595,595,595,595,595,595,595,595,595,595,595,595,595,592,0,591,595,595,595,595,595,595,595,595,595,595,595,595,595,595,595,
595,595,595,595,595,595,595,595,595,595,595,595,595,595,592,0,591,595,595,595,595,595,595,595,595,595,595,595,595,595,595,595,
595,595,595,595,595,595,595,595,595,595,595,595,595,595,592,0,591,595,595,595,595,595,595,595,595,595,595,595,595,595,595,595,
595,595,595,595,595,595,595,595,595,595,592,0,0,0,0,0,0,0,0,0,0,0,591,595,595,595,595,595,595,595,595,595,
595,595,595,595,592,0,0,0,0,0,0,0,595,0,0,0,0,0,0,0,0,0,0,0,0,0,0,591,595,595,595,595,
595,595,595,592,0,0,0,0,0,0,0,595,0,0,0,0,0,0,0,0,0,0,0,0,0,595,595,592,591,595,595,595,
595,595,595,595,0,0,0,595,595,595,0,0,0,595,0,0,0,0,0,0,0,0,0,0,0,0,0,0,591,595,595,595,
595,595,595,595,595,0,0,0,0,0,0,0,0,0,0,0,0,0,0,0,0,0,0,0,0,0,0,0,0,591,595,595,
595,595,595,595,595,0,0,0,0,0,0,0,0,0,0,0,0,0,0,0,0,0,0,0,0,0,0,0,0,0,595,595,
595,595,595,595,595,0,0,0,0,0,0,0,0,0,0,0,0,0,0,0,0,0,0,0,0,0,591,595,595,595,595,595,
595,595,595,595,595,0,0,0,0,0,0,0,0,0,0,0,0,0,0,0,0,0,0,0,612,606,595,595,595,595,595,595,
595,595,595,595,595,0,0,0,0,595,595,0,0,595,595,595,0,0,0,0,0,0,0,0,601,595,0,0,0,0,595,595,
595,595,595,595,595,0,0,0,0,0,0,0,0,0,0,0,0,0,0,0,0,0,0,0,601,595,0,0,0,0,595,595,
595,595,595,595,615,0,0,0,0,595,595,595,0,595,595,595,0,0,0,0,0,0,0,0,601,0,0,0,0,0,595,595,
595,595,595,595,595,592,0,0,0,0,0,0,0,0,0,0,0,0,595,595,595,595,0,0,601,0,0,0,0,595,595,595,
595,595,595,595,595,615,594,594,594,594,594,594,594,594,594,594,594,594,594,594,594,594,594,594,605,594,594,594,595,0,595,595,
595,595,595,595,595,595,595,595,595,595,595,595,595,595,595,595,595,595,595,595,595,595,595,595,595,595,595,595,595,595,595,595,
595,595,595,595,595,595,595,595,595,595,595,595,595,595,595,595,595,595,595,595,595,595,595,595,595,595,595,595,595,595,595,595
</data>
 </layer>
</map>
