<?xml version="1.0" encoding="UTF-8"?>
<map version="1.10" tiledversion="1.12.2" orientation="orthogonal" renderorder="right-down" width="32" height="18" tilewidth="16" tileheight="16" infinite="0" nextlayerid="7" nextobjectid="1">
 <tileset firstgid="1" source="../tilesets/Water.tsx"/>
 <tileset firstgid="5" source="../tilesets/Wood Bridge.tsx"/>
 <tileset firstgid="16" source="../tilesets/Grass.tsx"/>
 <tileset firstgid="93" source="../tilesets/Basic_Grass_Biom_things.tsx"/>
 <tileset firstgid="138" source="../tilesets/Paths.tsx"/>
 <tileset firstgid="154" source="../tilesets/Basic_Furniture.tsx"/>
 <tileset firstgid="208" source="../tilesets/collisions.tsx"/>
 <tileset firstgid="240" source="../tilesets/Piknik blanket.tsx"/>
 <tileset firstgid="249" source="../tilesets/Piknik basket.tsx"/>
 <layer id="1" name="Water" width="32" height="18">
  <data encoding="csv">
0,0,0,0,0,0,0,0,0,0,0,0,0,0,0,0,0,0,0,0,0,0,0,0,0,0,0,0,0,0,0,0,
0,2,3,4,1,2,3,4,1,2,3,4,1,2,3,4,1,2,3,4,1,2,3,4,1,2,3,4,1,2,3,0,
0,2,3,4,1,2,3,4,1,2,3,4,1,2,3,4,1,2,3,4,1,2,3,4,1,2,3,4,1,2,3,0,
0,2,3,4,1,2,3,4,1,2,3,4,1,2,3,4,1,2,3,4,1,2,3,4,1,2,3,4,1,2,3,0,
0,2,3,4,1,2,3,4,1,2,3,4,1,2,3,4,1,2,3,4,1,2,3,4,1,2,3,4,1,2,3,0,
0,2,3,4,1,2,3,4,1,2,3,4,1,2,3,4,1,2,3,4,1,2,3,4,1,2,3,4,1,2,3,0,
0,2,3,4,1,2,3,4,1,2,3,4,1,2,3,4,1,2,3,4,1,2,3,4,1,2,3,4,1,2,3,0,
0,2,3,4,1,2,3,4,1,2,3,4,1,2,3,4,1,2,3,4,1,2,3,4,1,2,3,4,1,2,3,0,
0,2,3,4,1,2,3,4,1,2,3,4,1,2,3,4,1,2,3,4,1,2,3,4,1,2,3,4,1,2,3,0,
0,2,3,4,1,2,3,4,1,2,3,4,1,2,3,4,1,2,3,4,1,2,3,4,1,2,3,4,1,2,3,0,
0,2,3,4,1,2,3,4,1,2,3,4,1,2,3,4,1,2,3,4,1,2,3,4,1,2,3,4,1,2,3,0,
0,2,3,4,1,2,3,4,1,2,3,4,1,2,3,4,1,2,3,4,1,2,3,4,1,2,3,4,1,2,3,0,
0,2,3,4,1,2,3,4,1,2,3,4,1,2,3,4,1,2,3,4,1,2,3,4,1,2,3,4,1,2,3,0,
0,2,3,4,1,2,3,4,1,2,3,4,1,2,3,4,1,2,3,4,1,2,3,4,1,2,3,4,1,2,3,0,
0,2,3,4,1,2,3,4,1,2,3,4,1,2,3,4,1,2,3,4,1,2,3,4,1,2,3,4,1,2,3,0,
0,2,3,4,1,2,3,4,1,2,3,4,1,2,3,4,1,2,3,4,1,2,3,4,1,2,3,4,1,2,3,0,
0,2,3,4,1,2,3,4,1,2,3,4,1,2,3,4,1,2,3,4,1,2,3,4,1,2,3,4,1,2,3,0,
0,0,0,0,0,0,0,0,0,0,0,0,0,0,0,0,0,0,0,0,0,0,0,0,0,0,0,0,0,0,0,0
</data>
 </layer>
 <layer id="3" name="Floor" width="32" height="18">
  <data encoding="csv">
0,0,0,0,0,0,0,0,0,0,0,0,0,0,0,0,0,0,0,0,0,0,0,0,0,0,0,0,0,0,0,0,
0,0,0,0,0,0,0,0,0,0,0,0,0,0,0,0,0,0,0,0,0,0,0,0,0,0,0,0,0,0,0,0,
0,0,0,0,0,0,0,0,0,0,0,0,0,0,0,0,0,0,0,0,0,0,0,0,0,0,0,0,0,0,0,0,
0,0,0,0,16,17,17,17,17,17,17,17,17,17,17,17,17,17,17,17,17,17,17,17,17,17,17,18,0,0,0,0,
0,0,0,0,27,28,28,28,28,28,28,28,28,28,28,28,28,28,28,28,28,28,28,28,28,28,28,29,0,0,0,0,
0,0,0,0,27,28,28,28,28,28,28,28,28,84,28,28,28,28,28,28,28,28,28,28,28,28,28,29,0,0,0,0,
0,0,0,0,27,28,28,28,71,28,28,28,28,28,28,28,28,84,28,28,28,28,28,71,28,28,28,29,0,0,0,0,
0,0,0,0,27,28,28,28,28,28,28,84,28,28,28,28,28,28,28,28,28,28,28,28,28,84,28,29,0,0,0,0,
0,0,0,0,27,28,28,28,28,28,28,28,28,28,71,28,28,28,28,71,28,28,28,28,28,28,28,29,0,0,0,0,
0,0,0,0,27,28,28,28,28,28,28,28,28,28,28,28,28,28,28,28,28,28,28,28,28,28,28,29,0,0,0,0,
0,0,0,0,27,28,28,28,28,28,28,28,28,28,28,28,84,28,28,28,28,28,28,28,28,28,28,29,0,0,0,0,
0,0,0,0,27,28,28,84,28,28,28,71,28,28,28,28,28,28,28,28,28,71,28,28,28,28,28,29,0,0,0,0,
0,0,0,0,27,28,28,28,28,28,28,28,28,28,28,28,28,28,71,28,28,28,28,28,28,84,28,29,0,0,0,0,
0,0,0,0,27,28,28,28,28,28,28,28,28,28,28,84,28,28,28,28,28,28,28,28,28,28,28,29,0,0,0,0,
0,0,0,0,38,39,39,39,39,39,39,39,39,39,39,39,39,39,39,39,39,39,39,39,39,39,39,40,0,0,0,0,
0,0,0,0,0,0,0,0,0,0,0,0,0,0,0,0,0,0,0,0,0,0,0,0,0,0,0,0,0,0,0,0,
0,0,0,0,0,0,0,0,0,0,0,0,0,0,0,0,0,0,0,0,0,0,0,0,0,0,0,0,0,0,0,0,
0,0,0,0,0,0,0,0,0,0,0,0,0,0,0,0,0,0,0,0,0,0,0,0,0,0,0,0,0,0,0,0
</data>
 </layer>
 <layer id="2" name="OnFloor" width="32" height="18">
  <data encoding="csv">
0,0,0,0,0,0,0,0,0,0,0,0,0,0,0,0,0,0,0,0,0,0,0,0,0,0,0,0,0,0,0,0,
0,0,0,0,0,134,0,0,137,0,0,0,0,0,0,10,0,0,135,0,0,0,0,0,0,0,0,136,0,0,0,0,
0,0,0,0,0,0,0,0,0,0,0,0,0,0,0,10,0,0,0,0,0,0,134,0,0,0,0,0,0,0,0,0,
0,136,0,0,0,0,0,0,0,0,0,0,0,0,0,15,0,0,0,0,0,0,0,0,0,0,0,0,0,0,0,0,
0,0,0,0,0,0,0,0,0,0,0,118,0,0,0,138,0,0,178,0,0,0,0,0,0,0,0,0,0,0,0,0,
0,0,0,0,0,0,0,126,0,0,0,0,0,0,0,142,0,176,184,177,0,0,117,0,0,0,0,0,0,137,0,0,
0,0,135,0,0,0,0,0,0,0,0,103,104,126,0,142,0,0,179,0,0,0,0,178,0,0,0,0,0,0,0,0,
0,0,0,0,0,0,0,103,104,0,0,0,0,0,0,142,0,0,127,0,0,0,176,184,177,0,127,0,0,0,0,0,
0,0,0,0,0,0,0,0,0,0,0,0,0,0,143,148,144,0,0,0,0,0,0,179,0,0,0,0,0,0,0,0,
0,8,8,8,9,151,152,152,152,152,152,152,152,152,144,0,147,152,152,152,152,152,152,152,152,152,153,7,8,8,8,0,
0,0,0,0,0,0,0,0,0,0,0,0,0,0,147,143,148,0,0,0,0,0,0,0,0,0,0,0,0,0,0,0,
0,137,0,0,0,0,0,0,178,0,0,0,0,102,0,142,0,0,0,127,0,0,240,241,242,0,0,0,0,0,0,0,
0,0,0,0,0,0,0,176,184,177,0,0,127,0,0,142,0,0,0,0,0,0,243,244,245,0,0,0,0,136,0,0,
0,0,134,0,0,0,0,0,179,0,0,0,0,0,0,146,0,0,0,0,126,0,246,247,248,0,127,0,0,0,0,0,
0,0,0,0,0,0,0,0,0,0,0,0,0,0,0,5,0,0,0,0,0,0,0,0,0,0,0,0,0,0,0,0,
0,0,0,0,0,0,0,0,0,135,0,0,0,0,0,10,0,0,0,0,0,0,0,0,0,0,0,0,0,134,0,0,
0,0,0,0,0,136,0,0,0,0,0,0,0,136,0,10,0,0,0,0,135,0,0,137,0,0,0,0,0,0,0,0,
0,0,0,0,0,0,0,0,0,0,0,0,0,0,0,0,0,0,0,0,0,0,0,0,0,0,0,0,0,0,0,0
</data>
 </layer>
 <layer id="6" name="OnBlanket" width="32" height="18">
  <data encoding="csv">
0,0,0,0,0,0,0,0,0,0,0,0,0,0,0,0,0,0,0,0,0,0,0,0,0,0,0,0,0,0,0,0,
0,0,0,0,0,0,0,0,0,0,0,0,0,0,0,0,0,0,0,0,0,0,0,0,0,0,0,0,0,0,0,0,
0,0,0,0,0,0,0,0,0,0,0,0,0,0,0,0,0,0,0,0,0,0,0,0,0,0,0,0,0,0,0,0,
0,0,0,0,0,0,0,0,0,0,0,0,0,0,0,0,0,0,0,0,0,0,0,0,0,0,0,0,0,0,0,0,
0,0,0,0,0,0,0,0,0,0,0,0,0,0,0,0,0,0,0,0,0,0,0,0,0,0,0,0,0,0,0,0,
0,0,0,0,0,0,0,0,0,0,0,0,0,0,0,0,0,0,0,0,0,0,0,0,0,0,0,0,0,0,0,0,
0,0,0,0,0,0,0,0,0,0,0,0,0,0,0,0,0,0,0,0,0,0,0,0,0,0,0,0,0,0,0,0,
0,0,0,0,0,0,0,0,0,0,0,0,0,0,0,0,0,0,0,0,0,0,0,0,0,0,0,0,0,0,0,0,
0,0,0,0,0,0,0,0,0,0,0,0,0,0,0,0,0,0,0,0,0,0,0,0,0,0,0,0,0,0,0,0,
0,0,0,0,0,0,0,0,0,0,0,0,0,0,0,0,0,0,0,0,0,0,0,0,0,0,0,0,0,0,0,0,
0,0,0,0,0,0,0,0,0,0,0,0,0,0,0,0,0,0,0,0,0,0,0,0,0,0,0,0,0,0,0,0,
0,0,0,0,0,0,0,0,0,0,0,0,0,0,0,0,0,0,0,0,0,0,0,0,0,0,0,0,0,0,0,0,
0,0,0,0,0,0,0,0,0,0,0,0,0,0,0,0,0,0,0,0,0,0,0,249,0,0,0,0,0,0,0,0,
0,0,0,0,0,0,0,0,0,0,0,0,0,0,0,0,0,0,0,0,0,0,0,0,0,0,0,0,0,0,0,0,
0,0,0,0,0,0,0,0,0,0,0,0,0,0,0,0,0,0,0,0,0,0,0,0,0,0,0,0,0,0,0,0,
0,0,0,0,0,0,0,0,0,0,0,0,0,0,0,0,0,0,0,0,0,0,0,0,0,0,0,0,0,0,0,0,
0,0,0,0,0,0,0,0,0,0,0,0,0,0,0,0,0,0,0,0,0,0,0,0,0,0,0,0,0,0,0,0,
0,0,0,0,0,0,0,0,0,0,0,0,0,0,0,0,0,0,0,0,0,0,0,0,0,0,0,0,0,0,0,0
</data>
 </layer>
 <layer id="4" name="InFrontOfPlayer" width="32" height="18">
  <data encoding="csv">
0,0,0,0,0,0,0,0,0,0,0,0,0,0,0,0,0,0,0,0,0,0,0,0,0,0,0,0,0,0,0,0,
0,0,0,0,0,0,0,0,0,0,0,0,0,0,0,0,0,0,0,0,0,0,0,0,0,0,0,0,0,0,0,0,
0,0,0,0,0,0,0,0,0,0,0,0,0,0,0,0,0,0,0,0,0,0,0,0,0,0,0,0,0,0,0,0,
0,0,0,0,0,0,0,0,0,0,0,0,0,0,0,0,0,0,0,0,0,0,0,0,0,0,0,0,0,0,0,0,
0,0,0,0,0,0,0,0,0,0,0,0,0,0,0,0,0,0,0,0,0,0,0,0,0,0,0,0,0,0,0,0,
0,0,0,0,0,0,0,0,0,0,0,94,95,0,0,0,0,0,167,0,0,0,0,0,0,0,0,0,0,0,0,0,
0,0,0,0,0,0,0,94,95,0,0,0,0,0,0,0,0,0,0,0,0,0,0,0,0,0,0,0,0,0,0,0,
0,0,0,0,0,0,0,0,0,0,0,0,0,0,0,0,0,0,0,0,0,0,0,167,0,0,0,0,0,0,0,0,
0,0,0,0,0,0,0,0,0,0,0,0,0,0,0,0,0,0,0,0,0,0,0,0,0,0,0,0,0,0,0,0,
0,0,0,0,0,0,0,0,0,0,0,0,0,0,0,0,0,0,0,0,0,0,0,0,0,0,0,0,0,0,0,0,
0,0,0,0,0,0,0,0,0,0,0,0,0,93,0,0,0,0,0,0,0,0,0,0,0,0,0,0,0,0,0,0,
0,0,0,0,0,0,0,0,0,0,0,0,0,0,0,0,0,0,0,0,0,0,0,0,0,0,0,0,0,0,0,0,
0,0,0,0,0,0,0,0,168,0,0,0,0,0,0,0,0,0,0,0,0,0,0,0,0,0,0,0,0,0,0,0,
0,0,0,0,0,0,0,0,0,0,0,0,0,0,0,0,0,0,0,0,0,0,0,0,0,0,0,0,0,0,0,0,
0,0,0,0,0,0,0,0,0,0,0,0,0,0,0,0,0,0,0,0,0,0,0,0,0,0,0,0,0,0,0,0,
0,0,0,0,0,0,0,0,0,0,0,0,0,0,0,0,0,0,0,0,0,0,0,0,0,0,0,0,0,0,0,0,
0,0,0,0,0,0,0,0,0,0,0,0,0,0,0,0,0,0,0,0,0,0,0,0,0,0,0,0,0,0,0,0,
0,0,0,0,0,0,0,0,0,0,0,0,0,0,0,0,0,0,0,0,0,0,0,0,0,0,0,0,0,0,0,0
</data>
 </layer>
 <layer id="5" name="Collisions" width="32" height="18" visible="0">
  <data encoding="csv">
212,212,212,212,212,212,212,212,212,212,212,212,212,212,209,0,208,212,212,212,212,212,212,212,212,212,212,212,212,212,212,212,
212,212,212,212,212,212,212,212,212,212,212,212,212,212,209,0,208,212,212,212,212,212,212,212,212,212,212,212,212,212,212,212,
212,212,212,212,212,212,212,212,212,212,212,212,212,212,209,0,208,212,212,212,212,212,212,212,212,212,212,212,212,212,212,212,
212,212,212,212,209,0,0,0,0,0,0,0,0,0,0,0,0,0,0,0,0,0,0,0,0,0,0,208,212,212,212,212,
212,212,212,212,209,0,0,0,0,0,0,0,0,0,0,0,0,0,212,0,0,0,0,0,0,0,0,208,212,212,212,212,
212,212,212,212,209,0,0,0,0,0,0,0,0,0,0,0,0,212,212,212,0,0,0,0,0,0,0,208,212,212,212,212,
212,212,212,212,209,0,0,0,0,0,0,208,209,0,0,0,0,0,212,0,0,0,0,212,0,0,0,208,212,212,212,212,
212,212,212,212,209,0,0,208,209,0,0,0,0,0,0,0,0,0,0,0,0,0,212,212,212,0,0,208,212,212,212,212,
210,210,210,210,0,0,0,0,0,0,0,0,0,0,0,0,0,0,0,0,0,0,0,212,0,0,0,0,210,210,210,210,
0,0,0,0,0,0,0,0,0,0,0,0,0,0,0,0,0,0,0,0,0,0,0,0,0,0,0,0,0,0,0,0,
212,212,212,212,209,0,0,0,0,0,0,0,0,0,0,0,0,0,0,0,0,0,0,0,0,0,0,208,212,212,212,212,
212,212,212,212,209,0,0,0,212,0,0,0,0,222,0,0,0,0,0,0,0,0,0,0,0,0,0,208,212,212,212,212,
212,212,212,212,209,0,0,212,212,212,0,0,0,0,0,0,0,0,0,0,0,0,0,212,0,0,0,208,212,212,212,212,
212,212,212,212,209,0,0,0,212,0,0,0,0,0,0,0,0,0,0,0,0,0,0,0,0,0,0,208,212,212,212,212,
212,212,212,212,232,211,211,211,211,211,211,211,211,211,0,0,0,211,211,211,211,211,211,211,211,211,211,233,212,212,212,212,
212,212,212,212,212,212,212,212,212,212,212,212,212,212,209,0,208,212,212,212,212,212,212,212,212,212,212,212,212,212,212,212,
212,212,212,212,212,212,212,212,212,212,212,212,212,212,209,0,208,212,212,212,212,212,212,212,212,212,212,212,212,212,212,212,
212,212,212,212,212,212,212,212,212,212,212,212,212,212,209,0,208,212,212,212,212,212,212,212,212,212,212,212,212,212,212,212
</data>
 </layer>
</map>
