<?xml version="1.0" encoding="UTF-8"?>
<map version="1.10" tiledversion="1.12.2" orientation="orthogonal" renderorder="right-down" width="32" height="18" tilewidth="16" tileheight="16" infinite="0" nextlayerid="6" nextobjectid="1">
 <editorsettings>
  <export format="json"/>
 </editorsettings>
 <tileset firstgid="1" source="../tilesets/Water.tsx"/>
 <tileset firstgid="5" source="../tilesets/Wood Bridge.tsx"/>
 <tileset firstgid="16" source="../tilesets/Grass.tsx"/>
 <tileset firstgid="93" source="../tilesets/Basic_Grass_Biom_things.tsx"/>
 <tileset firstgid="138" source="../tilesets/collisions.tsx"/>
 <tileset firstgid="170" source="../tilesets/Trees, stumps and bushes v2.tsx"/>
 <tileset firstgid="263" source="../tilesets/Cherry Blossom Biom.tsx"/>
 <tileset firstgid="293" source="../Wood_Bridge.tsx"/>
 <layer id="1" name="Water" width="32" height="18">
  <data encoding="csv">
0,0,0,0,0,0,0,0,0,0,0,0,0,0,0,0,0,0,0,0,0,0,0,0,0,0,0,0,0,0,0,0,
0,2,3,4,1,2,3,4,1,2,3,4,1,2,3,4,1,2,3,4,1,2,3,4,1,2,3,4,1,2,3,0,
0,2,3,4,1,2,3,4,1,2,3,4,1,2,3,4,1,2,3,4,1,2,3,4,1,2,3,4,1,2,3,0,
0,2,3,4,1,2,3,4,1,2,3,4,1,2,3,4,1,2,3,4,1,2,3,4,1,2,3,4,1,2,3,0,
0,2,3,4,1,2,3,4,1,2,3,4,1,2,3,4,1,2,3,4,1,2,3,4,1,2,3,4,1,2,3,0,
0,2,3,4,1,2,3,4,1,2,3,4,1,2,3,4,1,2,3,4,1,2,3,4,1,2,3,4,1,2,3,0,
0,2,3,4,1,2,3,4,1,2,3,4,1,2,3,4,1,2,3,4,1,2,3,4,1,2,3,4,1,2,3,0,
0,2,3,4,1,2,3,4,1,2,3,4,1,2,3,4,1,2,3,4,1,2,3,4,1,2,3,4,1,2,3,0,
0,2,3,4,1,2,3,4,1,2,3,4,1,2,3,4,1,2,3,4,1,2,3,4,1,2,3,4,1,2,3,0,
0,2,3,4,1,2,3,4,1,2,3,4,1,2,3,4,1,2,3,4,1,2,3,4,1,2,3,4,1,2,3,0,
0,2,3,4,1,2,3,4,1,2,3,4,1,2,3,4,1,2,3,4,1,2,3,4,1,2,3,4,1,2,3,0,
0,2,3,4,1,2,3,4,1,2,3,4,1,2,3,4,1,2,3,4,1,2,3,4,1,2,3,4,1,2,3,0,
0,2,3,4,1,2,3,4,1,2,3,4,1,2,3,4,1,2,3,4,1,2,3,4,1,2,3,4,1,2,3,0,
0,2,3,4,1,2,3,4,1,2,3,4,1,2,3,4,1,2,3,4,1,2,3,4,1,2,3,4,1,2,3,0,
0,2,3,4,1,2,3,4,1,2,3,4,1,2,3,4,1,2,3,4,1,2,3,4,1,2,3,4,1,2,3,0,
0,2,3,4,1,2,3,4,1,2,3,4,1,2,3,4,1,2,3,4,1,2,3,4,1,2,3,4,1,2,3,0,
0,2,3,4,1,2,3,4,1,2,3,4,1,2,3,4,1,2,3,4,1,2,3,4,1,2,3,4,1,2,3,0,
0,0,0,0,0,0,0,0,0,0,0,0,0,0,0,0,0,0,0,0,0,0,0,0,0,0,0,0,0,0,0,0
</data>
 </layer>
 <layer id="2" name="Floor" width="32" height="18">
  <data encoding="csv">
0,0,0,0,0,0,0,0,0,0,0,0,0,0,0,0,0,0,0,0,0,0,0,0,0,0,0,0,0,0,0,0,
0,0,0,0,0,0,0,0,0,0,0,0,0,0,0,0,0,0,0,0,0,0,0,0,0,0,0,0,0,0,0,0,
0,0,0,0,0,0,0,0,0,0,0,0,0,0,0,0,0,0,0,0,0,0,0,0,0,0,0,0,0,0,0,0,
0,0,0,0,0,0,0,0,0,0,0,0,16,17,17,17,17,17,17,18,0,0,0,0,0,0,0,0,0,0,0,0,
0,0,0,0,16,17,17,17,17,17,17,17,44,28,28,28,28,28,28,43,17,17,17,18,0,0,0,0,0,0,0,0,
0,0,0,16,44,28,28,28,28,28,28,28,28,28,28,28,28,28,71,28,28,28,28,43,17,17,18,0,0,0,0,0,
0,0,16,44,28,83,28,28,28,28,28,28,28,28,28,28,28,28,28,28,28,28,28,28,28,28,43,18,0,0,0,0,
0,0,27,28,28,28,28,28,28,71,28,28,28,83,28,28,28,28,28,28,28,28,83,28,28,28,28,43,18,0,0,0,
0,0,27,28,28,28,28,28,28,28,28,28,28,28,28,28,28,28,28,28,28,28,28,28,28,28,28,28,29,0,0,0,
0,0,27,28,28,28,28,28,28,28,28,28,28,28,28,28,28,28,28,28,28,28,28,28,28,28,28,28,29,0,0,0,
0,0,27,28,28,28,28,28,28,28,28,28,28,28,28,28,83,28,28,28,28,28,28,28,28,28,28,28,29,0,0,0,
0,0,27,28,28,83,28,28,28,28,28,83,28,28,71,28,28,28,28,28,28,28,28,28,71,28,28,28,29,0,0,0,
0,0,27,71,28,28,28,28,28,28,28,28,28,28,28,28,28,28,28,32,39,39,33,28,28,28,28,28,43,18,0,0,
0,0,27,28,28,28,28,28,71,28,28,28,28,28,28,28,28,28,32,40,0,0,38,33,28,83,28,28,28,29,0,0,
0,0,38,39,39,39,39,39,39,39,39,39,39,39,39,39,39,39,40,0,0,0,0,27,28,28,28,28,32,40,0,0,
0,0,0,0,0,0,0,0,0,0,0,0,0,0,0,0,0,0,0,0,0,0,0,38,39,39,39,39,40,0,0,0,
0,0,0,0,0,0,0,0,0,0,0,0,0,0,0,0,0,0,0,0,0,0,0,0,0,0,0,0,0,0,0,0,
0,0,0,0,0,0,0,0,0,0,0,0,0,0,0,0,0,0,0,0,0,0,0,0,0,0,0,0,0,0,0,0
</data>
 </layer>
 <layer id="3" name="OnFloor" width="32" height="18">
  <data encoding="csv">
0,0,0,0,0,0,0,0,0,0,0,0,0,0,0,0,0,0,0,0,0,0,0,0,0,0,0,0,0,0,0,0,
0,0,0,0,0,0,0,0,134,0,0,136,0,0,0,10,0,0,0,0,137,0,0,0,0,0,0,0,0,136,0,0,
0,0,0,0,0,0,0,0,0,0,0,0,0,0,0,298,0,0,0,0,0,0,0,0,134,0,0,0,0,0,0,0,
0,0,0,135,0,0,0,0,0,0,0,0,0,0,0,303,0,0,0,0,0,0,0,0,0,0,0,0,135,0,0,0,
0,137,0,0,0,0,0,0,127,0,0,0,0,0,0,0,0,115,0,0,0,0,0,0,0,0,0,0,0,0,0,0,
0,0,0,0,0,0,0,0,0,117,0,0,0,0,0,0,118,0,0,0,0,0,0,118,0,0,0,0,0,0,0,0,
0,0,0,0,0,246,247,0,0,0,0,105,106,0,0,0,0,0,0,0,244,245,0,0,0,0,0,0,0,0,137,0,
0,0,0,0,0,0,0,0,0,0,0,0,0,0,0,0,127,0,0,0,0,0,0,0,0,0,0,0,0,0,0,0,
0,0,0,0,127,0,0,0,0,118,0,0,0,0,290,291,292,0,126,0,0,0,0,105,106,0,126,0,0,0,0,0,
0,8,9,0,0,0,0,248,249,0,0,0,0,0,0,117,0,0,0,0,117,0,0,0,0,0,0,0,7,8,8,0,
0,0,0,0,0,0,0,0,0,0,0,0,0,0,0,0,0,0,244,245,0,0,0,0,0,0,0,0,0,0,0,0,
0,0,0,0,0,129,130,115,0,0,0,0,0,0,0,0,0,0,0,0,0,127,0,248,249,0,0,0,0,0,0,0,
0,0,0,0,0,0,0,0,0,127,0,246,247,0,0,0,0,118,0,0,0,0,0,0,0,0,0,0,0,0,135,0,
0,136,0,0,0,117,0,0,0,0,0,0,0,126,0,0,0,0,0,0,0,0,0,0,0,0,288,289,0,0,0,0,
0,0,0,0,0,0,0,0,0,0,0,0,0,0,0,5,0,0,0,0,0,0,0,0,0,0,0,0,126,0,0,0,
0,0,0,0,0,0,0,0,0,0,0,134,0,0,0,10,0,0,0,0,0,135,0,0,0,0,0,0,0,0,0,0,
0,0,0,0,135,0,0,0,137,0,0,0,0,0,0,10,0,0,0,137,0,0,0,0,0,0,137,0,0,0,134,0,
0,0,0,0,0,0,0,0,0,0,0,0,0,0,0,0,0,0,0,0,0,0,0,0,0,0,0,0,0,0,0,0
</data>
 </layer>
 <layer id="4" name="InFrontOfPlayer" width="32" height="18">
  <data encoding="csv">
0,0,0,0,0,0,0,0,0,0,0,0,0,0,0,0,0,0,0,0,0,0,0,0,0,0,0,0,0,0,0,0,
0,0,0,0,0,0,0,0,0,0,0,0,0,0,0,0,0,0,0,0,0,0,0,0,0,0,0,0,0,0,0,0,
0,0,0,0,0,0,0,0,0,0,0,0,0,0,0,0,0,0,0,0,0,0,0,0,0,0,0,0,0,0,0,0,
0,0,0,0,0,0,0,0,0,0,0,0,0,0,0,0,0,0,0,0,0,0,0,0,0,0,0,0,0,0,0,0,
0,0,0,0,0,0,0,0,0,0,0,0,0,0,0,0,0,0,0,0,0,0,0,0,0,0,0,0,0,0,0,0,
0,0,0,0,0,234,235,0,0,0,0,96,97,0,0,0,0,0,0,0,232,233,0,0,0,0,0,0,0,0,0,0,
0,0,0,0,0,0,0,0,0,0,0,0,0,0,270,271,272,0,0,0,0,0,0,0,0,0,0,0,0,0,0,0,
0,0,0,0,0,0,0,0,0,0,0,0,0,0,280,281,282,0,0,0,0,0,0,96,97,0,0,0,0,0,0,0,
0,0,0,0,0,0,0,236,237,0,0,0,0,0,0,0,0,0,0,0,0,0,0,0,0,0,0,0,0,0,0,0,
0,0,0,0,0,0,0,0,0,0,0,0,0,0,0,0,0,0,232,233,0,0,0,0,0,0,0,0,0,0,0,0,
0,0,0,0,0,0,0,0,0,0,0,0,0,0,0,0,0,0,0,0,0,0,0,236,237,0,0,0,0,0,0,0,
0,0,0,0,0,0,0,0,0,0,0,234,235,0,0,0,0,0,0,0,0,0,0,0,0,0,0,0,0,0,0,0,
0,0,0,0,0,0,0,0,0,0,0,0,0,0,0,0,0,0,0,0,0,0,0,0,0,0,278,279,0,0,0,0,
0,0,0,0,0,0,0,0,0,0,0,0,0,0,0,0,0,0,0,0,0,0,0,0,0,0,0,0,0,0,0,0,
0,0,0,0,0,0,0,0,0,0,0,0,0,0,0,0,0,0,0,0,0,0,0,0,0,0,0,0,0,0,0,0,
0,0,0,0,0,0,0,0,0,0,0,0,0,0,0,0,0,0,0,0,0,0,0,0,0,0,0,0,0,0,0,0,
0,0,0,0,0,0,0,0,0,0,0,0,0,0,0,0,0,0,0,0,0,0,0,0,0,0,0,0,0,0,0,0,
0,0,0,0,0,0,0,0,0,0,0,0,0,0,0,0,0,0,0,0,0,0,0,0,0,0,0,0,0,0,0,0
</data>
 </layer>
 <layer id="5" name="Collisions" width="32" height="18" visible="0">
  <data encoding="csv">
142,142,142,142,142,142,142,142,142,142,142,142,142,142,139,0,138,142,142,142,142,142,142,142,142,142,142,142,142,142,142,142,
142,142,142,142,142,142,142,142,142,142,142,142,142,142,139,0,138,142,142,142,142,142,142,142,142,142,142,142,142,142,142,142,
142,142,142,142,142,142,142,142,142,142,142,142,142,142,139,0,138,142,142,142,142,142,142,142,142,142,142,142,142,142,142,142,
142,142,142,142,142,142,142,142,142,142,142,142,139,0,0,0,0,0,0,138,142,142,142,142,142,142,142,142,142,142,142,142,
142,142,142,142,139,0,0,0,0,0,0,0,0,0,0,0,0,166,0,0,0,0,0,138,142,142,142,142,142,142,142,142,
142,142,142,139,0,0,0,0,0,0,0,0,0,0,0,0,0,0,0,0,0,0,0,0,0,0,138,142,142,142,142,142,
142,142,139,0,0,138,139,0,0,0,0,138,139,0,0,0,0,0,0,0,138,139,0,0,0,0,0,138,142,142,142,142,
142,142,139,0,0,0,0,0,0,0,0,0,0,0,0,0,0,0,0,0,0,0,0,0,0,0,0,0,138,142,142,142,
140,140,0,0,0,0,0,0,0,0,0,0,0,0,0,142,0,0,0,0,0,0,0,138,139,0,0,0,0,140,140,140,
0,0,0,0,0,0,0,138,139,0,0,0,0,0,0,0,0,0,0,0,0,0,0,0,0,0,0,0,0,0,0,0,
142,142,139,0,0,0,0,0,0,0,0,0,0,0,0,0,0,0,138,139,0,0,0,0,0,0,0,0,138,142,142,142,
142,142,139,0,0,142,141,166,0,0,0,0,0,0,0,0,0,0,0,0,0,0,0,138,139,0,0,0,138,142,142,142,
142,142,139,0,0,0,0,0,0,0,0,138,139,0,0,0,0,0,0,0,141,141,0,0,0,0,0,0,0,138,142,142,
142,142,139,0,0,0,0,0,0,0,0,0,0,0,0,0,0,0,0,163,142,142,162,0,0,0,138,139,0,138,142,142,
142,142,162,141,141,141,141,141,141,141,141,141,141,141,0,0,0,141,163,142,142,142,142,139,0,0,0,0,0,163,142,142,
142,142,142,142,142,142,142,142,142,142,142,142,142,142,139,0,138,142,142,142,142,142,142,162,141,141,141,141,163,142,142,142,
142,142,142,142,142,142,142,142,142,142,142,142,142,142,139,0,138,142,142,142,142,142,142,142,142,142,142,142,142,142,142,142,
142,142,142,142,142,142,142,142,142,142,142,142,142,142,139,0,138,142,142,142,142,142,142,142,142,142,142,142,142,142,142,142
</data>
 </layer>
</map>
