<?xml version="1.0" encoding="UTF-8"?>
<map version="1.10" tiledversion="1.12.2" orientation="orthogonal" renderorder="right-down" width="32" height="18" tilewidth="16" tileheight="16" infinite="0" nextlayerid="6" nextobjectid="1">
 <editorsettings>
  <export target="camping.json" format="json"/>
 </editorsettings>
 <tileset firstgid="1" source="../tilesets/Water.tsx"/>
 <tileset firstgid="5" source="../tilesets/Wood Bridge.tsx"/>
 <tileset firstgid="20" source="../tilesets/Grass.tsx"/>
 <tileset firstgid="97" source="../tilesets/small_huts.tsx"/>
 <tileset firstgid="241" source="../tilesets/Paths.tsx"/>
 <tileset firstgid="257" source="../tilesets/Basic_Grass_Biom_things.tsx"/>
 <tileset firstgid="302" source="../tilesets/collisions.tsx"/>
 <tileset firstgid="334" source="../tilesets/Barn structures.tsx"/>
 <tileset firstgid="346" source="../tilesets/Boats.tsx"/>
 <layer id="1" name="Water" width="32" height="18">
  <data encoding="csv">
0,0,0,0,0,0,0,0,0,0,0,0,0,0,0,0,0,0,0,0,0,0,0,0,0,0,0,0,0,0,0,0,
0,2,3,4,1,2,3,4,1,2,3,4,1,2,3,4,1,2,3,4,1,2,3,4,1,2,3,4,1,2,3,0,
0,2,3,4,1,2,3,4,1,2,3,4,1,2,3,4,1,2,3,4,1,2,3,4,1,2,3,4,1,2,3,0,
0,2,3,4,1,2,3,4,1,2,3,4,1,2,3,4,1,2,3,4,1,2,3,4,1,2,3,4,1,2,3,0,
0,2,3,4,1,2,3,4,1,2,3,4,1,2,3,4,1,2,3,4,1,2,3,4,1,2,3,4,1,2,3,0,
0,2,3,4,1,2,3,4,1,2,3,4,1,2,3,4,1,2,3,4,1,2,3,4,1,2,3,4,1,2,3,0,
0,2,3,4,1,2,3,4,1,2,3,4,1,2,3,4,1,2,3,4,1,2,3,4,1,2,3,4,1,2,3,0,
0,2,3,4,1,2,3,4,1,2,3,4,1,2,3,4,1,2,3,4,1,2,3,4,1,2,3,4,1,2,3,0,
0,2,3,4,1,2,3,4,1,2,3,4,1,2,3,4,1,2,3,4,1,2,3,4,1,2,3,4,1,2,3,0,
0,2,3,4,1,2,3,4,1,2,3,4,1,2,3,4,1,2,3,4,1,2,3,4,1,2,3,4,1,2,3,0,
0,2,3,4,1,2,3,4,1,2,3,4,1,2,3,4,1,2,3,4,1,2,3,4,1,2,3,4,1,2,3,0,
0,2,3,4,1,2,3,4,1,2,3,4,1,2,3,4,1,2,3,4,1,2,3,4,1,2,3,4,1,2,3,0,
0,2,3,4,1,2,3,4,1,2,3,4,1,2,3,4,1,2,3,4,1,2,3,4,1,2,3,4,1,2,3,0,
0,2,3,4,1,2,3,4,1,2,3,4,1,2,3,4,1,2,3,4,1,2,3,4,1,2,3,4,1,2,3,0,
0,2,3,4,1,2,3,4,1,2,3,4,1,2,3,4,1,2,3,4,1,2,3,4,1,2,3,4,1,2,3,0,
0,2,3,4,1,2,3,4,1,2,3,4,1,2,3,4,1,2,3,4,1,2,3,4,1,2,3,4,1,2,3,0,
0,2,3,4,1,2,3,4,1,2,3,4,1,2,3,4,1,2,3,4,1,2,3,4,1,2,3,4,1,2,3,0,
0,0,0,0,0,0,0,0,0,0,0,0,0,0,0,0,0,0,0,0,0,0,0,0,0,0,0,0,0,0,0,0
</data>
 </layer>
 <layer id="2" name="Floor" width="32" height="18">
  <data encoding="csv">
0,0,0,0,0,0,0,0,0,0,0,0,0,0,0,0,0,0,0,0,0,0,0,0,0,0,0,0,0,0,0,0,
0,0,0,0,0,0,0,0,0,0,0,0,0,0,0,0,0,0,0,0,0,0,0,0,0,0,0,0,0,0,0,0,
0,0,0,0,0,0,0,0,0,0,20,21,21,21,21,21,21,21,21,21,21,21,21,21,22,0,0,0,0,0,0,0,
0,0,0,0,20,21,21,21,21,21,48,32,32,32,32,32,32,32,32,32,32,32,32,32,47,21,22,0,0,0,0,0,
0,0,0,20,48,32,32,32,32,32,32,32,32,32,32,32,32,32,32,32,32,32,32,32,32,32,47,22,0,0,0,0,
0,0,0,31,32,32,32,32,32,32,32,32,32,32,32,32,32,32,32,32,32,32,32,32,32,32,32,33,0,0,0,0,
0,0,20,48,32,32,32,32,32,32,32,32,32,32,32,32,32,32,32,32,32,32,32,32,75,32,32,33,0,0,0,0,
0,0,31,32,32,86,32,32,32,32,32,75,32,32,32,32,32,32,32,32,32,32,32,32,32,32,32,33,0,0,0,0,
0,0,31,32,32,32,32,32,32,32,32,32,32,32,75,32,32,32,86,32,32,86,32,32,32,32,32,33,0,0,0,0,
0,0,31,32,32,32,32,32,32,32,32,32,32,32,32,32,32,32,32,32,32,32,32,32,32,32,32,33,0,0,0,0,
0,0,31,32,32,32,32,32,32,32,32,32,32,32,32,32,32,32,32,32,32,32,32,32,32,32,32,33,0,0,0,0,
0,0,31,32,32,32,32,32,86,32,32,32,32,32,32,86,32,32,32,32,32,32,32,32,32,32,36,44,0,0,0,0,
0,0,31,32,32,32,32,32,32,32,32,32,32,32,32,32,32,32,32,32,32,32,32,32,32,32,33,0,0,0,0,0,
0,0,42,37,32,32,32,32,32,32,32,32,32,32,32,32,32,32,32,32,32,32,32,32,32,32,33,0,0,0,0,0,
0,0,0,42,37,32,32,32,32,32,36,43,43,43,43,43,43,43,43,43,37,32,32,32,32,36,44,0,0,0,0,0,
0,0,0,0,42,43,43,43,43,43,44,0,0,0,0,0,0,0,0,0,42,43,43,43,43,44,0,0,0,0,0,0,
0,0,0,0,0,0,0,0,0,0,0,0,0,0,0,0,0,0,0,0,0,0,0,0,0,0,0,0,0,0,0,0,
0,0,0,0,0,0,0,0,0,0,0,0,0,0,0,0,0,0,0,0,0,0,0,0,0,0,0,0,0,0,0,0
</data>
 </layer>
 <layer id="3" name="OnFloor" width="32" height="18">
  <data encoding="csv">
0,0,0,0,0,0,0,0,0,0,0,0,0,0,0,0,0,0,0,0,0,0,0,0,0,0,0,0,0,0,0,0,
0,0,0,0,0,0,0,0,301,0,0,0,0,0,0,10,0,0,0,0,0,0,299,0,0,0,0,0,0,0,0,0,
0,0,0,0,300,0,0,0,0,0,0,0,0,0,0,15,0,0,0,291,0,0,0,0,0,0,0,0,0,298,0,0,
0,0,0,0,0,0,0,0,0,0,0,0,0,290,0,241,0,0,0,0,0,0,281,0,0,0,0,0,0,0,0,0,
0,0,298,0,0,0,0,0,0,282,0,0,0,0,0,245,0,177,178,179,180,0,0,0,0,0,0,0,0,0,0,0,
0,0,0,0,121,122,123,124,0,0,129,130,131,132,0,245,0,189,190,191,192,0,0,173,174,175,176,0,0,0,0,0,
0,0,0,0,133,134,135,136,0,0,141,142,143,144,0,245,0,0,0,241,0,0,0,185,186,187,188,0,0,0,0,0,
0,0,0,0,0,0,0,0,0,0,0,0,0,0,0,250,246,255,255,251,0,0,0,0,246,251,0,0,0,0,0,0,
0,300,0,0,0,0,282,254,255,255,255,255,255,255,255,247,251,0,250,255,255,255,255,255,251,0,0,0,0,0,299,0,
0,0,0,281,0,0,0,0,0,0,0,0,0,0,0,245,281,0,0,0,0,0,0,0,0,0,0,0,0,0,0,0,
0,0,0,0,0,0,0,0,0,0,221,222,223,224,246,251,0,0,0,0,0,0,0,0,0,0,0,0,300,0,0,0,
0,0,0,0,217,218,219,220,0,0,233,234,235,236,245,0,0,225,226,227,228,0,0,169,170,171,172,0,0,0,0,0,
0,0,0,0,229,230,231,232,0,0,0,0,254,255,251,247,0,237,238,239,240,0,0,181,182,183,184,0,0,0,0,0,
0,299,0,0,0,0,0,0,0,0,0,0,0,0,0,249,0,0,0,0,0,0,0,0,0,0,0,0,0,0,0,0,
0,0,298,0,0,0,0,0,0,281,0,0,0,0,346,347,348,0,0,0,0,0,0,290,0,0,0,0,0,301,0,0,
0,0,0,0,0,0,0,0,0,0,0,0,0,0,355,356,357,0,0,0,0,0,0,0,0,0,0,0,0,0,0,0,
0,0,0,0,300,0,0,0,0,0,0,299,0,0,0,0,0,0,301,0,0,0,0,0,0,0,0,0,0,0,0,0,
0,0,0,0,0,0,0,0,0,0,0,0,0,0,0,0,0,0,0,0,0,0,0,0,0,0,0,0,0,0,0,0
</data>
 </layer>
 <layer id="4" name="InFrontOfPlayer" width="32" height="18">
  <data encoding="csv">
0,0,0,0,0,0,0,0,0,0,0,0,0,0,0,0,0,0,0,0,0,0,0,0,0,0,0,0,0,0,0,0,
0,0,0,0,0,0,0,0,0,0,0,0,0,0,0,0,0,0,0,0,0,0,0,0,0,0,0,0,0,0,0,0,
0,0,0,0,0,0,0,0,0,0,0,0,0,0,0,0,0,153,154,155,156,0,0,0,0,0,0,0,0,0,0,0,
0,0,0,0,97,98,99,100,0,0,105,106,107,108,0,0,0,165,166,167,168,0,0,149,150,151,152,0,0,0,0,0,
0,0,0,0,109,110,111,112,0,0,117,118,119,120,0,0,0,0,0,0,0,0,0,161,162,163,164,0,0,0,0,0,
0,0,0,0,0,0,0,0,0,0,0,0,0,0,0,0,0,0,0,0,0,0,0,0,0,0,0,0,0,0,0,0,
0,0,0,0,0,0,0,0,0,0,0,0,0,0,0,0,0,0,0,0,0,0,0,0,0,0,0,0,0,0,0,0,
0,0,0,0,0,0,0,0,0,0,0,0,0,0,0,0,0,0,0,0,0,0,0,0,0,0,0,0,0,0,0,0,
0,0,0,0,0,0,0,0,0,0,197,198,199,200,0,0,0,0,0,0,0,0,0,0,0,0,0,0,0,0,0,0,
0,0,0,0,193,194,195,196,0,0,209,210,211,212,0,0,0,201,202,203,204,0,0,145,146,147,148,0,0,0,0,0,
0,0,0,0,205,206,207,208,0,0,0,0,0,0,0,0,0,213,214,215,216,0,0,157,158,159,160,0,0,0,0,0,
0,0,0,0,0,0,0,0,0,0,0,0,0,0,0,0,0,0,0,0,0,0,0,0,0,0,0,0,0,0,0,0,
0,0,0,0,0,0,0,0,0,0,0,0,0,0,0,0,0,0,0,0,0,0,0,0,0,0,0,0,0,0,0,0,
0,0,0,0,0,0,0,0,0,0,0,0,0,0,0,0,0,0,0,0,0,0,0,0,0,0,0,0,0,0,0,0,
0,0,0,0,0,0,0,0,0,0,0,0,0,0,0,0,0,0,0,0,0,0,0,0,0,0,0,0,0,0,0,0,
0,0,0,0,0,0,0,0,0,0,0,0,0,0,0,0,0,0,0,0,0,0,0,0,0,0,0,0,0,0,0,0,
0,0,0,0,0,0,0,0,0,0,0,0,0,0,0,0,0,0,0,0,0,0,0,0,0,0,0,0,0,0,0,0,
0,0,0,0,0,0,0,0,0,0,0,0,0,0,0,0,0,0,0,0,0,0,0,0,0,0,0,0,0,0,0,0
</data>
 </layer>
 <layer id="5" name="Collisions" width="32" height="18" visible="0">
  <data encoding="csv">
306,306,306,306,306,306,306,306,306,306,306,306,306,306,306,0,306,306,306,306,306,306,306,306,306,306,306,306,306,306,306,306,
306,306,306,306,306,306,306,306,306,306,306,306,306,306,306,0,306,306,306,306,306,306,306,306,306,306,306,306,306,306,306,306,
306,306,306,306,306,306,306,306,306,306,303,0,0,0,0,0,0,0,0,0,0,0,0,0,302,306,306,306,306,306,306,306,
306,306,306,306,303,0,0,0,0,0,0,0,0,0,0,0,0,0,0,0,0,0,0,0,0,0,302,306,306,306,306,306,
306,306,306,303,0,0,0,0,0,0,0,0,0,0,0,0,0,302,306,306,303,0,0,0,0,0,0,302,306,306,306,306,
306,306,306,303,302,306,306,303,0,0,302,306,306,303,0,0,0,302,306,306,303,0,0,302,306,306,303,302,306,306,306,306,
306,306,303,0,302,306,306,303,0,0,302,306,306,303,0,0,0,0,0,0,0,0,0,302,306,306,303,302,306,306,306,306,
306,306,303,0,0,0,0,0,0,0,0,0,0,0,0,0,0,0,0,0,0,0,0,0,0,0,0,302,306,306,306,306,
306,306,303,0,0,0,0,0,0,0,0,0,0,0,0,0,0,0,0,0,0,0,0,0,0,0,0,302,306,306,306,306,
306,306,303,0,0,0,0,0,0,0,0,0,0,0,0,0,0,0,0,0,0,0,0,0,0,0,0,302,306,306,306,306,
306,306,303,0,0,0,0,0,0,0,302,306,306,303,0,0,0,0,0,0,0,0,0,0,0,0,0,302,306,306,306,306,
306,306,303,0,302,306,306,303,0,0,302,306,306,303,0,0,0,302,306,306,303,0,0,302,306,306,303,327,306,306,306,306,
306,306,303,0,302,306,306,303,0,0,0,0,0,0,0,0,0,302,306,306,303,0,0,302,306,306,306,306,306,306,306,306,
306,306,326,0,0,0,0,0,0,0,0,0,0,0,0,0,0,0,0,0,0,0,0,0,0,0,302,306,306,306,306,306,
306,306,306,326,0,0,0,0,0,0,0,305,305,305,305,305,305,305,305,305,0,0,0,0,0,0,327,306,306,306,306,306,
306,306,306,306,326,305,305,305,305,305,327,306,306,306,306,306,306,306,306,306,326,305,305,305,305,327,306,306,306,306,306,306,
306,306,306,306,306,306,306,306,306,306,306,306,306,306,306,306,306,306,306,306,306,306,306,306,306,306,306,306,306,306,306,306,
306,306,306,306,306,306,306,306,306,306,306,306,306,306,306,306,306,306,306,306,306,306,306,306,306,306,306,306,306,306,306,306
</data>
 </layer>
</map>
