<?xml version="1.0" encoding="UTF-8"?>
<map version="1.10" tiledversion="1.12.2" orientation="orthogonal" renderorder="right-down" width="30" height="20" tilewidth="48" tileheight="48" infinite="0" nextlayerid="3" nextobjectid="1">
 <tileset firstgid="1" source="8.tsx"/>
 <tileset firstgid="257" source="5.tsx"/>
 <tileset firstgid="513" source="6.tsx"/>
 <tileset firstgid="769" source="3.tsx"/>
 <tileset firstgid="1025" source="1.tsx"/>
 <tileset firstgid="1281" source="7.tsx"/>
 <layer id="2" name="ground" width="30" height="20">
  <data encoding="csv">
84,84,112,84,112,84,33,112,3221225569,33,33,33,33,33,33,33,33,33,33,3221225569,84,112,33,33,112,84,84,112,33,112,
33,84,33,33,84,112,112,84,3221225553,112,33,33,33,33,33,100,84,33,33,3221225553,112,112,112,112,112,112,112,33,112,33,
33,112,112,84,84,112,33,84,3221225537,112,33,33,33,33,33,33,33,33,33,3221225537,84,84,84,112,112,33,84,33,112,33,
84,33,33,33,112,84,112,112,33,33,33,112,33,33,33,33,33,112,33,112,84,112,112,33,33,33,84,33,112,33,
112,33,33,33,84,33,112,84,33,112,112,84,33,33,33,33,33,33,84,33,112,84,33,33,84,84,112,33,33,112,
84,84,33,33,33,33,33,84,33,33,33,33,33,95,84,96,79,80,33,33,84,33,84,33,112,84,33,84,112,33,
84,84,84,84,84,84,84,84,112,84,84,112,112,33,33,33,33,96,84,96,33,84,84,112,84,84,33,84,112,84,
84,84,84,84,79,112,84,84,84,84,84,84,112,84,112,112,33,95,79,84,84,112,33,84,84,33,112,33,33,112,
84,84,84,84,80,112,112,84,84,84,84,84,112,112,84,33,96,79,79,33,84,112,112,112,112,80,96,80,583,581,
84,84,84,84,112,112,112,112,84,84,112,84,112,33,84,84,84,96,96,33,84,84,84,33,112,33,582,583,581,582,
84,84,84,582,33,112,84,84,84,84,84,84,112,112,33,84,84,80,79,80,80,84,112,33,84,112,581,582,583,581,
84,84,84,582,84,84,84,84,112,84,84,112,33,84,84,112,33,33,84,80,79,79,84,112,84,112,582,581,583,582,
84,84,84,33,112,33,84,33,33,84,84,84,96,33,84,112,33,80,79,79,84,84,33,84,33,112,583,582,582,582,
84,84,96,95,84,33,84,33,84,84,84,79,79,79,84,84,33,96,84,84,84,33,84,84,33,33,583,582,581,582,
84,33,84,95,96,80,95,33,112,112,112,33,33,95,96,80,96,96,84,112,84,33,84,84,84,84,581,582,582,582,
84,33,84,84,84,33,80,33,84,33,33,112,33,33,33,96,84,84,84,33,33,84,84,84,33,33,33,112,582,583,
84,112,112,33,84,33,33,33,33,33,33,33,84,33,84,33,112,112,33,84,33,84,84,84,84,112,84,33,84,33,
112,112,33,84,84,33,84,33,582,582,582,582,582,582,582,582,582,582,582,582,33,84,112,84,33,112,33,112,33,33,
84,84,84,33,84,112,84,582,582,582,582,582,582,582,582,582,582,582,582,582,582,112,112,112,33,112,84,112,33,84,
84,84,112,33,112,33,84,582,582,582,582,582,582,582,582,582,582,582,582,582,582,112,84,84,33,33,112,33,112,112
</data>
 </layer>
 <layer id="1" name="collision" width="30" height="20">
  <data encoding="csv">
0,0,0,865,866,867,868,869,0,0,0,0,0,0,0,0,0,0,0,0,788,789,265,266,267,268,269,270,271,272,
0,0,0,881,882,883,884,885,0,0,0,0,0,0,0,0,0,0,0,0,804,805,281,282,283,284,285,286,287,288,
0,0,0,0,0,0,2147483948,2147483947,2147483946,2147483945,0,0,0,0,0,0,0,1068,0,0,0,0,297,298,299,300,301,302,303,304,
0,0,269,270,271,272,2147483964,2147483963,2147483962,2147483961,0,0,0,0,1081,1082,1083,1084,0,0,0,0,313,314,315,316,317,318,319,320,
0,0,285,286,287,288,2147483980,2147483979,2147483978,2147483977,0,0,0,301,0,0,0,0,0,0,0,0,329,330,331,332,333,1085,335,336,
3221225995,3221225994,0,0,0,0,0,0,0,0,0,0,0,317,0,0,0,0,1117,0,0,0,345,346,347,348,349,350,351,352,
0,905,906,0,0,0,0,0,0,0,0,0,0,333,0,0,0,0,1133,0,0,0,361,362,363,364,365,366,367,368,
0,0,0,0,0,0,0,0,0,0,0,0,0,0,0,0,0,0,1149,0,0,0,377,378,379,380,381,382,383,384,
0,0,0,0,0,0,0,0,0,0,0,0,0,454,0,0,0,0,0,0,0,0,0,1087,1088,0,0,0,757,1282,
0,0,345,346,347,348,349,350,297,298,0,0,0,470,0,0,0,0,0,0,0,0,0,1103,1104,0,0,701,0,1298,
0,0,361,362,363,364,365,366,313,314,0,0,0,486,0,0,0,0,0,0,0,0,0,0,0,0,0,0,0,1314,
0,0,377,378,379,380,381,382,329,330,1085,0,0,502,0,0,0,451,452,0,0,0,0,0,0,0,0,0,0,0,
0,0,0,0,0,0,0,0,0,0,0,0,0,0,0,0,0,467,468,0,0,0,0,0,0,0,3221225995,3221225994,0,0,
521,0,0,0,0,0,0,0,1150,0,0,0,0,0,0,0,0,483,484,0,0,0,0,0,0,0,0,623,624,688,
0,0,0,0,0,0,0,0,0,0,0,0,0,0,0,0,0,499,500,0,0,824,0,0,0,0,0,639,640,0,
0,0,1117,0,680,0,0,0,0,0,0,0,0,0,0,0,0,0,0,0,0,840,0,0,0,0,0,0,624,0,
0,0,1133,0,0,0,0,0,0,0,0,0,0,0,0,0,0,0,0,0,0,856,0,0,0,0,0,0,0,0,
0,0,0,0,0,0,0,0,0,0,828,829,0,0,0,0,830,831,832,0,0,0,0,0,0,0,0,0,0,0,
0,0,0,0,0,0,0,0,0,0,844,845,0,0,0,0,846,847,848,0,0,0,0,0,0,0,0,0,0,0,
0,0,0,0,0,0,0,0,0,0,0,0,0,0,0,0,0,0,0,0,0,0,0,0,0,0,0,0,0,0
</data>
 </layer>
</map>
