<?xml version="1.0" encoding="UTF-8"?>
<map version="1.10" tiledversion="1.12.2" orientation="orthogonal" renderorder="right-down" width="30" height="20" tilewidth="48" tileheight="48" infinite="0" nextlayerid="3" nextobjectid="1">
 <tileset firstgid="1" source="6.tsx"/>
 <tileset firstgid="257" source="5.tsx"/>
 <tileset firstgid="513" source="1.tsx"/>
 <layer id="1" name="ground" width="30" height="20">
  <data encoding="csv">
115,115,83,115,83,70,115,70,83,83,83,70,83,115,83,70,83,83,83,70,70,83,70,83,70,115,70,69,115,71,
115,83,115,83,83,83,70,70,83,83,115,83,70,70,115,115,70,83,70,83,70,83,83,83,115,70,70,70,115,83,
70,70,83,83,83,83,83,70,115,70,83,70,115,83,70,83,70,115,70,115,70,115,115,83,83,115,115,83,115,83,
115,70,70,70,115,115,70,83,115,83,115,83,70,115,115,70,115,115,70,70,70,70,70,83,70,83,70,70,83,83,
83,70,70,70,83,70,83,83,115,115,70,70,70,83,115,83,83,83,115,83,115,115,83,70,83,70,83,115,115,115,
83,115,83,70,83,115,70,83,83,83,70,83,115,83,70,115,115,115,70,70,115,70,115,70,83,115,115,83,115,83,
115,70,115,83,115,83,70,83,115,115,70,115,115,83,83,70,115,115,83,70,83,115,115,70,70,115,115,70,115,115,
70,70,115,83,115,83,70,70,83,115,83,70,70,115,70,70,83,115,115,70,70,83,83,70,115,83,83,70,83,83,
83,70,115,70,83,83,83,70,83,70,70,70,115,83,70,115,70,70,115,70,70,70,70,115,70,115,83,83,70,70,
115,83,83,70,83,70,83,83,83,70,83,70,70,83,83,70,70,115,115,115,70,83,115,70,115,83,83,70,83,115,
70,115,83,83,115,83,83,83,70,83,115,70,115,70,83,83,70,83,83,115,70,83,115,115,70,70,115,115,83,83,
70,83,70,115,83,70,83,115,115,70,83,115,83,70,115,70,70,83,115,70,70,83,70,115,70,115,70,115,70,70,
70,115,70,70,70,70,83,83,83,70,83,115,83,70,70,70,83,70,115,115,83,70,115,70,83,83,115,83,83,115,
83,70,115,115,83,115,115,70,83,70,70,83,70,70,83,115,70,115,83,83,83,115,83,115,70,115,115,115,115,70,
115,70,115,83,115,70,115,83,83,115,115,83,115,83,83,115,83,70,70,115,70,70,83,83,115,83,70,70,70,70,
115,115,70,70,83,70,115,83,83,115,83,70,115,70,115,70,70,115,115,83,83,115,115,115,83,83,115,83,83,83,
115,70,83,70,70,83,70,115,70,115,115,115,115,70,70,115,70,70,83,70,70,83,83,70,83,70,70,115,70,70,
83,83,115,70,83,115,83,70,83,83,115,115,83,115,83,115,115,70,83,115,70,70,115,83,83,83,70,70,70,70,
83,115,115,70,70,70,115,115,83,70,83,83,70,70,83,115,83,115,83,70,70,83,83,83,115,70,83,70,70,83,
115,83,83,115,70,83,70,70,70,70,70,70,83,70,83,83,115,83,115,83,83,115,115,70,115,115,70,115,115,70
</data>
 </layer>
 <layer id="2" name="collision" width="30" height="20">
  <data encoding="csv">
0,0,0,0,0,0,0,0,0,0,0,292,293,0,0,0,0,0,0,0,0,0,0,0,0,0,0,0,0,0,
0,0,0,0,0,0,0,0,0,0,0,308,309,0,0,0,0,0,0,0,0,0,0,0,0,0,0,0,0,0,
0,0,0,0,0,0,0,0,321,322,323,324,325,326,0,0,0,0,0,0,0,0,0,0,542,543,0,0,0,0,
0,0,0,0,0,0,0,0,337,338,339,340,341,342,0,0,0,0,0,608,0,0,0,0,558,559,0,0,0,0,
0,0,0,0,0,0,0,0,0,0,0,0,0,0,0,0,0,0,0,624,0,0,0,0,0,0,0,0,0,0,
0,0,0,0,0,0,257,258,259,292,293,0,0,0,0,0,0,0,0,640,0,262,263,264,0,0,0,0,0,0,
0,0,0,0,0,0,273,274,275,308,309,0,0,0,0,0,0,0,0,0,0,278,279,280,0,0,0,0,0,0,
0,0,0,0,0,0,321,322,323,324,325,0,0,0,0,0,0,0,0,0,0,294,295,296,0,0,0,0,0,0,
0,0,0,0,0,0,337,338,339,340,341,0,0,0,0,0,0,0,0,0,0,310,311,312,0,0,0,0,0,0,
0,0,0,0,0,0,321,322,323,292,293,0,0,0,0,0,0,0,0,0,0,326,327,328,0,0,0,0,0,0,
0,0,0,0,0,0,337,338,339,308,309,0,0,0,0,0,0,0,0,573,574,342,343,344,688,0,0,0,0,0,
0,0,0,0,0,0,321,322,323,324,325,0,0,0,0,0,0,0,0,589,590,358,359,360,0,0,0,0,0,0,
0,0,0,0,0,0,337,338,339,340,341,0,0,0,0,0,0,0,0,0,0,374,375,376,0,0,0,0,0,0,
0,0,0,0,0,0,0,0,0,292,293,0,0,0,0,0,0,0,0,0,0,0,0,0,0,0,0,0,0,0,
0,0,0,0,0,0,0,0,260,261,262,263,264,0,0,0,0,356,357,358,359,360,0,0,0,0,0,0,0,0,
0,0,0,0,0,0,0,0,276,277,278,279,280,0,0,0,0,372,373,374,375,376,0,0,0,0,0,0,0,0,
0,0,0,0,0,0,0,0,0,0,0,0,0,0,0,0,0,0,0,0,0,0,0,0,0,0,0,0,0,0,
0,0,0,0,0,0,0,0,0,0,0,0,0,0,0,0,0,0,0,0,0,0,0,0,0,0,0,0,0,0,
0,0,0,0,0,0,0,0,0,0,0,0,0,0,0,0,0,0,0,0,0,0,0,0,0,0,0,0,0,0,
0,0,0,0,0,0,0,0,0,0,0,0,0,0,0,0,0,0,0,292,293,0,0,0,0,0,0,0,0,0
</data>
 </layer>
</map>
