<?xml version="1.0" encoding="UTF-8"?>
<map version="1.10" tiledversion="1.12.2" orientation="orthogonal" renderorder="right-down" width="30" height="20" tilewidth="16" tileheight="16" infinite="0" nextlayerid="3" nextobjectid="1">
 <tileset firstgid="1" source="dirt.tsx"/>
 <tileset firstgid="65" source="furnitures.tsx"/>
 <layer id="1" name="floor" width="30" height="20">
  <data encoding="csv">
26,27,27,27,27,27,27,27,27,27,27,17,27,27,27,27,27,27,18,27,27,27,18,27,27,18,27,27,27,28,
34,35,35,35,35,35,35,35,35,35,35,35,35,35,35,35,35,35,35,35,35,35,35,35,35,35,35,35,35,36,
34,35,35,35,35,35,35,35,35,35,35,35,35,35,35,35,35,35,35,35,35,35,35,35,35,35,35,35,35,36,
34,35,35,2,35,35,35,35,35,35,35,35,35,35,35,10,35,35,35,2,35,35,35,35,35,35,35,35,35,36,
4,35,35,35,35,35,35,35,35,35,35,35,2,35,35,35,35,35,35,35,35,35,35,35,35,35,35,35,35,5,
34,35,35,35,35,35,35,35,35,35,35,35,35,35,35,35,35,35,35,35,35,35,35,11,35,35,35,35,35,36,
34,35,35,35,35,35,35,35,35,35,35,35,35,35,35,35,35,10,35,35,35,35,35,35,35,35,35,2,35,36,
34,35,35,35,35,35,35,2,35,35,35,35,35,35,35,35,35,35,35,35,35,35,35,10,35,35,35,35,35,36,
34,35,35,10,35,35,35,35,35,10,35,35,35,35,35,35,35,35,35,35,35,35,35,35,35,35,35,35,35,36,
34,35,35,35,10,35,35,35,35,35,35,35,35,35,35,35,2,35,35,35,35,35,35,35,35,35,35,35,35,5,
34,35,35,35,35,35,35,35,35,35,35,35,2,35,35,35,35,2,35,2,35,35,35,35,35,35,35,35,35,36,
34,35,35,35,35,35,35,35,35,35,35,35,2,2,35,35,35,35,35,35,35,35,35,35,35,35,10,10,35,5,
34,35,35,35,35,2,35,35,35,35,35,35,35,35,35,35,35,35,35,35,35,35,35,10,35,35,35,35,35,36,
4,35,35,35,35,2,35,35,35,35,35,35,35,35,35,35,35,35,2,35,35,35,35,10,35,35,35,35,35,36,
34,35,10,35,35,35,35,35,35,35,35,2,35,35,35,35,35,35,35,35,35,35,35,35,35,35,35,35,35,36,
34,35,35,10,35,35,35,35,35,35,35,35,35,35,35,35,35,35,35,35,35,35,35,35,35,35,35,35,35,36,
34,35,35,10,10,35,35,35,35,35,35,35,35,35,10,10,35,35,35,35,35,35,35,10,2,35,35,35,35,36,
34,35,35,35,35,35,35,35,35,35,35,35,35,35,35,10,10,35,35,35,35,35,35,10,35,35,35,35,35,36,
34,35,35,35,35,35,35,35,35,35,35,35,35,35,35,35,35,35,35,35,35,35,35,35,35,35,35,35,35,36,
42,43,43,43,43,43,43,6,43,43,43,43,43,6,43,43,6,43,43,43,43,6,43,43,43,6,43,43,43,44
</data>
 </layer>
 <layer id="2" name="furnitures" width="30" height="20">
  <data encoding="csv">
0,0,0,0,0,0,0,0,0,0,0,0,0,0,0,0,0,0,0,0,0,0,0,0,0,0,0,0,0,0,
0,0,0,0,0,0,0,0,0,0,0,0,0,0,0,0,0,0,0,0,0,0,0,0,0,0,0,0,0,0,
0,0,0,0,0,0,0,0,0,0,0,0,0,0,0,97,0,0,0,0,0,0,0,0,0,0,0,0,0,0,
0,0,0,0,74,0,0,0,0,0,0,0,0,0,0,86,0,0,0,0,0,0,0,0,0,0,0,0,0,0,
0,0,0,0,83,0,0,0,0,0,74,0,0,0,0,0,0,0,0,0,0,0,0,0,0,0,0,0,0,0,
0,0,0,0,0,0,0,0,0,0,83,0,0,0,0,0,0,0,0,0,0,0,0,0,0,0,0,0,0,0,
0,0,0,0,0,0,0,0,0,0,0,0,0,86,0,0,0,0,0,0,0,0,0,0,0,0,0,0,0,0,
0,0,0,0,0,0,0,0,0,0,0,0,0,0,0,0,0,0,0,0,0,0,0,0,0,0,74,0,0,0,
0,0,0,0,0,0,0,0,0,74,0,0,0,0,0,0,0,74,0,0,0,0,0,0,0,0,83,0,0,0,
0,0,0,0,0,0,0,0,0,83,0,0,0,0,0,0,0,83,0,0,0,0,0,0,0,0,0,0,0,0,
0,0,0,0,0,0,0,0,0,0,0,0,0,0,0,0,0,0,0,0,0,0,0,0,0,0,0,0,0,0,
0,0,0,0,0,0,0,0,0,0,0,0,0,0,0,0,0,0,0,0,0,0,0,0,0,0,0,0,0,0,
0,0,0,0,0,0,0,0,0,0,0,0,0,0,0,74,0,0,0,0,0,0,0,74,0,0,0,0,0,0,
0,0,0,0,0,0,0,0,74,0,0,0,0,0,0,83,0,0,0,0,0,0,0,83,0,0,0,0,0,0,
0,0,0,0,0,0,0,0,83,0,0,0,0,0,0,0,0,0,0,0,0,0,0,0,0,0,0,0,0,0,
0,0,0,0,0,0,0,0,0,0,0,0,0,0,0,0,0,0,0,0,0,0,0,0,0,0,0,0,0,0,
0,0,0,0,0,0,0,0,0,0,0,0,0,0,0,113,114,0,0,0,0,0,0,0,0,0,0,0,0,0,
0,0,0,0,0,0,0,0,0,0,0,0,0,0,0,0,0,0,0,0,0,0,0,0,0,0,0,0,0,0,
0,0,0,0,0,0,0,0,0,0,0,0,0,0,0,0,0,0,0,0,0,0,0,0,0,0,0,0,0,0,
0,0,0,0,0,0,0,0,0,0,0,0,0,0,0,0,0,0,0,0,0,0,0,0,0,0,0,0,0,0
</data>
 </layer>
</map>
