<?xml version="1.0" encoding="UTF-8"?>
<map version="1.10" tiledversion="1.12.2" orientation="orthogonal" renderorder="right-down" width="32" height="18" tilewidth="16" tileheight="16" infinite="0" nextlayerid="6" nextobjectid="1">
 <editorsettings>
  <export target="ferme_uzoloise.json" format="json"/>
 </editorsettings>
 <tileset firstgid="1" source="../tilesets/Water.tsx"/>
 <tileset firstgid="5" source="../tilesets/Wood Bridge.tsx"/>
 <tileset firstgid="20" source="../tilesets/Grass.tsx"/>
 <tileset firstgid="97" source="../tilesets/grey_brick_houses_with_doors_grass.tsx"/>
 <tileset firstgid="187" source="../tilesets/Paths.tsx"/>
 <tileset firstgid="203" source="../tilesets/Fences.tsx"/>
 <tileset firstgid="219" source="../tilesets/Basic_Grass_Biom_things.tsx"/>
 <tileset firstgid="264" source="../tilesets/Free Chicken Sprites.tsx"/>
 <tileset firstgid="272" source="../tilesets/Free Cow Sprites.tsx"/>
 <tileset firstgid="296" source="../tilesets/collisions.tsx"/>
 <tileset firstgid="328" source="../tilesets/Barn structures.tsx"/>
 <tileset firstgid="340" source="../tilesets/Water tray.tsx"/>
 <layer id="1" name="Water" width="32" height="18">
  <data encoding="csv">
0,0,0,0,0,0,0,0,0,0,0,0,0,0,0,0,0,0,0,0,0,0,0,0,0,0,0,0,0,0,0,0,
0,2,3,4,1,2,3,4,1,2,3,4,1,2,3,4,1,2,3,4,1,2,3,4,1,2,3,4,1,2,3,0,
0,2,3,4,1,2,3,4,1,2,3,4,1,2,3,4,1,2,3,4,1,2,3,4,1,2,3,4,1,2,3,0,
0,2,3,4,1,2,3,4,1,2,3,4,1,2,3,4,1,2,3,4,1,2,3,4,1,2,3,4,1,2,3,0,
0,2,3,4,1,2,3,4,1,2,3,4,1,2,3,4,1,2,3,4,1,2,3,4,1,2,3,4,1,2,3,0,
0,2,3,4,1,2,3,4,1,2,3,4,1,2,3,4,1,2,3,4,1,2,3,4,1,2,3,4,1,2,3,0,
0,2,3,4,1,2,3,4,1,2,3,4,1,2,3,4,1,2,3,4,1,2,3,4,1,2,3,4,1,2,3,0,
0,2,3,4,1,2,3,4,1,2,3,4,1,2,3,4,1,2,3,4,1,2,3,4,1,2,3,4,1,2,3,0,
0,2,3,4,1,2,3,4,1,2,3,4,1,2,3,4,1,2,3,4,1,2,3,4,1,2,3,4,1,2,3,0,
0,2,3,4,1,2,3,4,1,2,3,4,1,2,3,4,1,2,3,4,1,2,3,4,1,2,3,4,1,2,3,0,
0,2,3,4,1,2,3,4,1,2,3,4,1,2,3,4,1,2,3,4,1,2,3,4,1,2,3,4,1,2,3,0,
0,2,3,4,1,2,3,4,1,2,3,4,1,2,3,4,1,2,3,4,1,2,3,4,1,2,3,4,1,2,3,0,
0,2,3,4,1,2,3,4,1,2,3,4,1,2,3,4,1,2,3,4,1,2,3,4,1,2,3,4,1,2,3,0,
0,2,3,4,1,2,3,4,1,2,3,4,1,2,3,4,1,2,3,4,1,2,3,4,1,2,3,4,1,2,3,0,
0,2,3,4,1,2,3,4,1,2,3,4,1,2,3,4,1,2,3,4,1,2,3,4,1,2,3,4,1,2,3,0,
0,2,3,4,1,2,3,4,1,2,3,4,1,2,3,4,1,2,3,4,1,2,3,4,1,2,3,4,1,2,3,0,
0,2,3,4,1,2,3,4,1,2,3,4,1,2,3,4,1,2,3,4,1,2,3,4,1,2,3,4,1,2,3,0,
0,0,0,0,0,0,0,0,0,0,0,0,0,0,0,0,0,0,0,0,0,0,0,0,0,0,0,0,0,0,0,0
</data>
 </layer>
 <layer id="2" name="Floor" width="32" height="18">
  <data encoding="csv">
0,0,0,0,0,0,0,0,0,0,0,0,0,0,0,0,0,0,0,0,0,0,0,0,0,0,0,0,0,0,0,0,
0,0,0,0,0,0,0,0,0,0,0,0,0,0,0,0,0,0,0,0,0,0,0,0,0,0,0,0,0,0,0,0,
0,0,0,0,0,0,0,0,0,0,0,0,0,0,0,0,0,0,0,0,0,0,0,0,0,0,0,0,0,0,0,0,
0,0,0,20,21,21,21,21,21,21,21,21,21,21,21,21,21,21,21,21,21,22,0,20,21,21,21,22,0,0,0,0,
0,0,20,48,32,32,32,32,32,32,32,32,32,32,32,32,32,32,32,32,32,47,21,48,32,32,32,33,0,0,0,0,
0,0,31,32,86,32,32,32,32,32,32,32,32,32,32,32,32,32,32,32,32,32,32,32,32,32,32,33,0,0,0,0,
0,0,31,32,32,32,32,32,32,32,32,32,32,32,32,32,32,32,86,32,32,32,32,32,32,32,32,47,22,0,0,0,
0,0,31,32,32,32,32,32,32,32,86,32,32,32,75,32,32,32,32,32,32,32,32,32,32,32,32,32,33,0,0,0,
0,0,31,32,32,32,32,32,32,32,32,32,32,32,32,32,32,32,32,75,32,32,32,32,32,32,32,32,33,0,0,0,
0,0,31,32,32,32,32,32,32,32,32,32,32,32,32,32,32,32,32,32,32,32,32,32,32,32,32,32,33,0,0,0,
0,0,31,32,32,32,32,32,75,32,32,32,32,32,32,32,32,32,32,32,86,32,32,32,32,32,32,32,33,0,0,0,
0,0,42,37,32,32,32,32,32,32,32,32,32,32,86,32,32,32,32,32,32,32,32,32,36,43,37,32,33,0,0,0,
0,0,0,42,43,37,32,32,32,32,32,32,32,32,32,32,32,32,32,32,32,32,32,32,33,0,31,32,33,0,0,0,
0,0,0,0,0,42,43,43,43,43,43,43,37,32,32,32,32,32,32,32,32,32,32,36,44,0,31,32,33,0,0,0,
0,0,0,0,0,0,0,0,0,0,0,0,31,32,75,32,32,32,32,32,75,32,36,44,0,0,31,32,33,0,0,0,
0,0,0,0,0,0,0,0,0,0,0,0,42,43,43,43,43,43,43,43,43,43,44,0,0,0,42,43,44,0,0,0,
0,0,0,0,0,0,0,0,0,0,0,0,0,0,0,0,0,0,0,0,0,0,0,0,0,0,0,0,0,0,0,0,
0,0,0,0,0,0,0,0,0,0,0,0,0,0,0,0,0,0,0,0,0,0,0,0,0,0,0,0,0,0,0,0
</data>
 </layer>
 <layer id="3" name="OnFloor" width="32" height="18">
  <data encoding="csv">
0,0,0,0,0,0,0,0,0,0,0,0,0,0,0,0,0,0,0,0,0,0,0,0,0,0,0,0,0,0,0,0,
0,0,0,0,0,0,0,0,0,0,0,0,0,0,0,0,0,0,0,0,0,0,0,263,0,0,0,0,0,0,0,0,
0,0,0,0,0,0,0,0,0,0,0,0,0,0,0,0,0,0,0,0,0,0,0,0,0,0,0,0,0,261,0,0,
0,0,0,0,252,204,217,217,217,217,217,217,217,217,217,217,217,217,206,0,0,0,0,0,0,0,0,0,0,0,0,0,
0,0,0,0,0,207,329,330,0,0,0,0,0,0,0,0,334,335,207,0,0,133,134,135,136,137,138,0,0,0,0,0,
0,0,0,0,0,207,332,333,0,264,0,0,0,278,279,0,0,0,207,0,0,151,152,153,154,155,156,0,0,0,0,0,
0,0,0,0,0,207,0,265,0,0,0,331,244,0,0,253,0,0,207,0,0,169,170,171,172,173,174,0,0,0,0,0,
0,261,0,0,0,207,0,252,0,278,279,0,0,0,0,0,0,0,207,0,0,244,0,187,0,0,0,0,0,0,0,0,
0,0,0,253,0,207,0,0,0,0,243,0,0,265,0,0,264,0,207,0,0,0,0,196,201,193,0,0,0,0,0,0,
0,0,0,0,0,207,0,0,0,0,0,0,0,0,0,0,0,0,207,0,0,0,0,0,0,196,201,202,7,8,8,0,
0,0,0,0,0,207,0,244,264,0,278,279,253,0,0,0,264,0,207,0,0,0,0,0,0,0,0,0,0,0,0,0,
0,0,0,0,0,207,0,0,0,340,341,0,0,0,0,0,0,0,207,0,0,0,253,0,0,0,0,0,0,0,0,0,
0,0,262,0,0,212,217,217,217,217,217,217,217,218,0,0,216,217,214,0,0,0,0,0,0,0,0,243,0,0,0,0,
0,0,260,0,0,0,0,0,0,0,0,0,0,0,0,0,0,0,0,0,0,0,0,0,0,263,0,0,0,0,0,0,
0,0,263,261,260,0,0,0,0,0,0,0,0,0,0,0,0,0,0,0,0,252,0,0,0,0,0,0,0,0,0,0,
0,0,0,0,262,263,0,0,261,263,260,263,0,0,0,0,0,0,0,0,0,0,0,0,261,0,0,0,0,0,261,0,
0,0,0,0,0,262,261,260,262,0,0,0,0,0,0,0,0,0,0,0,0,0,0,0,0,0,0,0,0,0,0,0,
0,0,0,0,0,0,0,0,0,0,0,0,0,0,0,0,0,0,0,0,0,0,0,0,0,0,0,0,0,0,0,0
</data>
 </layer>
 <layer id="4" name="InFrontOfPlayer" width="32" height="18">
  <data encoding="csv">
0,0,0,0,0,0,0,0,0,0,0,0,0,0,0,0,0,0,0,0,0,0,0,0,0,0,0,0,0,0,0,0,
0,0,0,0,0,0,0,0,0,0,0,0,0,0,0,0,0,0,0,0,0,0,0,0,0,0,0,0,0,0,0,0,
0,0,0,0,0,0,0,0,0,0,0,0,0,0,0,0,0,0,0,0,0,97,98,99,100,101,102,0,0,0,0,0,
0,0,0,0,0,0,0,0,0,0,0,0,0,0,0,0,0,0,0,0,0,115,116,117,118,119,120,0,0,0,0,0,
0,0,0,0,0,0,0,0,0,0,0,0,0,272,273,0,0,0,0,0,0,0,0,0,0,0,0,0,0,0,0,0,
0,0,0,0,0,0,0,0,0,0,0,0,0,0,0,0,0,0,0,0,0,0,0,0,0,0,0,0,0,0,0,0,
0,0,0,0,0,0,0,0,0,272,273,0,0,0,0,0,0,0,0,0,0,0,0,0,0,0,0,0,0,0,0,0,
0,0,0,0,0,0,0,0,0,0,0,0,0,0,0,0,0,0,0,0,0,0,0,0,0,0,0,0,0,0,0,0,
0,0,0,0,0,0,0,0,0,0,0,0,0,0,0,0,0,0,0,0,0,0,0,0,0,0,0,0,0,0,0,0,
0,0,0,0,0,0,0,0,0,0,272,273,0,0,0,0,0,0,0,0,0,0,0,0,0,0,0,0,0,0,0,0,
0,0,0,0,0,0,0,0,0,0,0,0,0,0,0,0,0,0,0,0,0,0,0,0,0,0,0,0,0,0,0,0,
0,0,0,0,0,0,0,0,0,0,0,0,0,0,0,0,0,0,0,0,0,0,0,0,0,0,0,0,0,0,0,0,
0,0,0,0,0,0,0,0,0,0,0,0,0,0,0,0,0,0,0,0,0,0,0,0,0,0,0,0,0,0,0,0,
0,0,0,0,0,0,0,0,0,0,0,0,0,0,0,0,0,0,0,0,0,0,0,0,0,0,0,0,0,0,0,0,
0,0,0,0,0,0,0,0,0,0,0,0,0,0,0,0,0,0,0,0,0,0,0,0,0,0,0,0,0,0,0,0,
0,0,0,0,0,0,0,0,0,0,0,0,0,0,0,0,0,0,0,0,0,0,0,0,0,0,0,0,0,0,0,0,
0,0,0,0,0,0,0,0,0,0,0,0,0,0,0,0,0,0,0,0,0,0,0,0,0,0,0,0,0,0,0,0,
0,0,0,0,0,0,0,0,0,0,0,0,0,0,0,0,0,0,0,0,0,0,0,0,0,0,0,0,0,0,0,0
</data>
 </layer>
 <layer id="5" name="Collisions" width="32" height="18" visible="0">
  <data encoding="csv">
300,300,300,300,300,300,300,300,300,300,300,300,300,300,300,300,300,300,300,300,300,300,300,300,300,300,300,300,300,300,300,300,
300,300,300,300,300,300,300,300,300,300,300,300,300,300,300,300,300,300,300,300,300,300,300,300,300,300,300,300,300,300,300,300,
300,300,300,300,300,300,300,300,300,300,300,300,300,300,300,300,300,300,300,300,300,300,300,300,300,300,300,300,300,300,300,300,
300,300,300,297,0,317,311,311,311,311,311,311,311,311,311,311,311,311,316,0,0,296,300,300,300,300,297,296,300,300,300,300,
300,300,297,0,0,306,296,300,0,0,0,0,0,0,0,0,300,300,306,0,0,296,300,300,300,300,297,296,300,300,300,300,
300,300,297,0,0,306,300,297,0,324,0,0,0,300,300,0,0,0,306,0,0,296,300,300,300,300,297,296,300,300,300,300,
300,300,297,0,0,306,0,324,0,0,0,300,0,0,0,0,0,0,306,0,0,296,300,300,300,300,297,0,296,300,300,300,
300,300,297,0,0,306,0,0,0,300,300,0,0,0,0,0,0,0,306,0,0,0,0,0,0,0,0,0,296,300,300,300,
300,300,297,0,0,306,0,0,0,0,0,0,0,324,0,0,324,0,306,0,0,0,0,0,0,0,0,0,296,300,300,300,
300,300,297,0,0,306,0,0,0,0,0,0,0,0,0,0,0,0,306,0,0,0,0,0,0,0,0,0,0,0,0,0,
300,300,297,0,0,306,0,0,324,0,300,300,0,0,0,0,324,0,306,0,0,0,0,0,0,0,0,0,296,300,300,300,
300,300,0,0,0,306,0,0,0,300,300,0,0,0,0,0,0,0,306,0,0,0,0,0,0,299,0,0,296,300,300,300,
300,300,0,0,299,319,311,311,311,311,311,311,311,312,0,0,313,311,318,0,0,0,0,0,0,298,0,0,296,300,300,300,
300,300,0,298,298,320,299,299,299,299,299,299,0,0,0,0,0,0,0,0,0,0,0,0,0,299,0,0,296,300,300,300,
300,300,299,299,0,298,300,300,298,298,298,298,0,0,0,0,0,0,0,0,0,0,0,321,300,300,297,0,296,300,300,300,
300,300,300,300,299,0,298,298,0,299,299,299,0,0,299,299,299,299,299,299,299,299,321,300,300,300,320,299,321,300,300,300,
300,300,300,300,300,299,299,299,299,300,300,300,300,300,300,300,300,300,300,300,300,300,300,300,300,300,300,300,300,300,300,300,
300,300,300,300,300,300,300,300,300,300,300,300,300,300,300,300,300,300,300,300,300,300,300,300,300,300,300,300,300,300,300,300
</data>
 </layer>
</map>
