<?xml version="1.0" encoding="UTF-8"?>
<map version="1.10" tiledversion="1.12.2" orientation="orthogonal" renderorder="right-down" width="32" height="18" tilewidth="16" tileheight="16" infinite="0" nextlayerid="8" nextobjectid="1">
 <editorsettings>
  <export target="ferme_charbonneau.json" format="json"/>
 </editorsettings>
 <tileset firstgid="1" source="../tilesets/Water.tsx"/>
 <tileset firstgid="5" source="../tilesets/Wood Bridge.tsx"/>
 <tileset firstgid="16" source="../tilesets/Grass.tsx"/>
 <tileset firstgid="93" source="../tilesets/Basic_Grass_Biom_things.tsx"/>
 <tileset firstgid="138" source="../tilesets/ground_dirt_orange_dark.tsx"/>
 <tileset firstgid="259" source="../tilesets/Fences.tsx"/>
 <tileset firstgid="275" source="../tilesets/Farming Plants v2 watered.tsx"/>
 <tileset firstgid="505" source="../tilesets/grey_brick_houses_with_doors_grass.tsx"/>
 <tileset firstgid="595" source="../tilesets/Paths.tsx"/>
 <tileset firstgid="611" source="../tilesets/collisions.tsx"/>
 <layer id="1" name="Water" width="32" height="18">
  <data encoding="csv">
0,0,0,0,0,0,0,0,0,0,0,0,0,0,0,0,0,0,0,0,0,0,0,0,0,0,0,0,0,0,0,0,
0,2,3,4,1,2,3,4,1,2,3,4,1,2,3,4,1,2,3,4,1,2,3,4,1,2,3,4,1,2,3,0,
0,2,3,4,1,2,3,4,1,2,3,4,1,2,3,4,1,2,3,4,1,2,3,4,1,2,3,4,1,2,3,0,
0,2,3,4,1,2,3,4,1,2,3,4,1,2,3,4,1,2,3,4,1,2,3,4,1,2,3,4,1,2,3,0,
0,2,3,4,1,2,3,4,1,2,3,4,1,2,3,4,1,2,3,4,1,2,3,4,1,2,3,4,1,2,3,0,
0,2,3,4,1,2,3,4,1,2,3,4,1,2,3,4,1,2,3,4,1,2,3,4,1,2,3,4,1,2,3,0,
0,2,3,4,1,2,3,4,1,2,3,4,1,2,3,4,1,2,3,4,1,2,3,4,1,2,3,4,1,2,3,0,
0,2,3,4,1,2,3,4,1,2,3,4,1,2,3,4,1,2,3,4,1,2,3,4,1,2,3,4,1,2,3,0,
0,2,3,4,1,2,3,4,1,2,3,4,1,2,3,4,1,2,3,4,1,2,3,4,1,2,3,4,1,2,3,0,
0,2,3,4,1,2,3,4,1,2,3,4,1,2,3,4,1,2,3,4,1,2,3,4,1,2,3,4,1,2,3,0,
0,2,3,4,1,2,3,4,1,2,3,4,1,2,3,4,1,2,3,4,1,2,3,4,1,2,3,4,1,2,3,0,
0,2,3,4,1,2,3,4,1,2,3,4,1,2,3,4,1,2,3,4,1,2,3,4,1,2,3,4,1,2,3,0,
0,2,3,4,1,2,3,4,1,2,3,4,1,2,3,4,1,2,3,4,1,2,3,4,1,2,3,4,1,2,3,0,
0,2,3,4,1,2,3,4,1,2,3,4,1,2,3,4,1,2,3,4,1,2,3,4,1,2,3,4,1,2,3,0,
0,2,3,4,1,2,3,4,1,2,3,4,1,2,3,4,1,2,3,4,1,2,3,4,1,2,3,4,1,2,3,0,
0,2,3,4,1,2,3,4,1,2,3,4,1,2,3,4,1,2,3,4,1,2,3,4,1,2,3,4,1,2,3,0,
0,2,3,4,1,2,3,4,1,2,3,4,1,2,3,4,1,2,3,4,1,2,3,4,1,2,3,4,1,2,3,0,
0,0,0,0,0,0,0,0,0,0,0,0,0,0,0,0,0,0,0,0,0,0,0,0,0,0,0,0,0,0,0,0
</data>
 </layer>
 <layer id="2" name="Floor" width="32" height="18">
  <data encoding="csv">
0,0,0,0,0,0,0,0,0,0,0,0,0,0,0,0,0,0,0,0,0,0,0,0,0,0,0,0,0,0,0,0,
0,0,0,0,0,0,0,0,0,0,0,0,0,0,0,0,0,0,0,0,0,0,0,0,0,0,0,0,0,0,0,0,
0,0,0,0,16,17,17,17,18,0,0,0,0,0,0,0,0,0,0,0,0,0,0,0,0,0,0,0,0,0,0,0,
0,0,0,16,44,28,28,28,43,17,17,17,17,17,17,17,17,17,18,0,0,0,0,0,0,0,0,0,0,0,0,0,
0,0,16,44,28,28,28,28,28,28,28,28,28,28,28,28,28,28,43,17,17,17,18,0,0,0,0,0,0,0,0,0,
0,0,27,28,28,28,28,28,28,28,28,28,28,28,28,28,28,28,28,28,28,28,43,17,17,17,17,18,0,0,0,0,
0,0,27,28,28,28,28,28,28,28,28,28,28,28,28,28,28,28,28,28,28,28,28,28,28,28,28,43,18,0,0,0,
0,0,27,28,28,28,28,28,28,28,28,28,28,28,28,83,28,28,28,71,28,28,28,28,83,28,28,28,29,0,0,0,
0,0,27,28,28,28,28,28,28,28,28,28,28,28,28,28,28,28,28,28,28,28,28,28,28,28,28,28,29,0,0,0,
0,0,27,28,28,28,28,28,28,28,28,28,28,28,28,28,28,28,28,83,28,28,28,28,28,28,28,28,29,0,0,0,
0,0,27,28,28,28,28,28,28,28,28,28,28,28,28,28,28,28,28,28,28,28,28,28,28,28,28,28,29,0,0,0,
0,0,27,28,28,28,28,28,28,28,28,28,28,28,28,71,28,28,28,28,28,28,28,28,28,28,28,32,40,0,0,0,
0,0,27,28,28,28,28,28,28,28,28,28,28,28,28,28,28,28,28,28,28,28,28,71,28,28,28,29,0,0,0,0,
0,0,27,28,28,28,28,28,28,28,28,28,28,28,28,83,28,28,28,28,83,28,28,28,28,32,39,40,0,0,0,0,
0,0,38,28,28,28,28,28,28,28,28,71,28,28,28,28,28,28,28,28,32,39,39,39,39,40,0,0,0,0,0,0,
0,0,0,38,39,39,39,39,39,39,39,39,39,39,39,39,39,39,39,39,40,0,0,0,0,0,0,0,0,0,0,0,
0,0,0,0,0,0,0,0,0,0,0,0,0,0,0,0,0,0,0,0,0,0,0,0,0,0,0,0,0,0,0,0,
0,0,0,0,0,0,0,0,0,0,0,0,0,0,0,0,0,0,0,0,0,0,0,0,0,0,0,0,0,0,0,0
</data>
 </layer>
 <layer id="6" name="DirtFloor" width="32" height="18">
  <data encoding="csv">
0,0,0,0,0,0,0,0,0,0,0,0,0,0,0,0,0,0,0,0,0,0,0,0,0,0,0,0,0,0,0,0,
0,0,0,0,0,0,0,0,0,0,0,0,0,0,0,0,0,0,0,0,0,0,0,0,0,0,0,0,0,0,0,0,
0,0,0,0,0,0,0,0,0,0,0,0,0,0,0,0,0,0,0,0,0,0,0,0,0,0,0,0,0,0,0,0,
0,0,0,0,0,0,0,0,0,0,0,0,0,0,0,0,0,0,0,0,0,0,0,0,0,0,0,0,0,0,0,0,
0,0,0,0,0,0,0,0,0,0,0,0,0,0,0,0,0,0,0,0,0,0,0,0,0,0,0,0,0,0,0,0,
0,0,0,142,226,227,226,227,226,227,145,0,0,0,0,0,0,0,0,0,0,0,0,0,0,0,0,0,0,0,0,0,
0,0,0,196,141,141,141,141,141,141,195,0,0,0,0,0,0,0,0,0,0,0,0,0,0,0,0,0,0,0,0,0,
0,0,0,207,219,220,219,220,219,220,206,0,0,0,0,0,0,0,0,0,0,0,0,0,0,0,0,0,0,0,0,0,
0,0,0,218,230,231,230,231,219,220,217,0,0,0,0,0,0,0,0,0,0,0,0,0,0,0,0,0,0,0,0,0,
0,0,0,229,219,220,219,220,219,220,228,0,0,0,0,0,0,0,0,0,0,0,0,0,0,0,0,0,0,0,0,0,
0,0,0,196,230,231,230,231,230,231,195,0,0,0,0,0,0,0,0,0,0,0,0,0,0,0,0,0,0,0,0,0,
0,0,0,207,219,220,219,220,219,220,206,0,0,0,0,0,0,0,0,0,0,0,0,0,0,0,0,0,0,0,0,0,
0,0,0,218,163,163,163,163,163,163,217,0,0,0,0,0,0,0,0,0,0,0,0,0,0,0,0,0,0,0,0,0,
0,0,0,175,193,194,193,194,193,194,178,0,0,0,0,0,0,0,0,0,0,0,0,0,0,0,0,0,0,0,0,0,
0,0,0,0,0,0,0,0,0,0,0,0,0,0,0,0,0,0,0,0,0,0,0,0,0,0,0,0,0,0,0,0,
0,0,0,0,0,0,0,0,0,0,0,0,0,0,0,0,0,0,0,0,0,0,0,0,0,0,0,0,0,0,0,0,
0,0,0,0,0,0,0,0,0,0,0,0,0,0,0,0,0,0,0,0,0,0,0,0,0,0,0,0,0,0,0,0,
0,0,0,0,0,0,0,0,0,0,0,0,0,0,0,0,0,0,0,0,0,0,0,0,0,0,0,0,0,0,0,0
</data>
 </layer>
 <layer id="7" name="Seeds" width="32" height="18">
  <data encoding="csv">
0,0,0,0,0,0,0,0,0,0,0,0,0,0,0,0,0,0,0,0,0,0,0,0,0,0,0,0,0,0,0,0,
0,0,0,0,0,0,0,0,0,0,0,0,0,0,0,0,0,0,0,0,0,0,0,0,0,0,0,0,0,0,0,0,
0,0,0,0,0,0,0,0,0,0,0,0,0,0,0,0,0,0,0,0,0,0,0,0,0,0,0,0,0,0,0,0,
0,0,0,0,0,0,0,0,0,0,0,0,0,0,0,0,0,0,0,0,0,0,0,0,0,0,0,0,0,0,0,0,
0,0,0,0,0,0,0,0,0,0,0,0,0,0,0,0,0,0,0,0,0,0,0,0,0,0,0,0,0,0,0,0,
0,0,0,0,0,0,0,0,0,0,0,0,0,0,0,0,0,0,0,0,0,0,0,0,0,0,0,0,0,0,0,0,
0,0,0,0,397,459,488,495,501,285,0,0,0,0,0,0,0,0,0,0,0,0,0,0,0,0,0,0,0,0,0,0,
0,0,0,0,399,460,488,495,501,281,0,0,0,0,0,0,0,0,0,0,0,0,0,0,0,0,0,0,0,0,0,0,
0,0,0,0,397,459,489,495,501,288,0,0,0,0,0,0,0,0,0,0,0,0,0,0,0,0,0,0,0,0,0,0,
0,0,0,0,397,459,488,497,501,285,0,0,0,0,0,0,0,0,0,0,0,0,0,0,0,0,0,0,0,0,0,0,
0,0,0,0,467,462,488,495,501,286,0,0,0,0,0,0,0,0,0,0,0,0,0,0,0,0,0,0,0,0,0,0,
0,0,0,0,397,459,490,495,501,285,0,0,0,0,0,0,0,0,0,0,0,0,0,0,0,0,0,0,0,0,0,0,
0,0,0,0,397,459,488,495,504,285,0,0,0,0,0,0,0,0,0,0,0,0,0,0,0,0,0,0,0,0,0,0,
0,0,0,0,0,0,0,0,0,0,0,0,0,0,0,0,0,0,0,0,0,0,0,0,0,0,0,0,0,0,0,0,
0,0,0,0,0,0,0,0,0,0,0,0,0,0,0,0,0,0,0,0,0,0,0,0,0,0,0,0,0,0,0,0,
0,0,0,0,0,0,0,0,0,0,0,0,0,0,0,0,0,0,0,0,0,0,0,0,0,0,0,0,0,0,0,0,
0,0,0,0,0,0,0,0,0,0,0,0,0,0,0,0,0,0,0,0,0,0,0,0,0,0,0,0,0,0,0,0,
0,0,0,0,0,0,0,0,0,0,0,0,0,0,0,0,0,0,0,0,0,0,0,0,0,0,0,0,0,0,0,0
</data>
 </layer>
 <layer id="3" name="OnFloor" width="32" height="18">
  <data encoding="csv">
0,0,0,0,0,0,0,0,0,0,0,0,0,0,0,0,0,0,0,0,0,0,0,0,0,0,0,0,0,0,0,0,
0,0,0,0,0,0,0,136,0,0,0,135,0,0,0,10,0,0,0,0,0,0,0,0,0,0,0,0,0,0,0,0,
0,0,134,0,0,0,0,0,0,0,0,0,0,0,0,10,0,0,0,0,0,0,134,0,0,0,0,0,0,0,0,0,
0,0,0,0,0,117,0,0,0,0,0,0,0,0,0,15,0,0,0,0,0,0,0,0,0,136,0,0,135,0,0,0,
0,0,0,127,0,0,0,0,0,0,0,0,118,0,0,595,0,0,0,0,0,0,0,0,0,0,0,0,0,0,0,0,
0,0,0,260,273,273,273,273,273,273,262,0,0,0,0,604,609,609,601,0,0,126,0,103,104,0,0,0,0,0,0,0,
0,0,0,263,0,0,0,0,0,0,263,0,0,0,0,0,0,0,604,609,609,601,0,0,0,118,0,0,0,0,0,0,
0,136,0,263,0,0,0,0,0,0,267,0,0,0,0,0,127,0,0,0,0,604,609,601,0,0,0,0,0,0,137,0,
0,0,0,263,0,0,0,0,0,0,0,0,0,0,0,0,0,0,0,0,0,0,0,604,609,601,0,0,0,0,0,0,
0,0,0,263,0,0,0,0,0,0,0,0,0,117,0,0,0,0,0,0,0,0,0,0,0,604,609,610,7,8,8,0,
0,0,0,263,0,0,0,0,0,0,0,0,0,0,0,0,547,548,549,550,551,552,0,127,0,0,0,0,0,0,0,0,
0,0,126,263,0,0,0,0,0,0,259,0,0,0,0,0,565,566,567,568,569,570,0,0,0,118,0,0,0,0,0,0,
0,137,0,263,0,0,0,0,0,0,263,0,127,0,0,0,583,584,585,586,587,588,0,0,0,0,0,0,0,0,136,0,
0,0,0,268,273,273,273,273,273,273,270,0,0,0,0,118,0,0,0,0,0,0,0,0,0,0,0,0,0,0,0,0,
0,0,0,0,0,0,0,118,0,0,126,0,0,0,0,0,0,0,0,0,126,0,0,0,117,0,0,0,0,0,0,0,
0,0,0,0,0,0,0,0,0,0,0,0,0,0,0,0,0,0,0,0,0,0,135,0,0,0,0,137,0,134,0,0,
0,135,0,0,0,0,0,134,0,0,0,0,0,0,0,0,0,137,0,0,0,0,0,0,0,0,0,0,0,0,0,0,
0,0,0,0,0,0,0,0,0,0,0,0,0,0,0,0,0,0,0,0,0,0,0,0,0,0,0,0,0,0,0,0
</data>
 </layer>
 <layer id="4" name="InFrontOfPlayer" width="32" height="18">
  <data encoding="csv">
0,0,0,0,0,0,0,0,0,0,0,0,0,0,0,0,0,0,0,0,0,0,0,0,0,0,0,0,0,0,0,0,
0,0,0,0,0,0,0,0,0,0,0,0,0,0,0,0,0,0,0,0,0,0,0,0,0,0,0,0,0,0,0,0,
0,0,0,0,0,0,0,0,0,0,0,0,0,0,0,0,0,0,0,0,0,0,0,0,0,0,0,0,0,0,0,0,
0,0,0,0,0,0,0,0,0,0,0,0,0,0,0,0,0,0,0,0,0,0,0,0,0,0,0,0,0,0,0,0,
0,0,0,0,0,0,0,0,0,0,0,0,0,0,0,0,0,0,0,0,0,0,0,94,95,0,0,0,0,0,0,0,
0,0,0,0,0,0,0,0,0,0,0,0,0,0,0,0,0,0,0,0,0,0,0,0,0,0,0,0,0,0,0,0,
0,0,0,0,0,0,0,0,0,0,0,0,0,0,0,0,0,0,0,0,0,0,0,0,0,0,0,0,0,0,0,0,
0,0,0,0,0,0,0,0,0,0,0,0,0,0,0,0,0,0,0,0,0,0,0,0,0,0,0,0,0,0,0,0,
0,0,0,0,0,0,0,0,0,0,0,0,0,0,0,0,511,512,513,514,515,516,0,0,0,0,0,0,0,0,0,0,
0,0,0,0,0,0,0,0,0,0,0,0,0,0,0,0,529,530,531,532,533,534,0,0,0,0,0,0,0,0,0,0,
0,0,0,0,0,0,0,0,0,0,0,0,0,0,0,0,0,0,0,0,0,0,0,0,0,0,0,0,0,0,0,0,
0,0,0,0,0,0,0,0,0,0,0,0,0,0,0,0,0,0,0,0,0,0,0,0,0,0,0,0,0,0,0,0,
0,0,0,0,0,0,0,0,0,0,0,0,0,0,0,0,0,0,0,0,0,0,0,0,0,0,0,0,0,0,0,0,
0,0,0,0,0,0,0,0,0,0,0,0,0,0,0,0,0,0,0,0,0,0,0,0,0,0,0,0,0,0,0,0,
0,0,0,0,0,0,0,0,0,0,0,0,0,0,0,0,0,0,0,0,0,0,0,0,0,0,0,0,0,0,0,0,
0,0,0,0,0,0,0,0,0,0,0,0,0,0,0,0,0,0,0,0,0,0,0,0,0,0,0,0,0,0,0,0,
0,0,0,0,0,0,0,0,0,0,0,0,0,0,0,0,0,0,0,0,0,0,0,0,0,0,0,0,0,0,0,0,
0,0,0,0,0,0,0,0,0,0,0,0,0,0,0,0,0,0,0,0,0,0,0,0,0,0,0,0,0,0,0,0
</data>
 </layer>
 <layer id="5" name="Collisions" width="32" height="18" visible="0">
  <data encoding="csv">
615,615,615,615,615,615,615,615,615,615,615,615,615,615,612,0,611,615,615,615,615,615,615,615,615,615,615,615,615,615,615,615,
615,615,615,615,615,615,615,615,615,615,615,615,615,615,612,0,611,615,615,615,615,615,615,615,615,615,615,615,615,615,615,615,
615,615,615,615,612,0,0,0,611,615,615,615,615,615,612,0,611,615,615,615,615,615,615,615,615,615,615,615,615,615,615,615,
615,615,615,612,0,0,0,0,0,0,0,0,0,0,0,0,0,0,611,615,615,615,615,615,615,615,615,615,615,615,615,615,
615,615,612,0,0,0,0,0,0,0,0,0,0,0,0,0,0,0,0,0,0,0,611,615,615,615,615,615,615,615,615,615,
615,615,612,632,626,626,626,626,626,626,631,0,0,0,0,0,0,0,0,0,0,0,0,611,612,0,0,611,615,615,615,615,
615,615,612,621,0,0,0,0,0,0,621,0,0,0,0,0,0,0,0,0,0,0,0,0,0,0,0,0,611,615,615,615,
615,615,612,621,0,0,0,0,0,0,625,0,0,0,0,0,0,0,0,0,0,0,0,0,0,0,0,0,611,615,615,615,
615,615,612,621,0,0,0,0,0,0,0,0,0,0,0,0,0,0,0,0,0,0,0,0,0,0,0,0,0,613,613,613,
615,615,612,621,0,0,0,0,0,0,0,0,0,0,0,0,0,614,614,614,614,0,0,0,0,0,0,0,0,0,0,0,
615,615,612,621,0,0,0,0,0,0,0,0,0,0,0,0,611,615,615,615,615,612,0,0,0,0,0,0,611,615,615,615,
615,615,612,621,0,0,0,0,0,0,624,0,0,0,0,0,611,615,615,615,615,612,0,0,0,0,0,0,636,615,615,615,
615,615,612,621,0,0,0,0,0,0,621,0,0,0,0,0,611,615,615,615,615,612,0,0,0,0,0,611,615,615,615,615,
615,615,612,634,626,626,626,626,626,626,633,0,0,0,0,0,0,0,0,0,0,0,0,0,0,0,614,636,615,615,615,615,
615,615,635,0,0,0,0,0,0,0,0,0,0,0,0,0,0,0,0,0,0,614,614,614,614,636,615,615,615,615,615,615,
615,615,615,635,614,614,614,614,614,614,614,614,614,614,614,614,614,614,614,614,636,615,615,615,615,615,615,615,615,615,615,615,
615,615,615,615,615,615,615,615,615,615,615,615,615,615,615,615,615,615,615,615,615,615,615,615,615,615,615,615,615,615,615,615,
615,615,615,615,615,615,615,615,615,615,615,615,615,615,615,615,615,615,615,615,615,615,615,615,615,615,615,615,615,615,615,615
</data>
 </layer>
</map>
