<?xml version="1.0" encoding="UTF-8"?>
<map version="1.10" tiledversion="1.12.2" orientation="orthogonal" renderorder="right-down" width="32" height="18" tilewidth="16" tileheight="16" infinite="0" nextlayerid="8" nextobjectid="1">
 <editorsettings>
  <export target="fontaneilles.json" format="json"/>
 </editorsettings>
 <tileset firstgid="1" source="../tilesets/Water.tsx"/>
 <tileset firstgid="5" source="../tilesets/Wood Bridge.tsx"/>
 <tileset firstgid="20" source="../tilesets/Grass.tsx"/>
 <tileset firstgid="97" source="../tilesets/collisions.tsx"/>
 <tileset firstgid="129" source="street_workout_8x8_tiles_33_percent_smaller.tsx"/>
 <tileset firstgid="193" source="street_workout_8x8_tiles_crisp.tsx"/>
 <tileset firstgid="257" source="../tilesets/street_workout.tsx"/>
 <tileset firstgid="321" source="../tilesets/Chikcen_Houses.tsx"/>
 <tileset firstgid="585" source="../tilesets/Tilled Dirt.tsx"/>
 <tileset firstgid="649" source="../tilesets/Basic_Grass_Biom_things.tsx"/>
 <tileset firstgid="694" source="../tilesets/Mailbox Animation Frames.tsx"/>
 <tileset firstgid="925" source="../tilesets/Stone_Path.tsx"/>
 <layer id="1" name="Water" width="32" height="18">
  <data encoding="csv">
0,0,0,0,0,0,0,0,0,0,0,0,0,0,0,0,0,0,0,0,0,0,0,0,0,0,0,0,0,0,0,0,
0,2,3,4,1,2,3,4,1,2,3,4,1,2,3,4,1,2,3,4,1,2,3,4,1,2,3,4,1,2,3,0,
0,2,3,4,1,2,3,4,1,2,3,4,1,2,3,4,1,2,3,4,1,2,3,4,1,2,3,4,1,2,3,0,
0,2,3,4,1,2,3,4,1,2,3,4,1,2,3,4,1,2,3,4,1,2,3,4,1,2,3,4,1,2,3,0,
0,2,3,4,1,2,3,4,1,2,3,4,1,2,3,4,1,2,3,4,1,2,3,4,1,2,3,4,1,2,3,0,
0,2,3,4,1,2,3,4,1,2,3,4,1,2,3,4,1,2,3,4,1,2,3,4,1,2,3,4,1,2,3,0,
0,2,3,4,1,2,3,4,1,2,3,4,1,2,3,4,1,2,3,4,1,2,3,4,1,2,3,4,1,2,3,0,
0,2,3,4,1,2,3,4,1,2,3,4,1,2,3,4,1,2,3,4,1,2,3,4,1,2,3,4,1,2,3,0,
0,2,3,4,1,2,3,4,1,2,3,4,1,2,3,4,1,2,3,4,1,2,3,4,1,2,3,4,1,2,3,0,
0,2,3,4,1,2,3,4,1,2,3,4,1,2,3,4,1,2,3,4,1,2,3,4,1,2,3,4,1,2,3,0,
0,2,3,4,1,2,3,4,1,2,3,4,1,2,3,4,1,2,3,4,1,2,3,4,1,2,3,4,1,2,3,0,
0,2,3,4,1,2,3,4,1,2,3,4,1,2,3,4,1,2,3,4,1,2,3,4,1,2,3,4,1,2,3,0,
0,2,3,4,1,2,3,4,1,2,3,4,1,2,3,4,1,2,3,4,1,2,3,4,1,2,3,4,1,2,3,0,
0,2,3,4,1,2,3,4,1,2,3,4,1,2,3,4,1,2,3,4,1,2,3,4,1,2,3,4,1,2,3,0,
0,2,3,4,1,2,3,4,1,2,3,4,1,2,3,4,1,2,3,4,1,2,3,4,1,2,3,4,1,2,3,0,
0,2,3,4,1,2,3,4,1,2,3,4,1,2,3,4,1,2,3,4,1,2,3,4,1,2,3,4,1,2,3,0,
0,2,3,4,1,2,3,4,1,2,3,4,1,2,3,4,1,2,3,4,1,2,3,4,1,2,3,4,1,2,3,0,
0,0,0,0,0,0,0,0,0,0,0,0,0,0,0,0,0,0,0,0,0,0,0,0,0,0,0,0,0,0,0,0
</data>
 </layer>
 <layer id="2" name="Floor" width="32" height="18">
  <data encoding="csv">
0,0,0,0,0,0,0,0,0,0,0,0,0,0,0,0,0,0,0,0,0,0,0,0,0,0,0,0,0,0,0,0,
0,0,0,0,0,0,0,0,0,0,0,0,0,0,0,0,0,0,0,0,0,0,0,0,0,0,0,0,0,0,0,0,
0,0,0,0,0,20,21,21,21,21,21,21,21,21,21,21,21,21,21,21,21,21,21,21,21,21,22,0,0,0,0,0,
0,0,0,0,20,48,32,32,32,32,32,32,32,32,75,32,32,32,32,32,32,32,32,32,32,32,47,22,0,0,0,0,
0,0,0,0,31,32,86,32,32,32,32,32,32,32,32,32,32,32,32,32,32,32,32,32,32,86,32,47,22,0,0,0,
0,0,0,20,48,32,32,32,75,32,32,32,32,32,32,32,32,86,32,32,32,75,32,32,32,32,32,32,47,22,0,0,
0,0,0,31,32,32,32,32,32,32,32,32,32,32,75,32,32,32,32,32,32,32,32,32,32,32,32,32,32,33,0,0,
0,0,0,31,32,32,32,32,32,32,86,32,32,32,32,32,32,32,32,32,32,32,32,32,32,32,75,32,32,33,0,0,
0,0,0,31,32,32,32,32,32,32,32,32,32,32,86,32,32,32,32,32,32,86,32,32,32,32,32,32,32,33,0,0,
0,0,0,31,32,86,32,32,32,32,32,32,32,32,32,32,32,75,32,32,32,32,32,32,32,32,32,32,32,33,0,0,
0,0,0,31,32,32,32,75,32,32,32,32,75,32,32,32,32,32,32,32,32,32,32,32,75,32,32,32,32,33,0,0,
0,0,0,42,43,37,32,32,32,32,86,32,32,32,32,32,32,32,32,32,32,32,32,32,32,32,32,86,32,33,0,0,
0,0,0,0,0,42,43,43,37,32,32,32,32,32,32,32,75,32,32,32,32,32,32,32,32,32,32,32,36,44,0,0,
0,0,0,0,0,0,0,0,42,43,43,37,32,86,32,32,32,32,32,32,32,32,32,32,32,36,43,43,44,0,0,0,
0,0,0,0,0,0,0,0,0,0,0,42,43,43,43,43,43,43,43,43,43,43,43,43,43,44,0,0,0,0,0,0,
0,0,0,0,0,0,0,0,0,0,0,0,0,0,0,0,0,0,0,0,0,0,0,0,0,0,0,0,0,0,0,0,
0,0,0,0,0,0,0,0,0,0,0,0,0,0,0,0,0,0,0,0,0,0,0,0,0,0,0,0,0,0,0,0,
0,0,0,0,0,0,0,0,0,0,0,0,0,0,0,0,0,0,0,0,0,0,0,0,0,0,0,0,0,0,0,0
</data>
 </layer>
 <layer id="6" name="DirtFloor" width="32" height="18">
  <data encoding="csv">
0,0,0,0,0,0,0,0,0,0,0,0,0,0,0,0,0,0,0,0,0,0,0,0,0,0,0,0,0,0,0,0,
0,0,0,0,0,0,0,0,0,0,0,0,0,0,0,0,0,0,0,0,0,0,0,0,0,0,0,0,0,0,0,0,
0,0,0,0,0,0,0,0,0,0,0,0,0,0,0,0,0,0,0,0,610,611,611,611,611,612,0,0,0,0,0,0,
0,0,0,0,0,0,0,0,0,0,0,0,0,0,0,0,0,0,0,0,618,619,619,587,619,613,611,612,0,0,0,0,
0,0,0,0,0,0,0,0,0,0,0,0,0,0,0,0,0,0,0,0,618,619,619,619,619,595,619,613,612,0,0,0,
0,0,0,0,0,0,0,0,0,0,0,0,0,0,0,0,0,0,0,0,618,619,595,619,619,619,587,619,620,0,0,0,
0,0,0,0,0,0,0,0,0,0,0,0,0,0,0,0,0,0,0,0,626,606,619,587,619,619,619,619,613,612,0,0,
0,0,0,0,0,0,0,0,0,0,0,0,0,0,0,0,0,0,0,0,0,626,606,619,619,595,619,619,587,620,0,0,
0,0,0,0,0,0,0,0,0,0,0,0,0,0,0,0,0,0,0,0,0,0,626,627,627,627,627,627,627,628,0,0,
0,0,0,0,0,0,0,0,0,0,0,0,0,0,0,0,0,0,0,0,0,0,0,0,0,0,0,0,0,0,0,0,
0,0,0,0,0,0,0,0,0,0,0,0,0,0,0,0,0,0,0,0,0,0,0,0,0,0,0,0,0,0,0,0,
0,0,0,0,0,0,0,0,0,0,0,0,0,0,0,0,0,0,0,0,0,0,0,0,0,0,0,0,0,0,0,0,
0,0,0,0,0,0,0,0,0,0,0,0,0,0,0,0,0,0,0,0,0,0,0,0,0,0,0,0,0,0,0,0,
0,0,0,0,0,0,0,0,0,0,0,0,0,0,0,0,0,0,0,0,0,0,0,0,0,0,0,0,0,0,0,0,
0,0,0,0,0,0,0,0,0,0,0,0,0,0,0,0,0,0,0,0,0,0,0,0,0,0,0,0,0,0,0,0,
0,0,0,0,0,0,0,0,0,0,0,0,0,0,0,0,0,0,0,0,0,0,0,0,0,0,0,0,0,0,0,0,
0,0,0,0,0,0,0,0,0,0,0,0,0,0,0,0,0,0,0,0,0,0,0,0,0,0,0,0,0,0,0,0,
0,0,0,0,0,0,0,0,0,0,0,0,0,0,0,0,0,0,0,0,0,0,0,0,0,0,0,0,0,0,0,0
</data>
 </layer>
 <layer id="3" name="OnFloor" width="32" height="18">
  <data encoding="csv">
0,0,0,0,0,0,0,0,0,0,0,0,0,0,0,0,0,0,0,0,0,0,0,0,0,0,0,0,0,0,0,0,
0,0,0,692,0,0,0,0,0,691,0,0,0,0,0,0,0,0,693,0,0,0,0,0,0,692,0,0,0,0,0,0,
0,690,0,0,0,0,0,0,0,0,0,0,0,0,0,0,0,0,0,682,677,0,0,0,0,0,0,0,690,0,0,0,
0,0,0,0,0,0,0,0,0,0,385,386,387,388,0,0,0,0,682,0,677,0,0,0,0,297,298,299,0,0,691,0,
0,0,0,0,0,369,370,371,372,674,409,410,411,412,673,377,378,379,380,0,677,281,282,283,0,305,306,307,0,0,0,0,
0,0,693,682,0,393,394,395,396,0,433,434,435,436,0,401,402,403,404,0,676,0,0,0,0,313,314,315,0,682,0,0,
0,0,0,0,0,417,418,419,420,0,0,925,0,0,0,425,426,427,428,0,0,676,0,0,0,0,261,262,263,0,0,0,
0,0,0,0,0,0,0,683,0,0,930,935,0,673,0,0,0,0,0,0,674,0,677,0,0,0,269,270,271,0,693,0,
0,0,0,0,0,0,0,0,0,930,935,0,0,0,0,0,930,939,939,939,939,939,939,931,0,0,677,676,677,676,0,0,
0,8,8,9,938,939,939,939,939,931,0,0,0,0,683,930,935,0,0,0,0,0,0,934,939,939,939,939,940,7,8,0,
0,0,0,0,0,0,0,0,0,934,939,931,0,0,930,935,0,0,0,0,0,0,0,0,0,0,0,0,0,0,0,0,
0,0,0,0,0,0,0,683,0,0,0,934,939,939,931,0,0,659,660,0,658,659,660,0,0,0,0,0,0,0,0,0,
0,0,0,0,0,682,0,0,0,0,673,0,0,0,934,931,0,0,658,0,659,660,0,0,0,658,659,660,658,0,692,0,
0,0,0,690,0,0,0,0,0,0,0,0,0,0,0,933,659,660,0,658,0,659,660,659,660,0,0,0,0,0,0,0,
0,0,0,0,0,0,691,0,0,0,0,0,0,0,0,5,0,0,0,0,0,0,0,0,0,0,0,0,0,0,0,0,
0,0,693,0,0,0,0,0,0,0,692,0,0,0,0,10,0,0,0,0,0,691,0,0,0,0,0,0,690,0,0,0,
0,0,0,0,0,0,0,0,0,0,0,0,0,0,0,10,0,0,692,0,0,0,0,0,0,693,0,0,0,0,0,0,
0,0,0,0,0,0,0,0,0,0,0,0,0,0,0,0,0,0,0,0,0,0,0,0,0,0,0,0,0,0,0,0
</data>
 </layer>
 <layer id="7" name="MailBox" width="32" height="18">
  <data encoding="csv">
0,0,0,0,0,0,0,0,0,0,0,0,0,0,0,0,0,0,0,0,0,0,0,0,0,0,0,0,0,0,0,0,
0,0,0,0,0,0,0,0,0,0,0,0,0,0,0,0,0,0,0,0,0,0,0,0,0,0,0,0,0,0,0,0,
0,0,0,0,0,0,0,0,0,0,0,0,0,0,0,0,0,0,0,0,0,0,0,0,0,0,0,0,0,0,0,0,
0,0,0,0,0,0,0,0,0,0,0,0,0,0,0,0,0,0,0,0,0,0,0,0,0,0,0,0,0,0,0,0,
0,0,0,0,0,0,0,0,0,0,0,0,0,705,706,0,0,0,0,0,0,0,0,0,0,0,0,0,0,0,0,0,
0,0,0,0,0,0,0,0,705,706,0,0,0,716,717,0,0,0,705,706,0,0,0,0,0,0,0,0,0,0,0,0,
0,0,0,0,0,0,0,0,716,717,0,0,0,0,0,0,0,0,716,717,0,0,0,0,0,0,0,0,0,0,0,0,
0,0,0,0,0,0,0,0,0,0,0,0,0,0,0,0,0,0,0,0,0,0,0,0,0,0,0,0,0,0,0,0,
0,0,0,0,0,0,0,0,0,0,0,0,0,0,0,0,0,0,0,0,0,0,0,0,0,0,0,0,0,0,0,0,
0,0,0,0,0,0,0,0,0,0,0,0,0,0,0,0,0,0,0,0,0,0,0,0,0,0,0,0,0,0,0,0,
0,0,0,0,0,0,0,0,0,0,0,0,0,0,0,0,0,0,0,0,0,0,0,0,0,0,0,0,0,0,0,0,
0,0,0,0,0,0,0,0,0,0,0,0,0,0,0,0,0,0,0,0,0,0,0,0,0,0,0,0,0,0,0,0,
0,0,0,0,0,0,0,0,0,0,0,0,0,0,0,0,0,0,0,0,0,0,0,0,0,0,0,0,0,0,0,0,
0,0,0,0,0,0,0,0,0,0,0,0,0,0,0,0,0,0,0,0,0,0,0,0,0,0,0,0,0,0,0,0,
0,0,0,0,0,0,0,0,0,0,0,0,0,0,0,0,0,0,0,0,0,0,0,0,0,0,0,0,0,0,0,0,
0,0,0,0,0,0,0,0,0,0,0,0,0,0,0,0,0,0,0,0,0,0,0,0,0,0,0,0,0,0,0,0,
0,0,0,0,0,0,0,0,0,0,0,0,0,0,0,0,0,0,0,0,0,0,0,0,0,0,0,0,0,0,0,0,
0,0,0,0,0,0,0,0,0,0,0,0,0,0,0,0,0,0,0,0,0,0,0,0,0,0,0,0,0,0,0,0
</data>
 </layer>
 <layer id="4" name="InFrontOfPlayer" width="32" height="18">
  <data encoding="csv">
0,0,0,0,0,0,0,0,0,0,0,0,0,0,0,0,0,0,0,0,0,0,0,0,0,0,0,0,0,0,0,0,
0,0,0,0,0,0,0,0,0,0,337,338,339,340,0,0,0,0,0,0,0,0,0,0,0,0,0,0,0,0,0,0,
0,0,0,0,0,321,322,323,324,0,361,362,363,364,0,329,330,331,332,0,0,265,266,267,0,0,0,0,0,0,0,0,
0,0,0,0,0,345,346,347,348,0,0,0,0,0,0,353,354,355,356,0,0,273,274,275,0,0,0,0,0,0,0,0,
0,0,0,0,0,0,0,0,0,0,0,0,0,0,0,0,0,0,0,0,0,0,0,0,0,0,0,0,0,0,0,0,
0,0,0,0,0,0,0,0,0,0,0,0,0,0,0,0,0,0,0,0,0,0,0,0,0,0,0,0,0,0,0,0,
0,0,0,0,0,0,0,0,0,0,0,0,0,0,0,0,0,0,0,0,0,0,0,0,0,0,0,0,0,0,0,0,
0,0,0,0,0,0,0,0,0,0,0,0,0,0,0,0,0,0,0,0,0,0,0,0,0,0,0,0,0,0,0,0,
0,0,0,0,0,0,0,0,0,0,0,0,0,0,0,0,0,0,0,0,0,0,0,0,0,0,0,0,0,0,0,0,
0,0,0,0,0,0,0,0,0,0,0,0,0,0,0,0,0,0,0,0,0,0,0,0,0,0,0,0,0,0,0,0,
0,0,0,0,0,0,0,0,0,0,0,0,0,0,0,0,0,650,651,0,649,650,651,0,0,0,0,0,0,0,0,0,
0,0,0,0,0,0,0,0,0,0,0,0,0,0,0,0,0,0,649,0,650,651,0,0,0,649,650,651,649,0,0,0,
0,0,0,0,0,0,0,0,0,0,0,0,0,0,0,0,650,651,0,649,0,650,651,650,651,0,0,0,0,0,0,0,
0,0,0,0,0,0,0,0,0,0,0,0,0,0,0,0,0,0,0,0,0,0,0,0,0,0,0,0,0,0,0,0,
0,0,0,0,0,0,0,0,0,0,0,0,0,0,0,0,0,0,0,0,0,0,0,0,0,0,0,0,0,0,0,0,
0,0,0,0,0,0,0,0,0,0,0,0,0,0,0,0,0,0,0,0,0,0,0,0,0,0,0,0,0,0,0,0,
0,0,0,0,0,0,0,0,0,0,0,0,0,0,0,0,0,0,0,0,0,0,0,0,0,0,0,0,0,0,0,0,
0,0,0,0,0,0,0,0,0,0,0,0,0,0,0,0,0,0,0,0,0,0,0,0,0,0,0,0,0,0,0,0
</data>
 </layer>
 <layer id="5" name="Collisions" width="32" height="18" visible="0">
  <data encoding="csv">
101,101,101,101,101,101,101,101,101,101,101,101,101,101,101,101,101,101,101,101,101,101,101,101,101,101,101,101,101,101,101,101,
101,101,101,101,101,101,101,101,101,101,101,101,101,101,101,101,101,101,101,101,101,101,101,101,101,101,101,101,101,101,101,101,
101,101,101,101,101,98,0,0,0,0,0,0,0,0,0,0,0,0,0,0,101,0,0,0,0,0,97,101,101,101,101,101,
101,101,101,101,98,0,0,0,0,0,97,101,101,98,0,0,0,0,0,0,101,0,0,0,0,0,0,97,101,101,101,101,
101,101,101,101,98,97,101,101,98,0,97,101,101,98,0,97,101,101,98,0,101,97,0,98,0,97,101,98,97,101,101,101,
101,101,101,98,0,97,101,101,98,0,0,0,0,97,0,97,101,101,98,0,101,0,0,0,0,0,0,0,0,97,101,101,
101,101,101,98,0,0,0,0,97,0,0,0,0,0,0,0,0,0,97,0,0,101,0,0,0,0,100,0,100,97,101,101,
101,101,101,98,0,0,0,0,0,0,0,0,0,0,0,0,0,0,0,0,0,0,101,0,0,0,99,0,99,97,101,101,
101,101,101,98,0,0,0,0,0,0,0,0,0,0,0,0,0,0,0,0,0,0,0,0,0,0,101,101,101,101,101,101,
0,0,0,0,0,0,0,0,0,0,0,0,0,0,0,0,0,0,0,0,0,0,0,0,0,0,0,0,0,0,0,0,
101,101,101,98,0,0,0,0,0,0,0,0,0,0,0,0,0,0,0,0,0,0,0,0,0,0,0,0,0,97,101,101,
101,101,101,121,100,0,0,0,0,0,0,0,0,0,0,0,0,97,98,0,111,97,98,0,0,0,0,0,0,97,101,101,
101,101,101,101,101,121,100,100,0,0,0,0,0,0,0,0,0,0,111,0,97,98,0,0,0,111,97,98,111,122,101,101,
101,101,101,101,101,101,101,101,121,100,100,0,0,0,0,0,97,98,0,111,0,97,98,97,98,0,100,100,122,101,101,101,
101,101,101,101,101,101,101,101,101,101,101,121,100,100,100,0,100,100,100,100,100,100,100,100,100,122,101,101,101,101,101,101,
101,101,101,101,101,101,101,101,101,101,101,101,101,101,101,0,101,101,101,101,101,101,101,101,101,101,101,101,101,101,101,101,
101,101,101,101,101,101,101,101,101,101,101,101,101,101,101,0,101,101,101,101,101,101,101,101,101,101,101,101,101,101,101,101,
101,101,101,101,101,101,101,101,101,101,101,101,101,101,101,0,101,101,101,101,101,101,101,101,101,101,101,101,101,101,101,101
</data>
 </layer>
</map>
