<?xml version="1.0" encoding="UTF-8"?>
<map version="1.10" tiledversion="1.12.2" orientation="orthogonal" renderorder="right-down" width="32" height="18" tilewidth="16" tileheight="16" infinite="0" nextlayerid="6" nextobjectid="1">
 <editorsettings>
  <export target="jardin.json" format="json"/>
 </editorsettings>
 <tileset firstgid="1" source="../tilesets/Water.tsx"/>
 <tileset firstgid="5" source="../tilesets/Wood Bridge.tsx"/>
 <tileset firstgid="20" source="../tilesets/Grass.tsx"/>
 <tileset firstgid="97" source="../tilesets/Basic_Grass_Biom_things.tsx"/>
 <tileset firstgid="142" source="../tilesets/Fences.tsx"/>
 <tileset firstgid="158" source="../tilesets/small_huts.tsx"/>
 <tileset firstgid="302" source="../tilesets/Barn structures.tsx"/>
 <tileset firstgid="314" source="../tilesets/Tools.tsx"/>
 <tileset firstgid="350" source="../tilesets/Paths.tsx"/>
 <tileset firstgid="366" source="../tilesets/Farming Plants v2 watered.tsx"/>
 <tileset firstgid="597" source="../tilesets/collisions.tsx"/>
 <layer id="1" name="Water" width="32" height="18">
  <data encoding="csv">
0,0,0,0,0,0,0,0,0,0,0,0,0,0,0,0,0,0,0,0,0,0,0,0,0,0,0,0,0,0,0,0,
0,2,3,4,1,2,3,4,1,2,3,4,1,2,3,4,1,2,3,4,1,2,3,4,1,2,3,4,1,2,3,0,
0,2,3,4,1,2,3,4,1,2,3,4,1,2,3,4,1,2,3,4,1,2,3,4,1,2,3,4,1,2,3,0,
0,2,3,4,1,2,3,4,1,2,3,4,1,2,3,4,1,2,3,4,1,2,3,4,1,2,3,4,1,2,3,0,
0,2,3,4,1,2,3,4,1,2,3,4,1,2,3,4,1,2,3,4,1,2,3,4,1,2,3,4,1,2,3,0,
0,2,3,4,1,2,3,4,1,2,3,4,1,2,3,4,1,2,3,4,1,2,3,4,1,2,3,4,1,2,3,0,
0,2,3,4,1,2,3,4,1,2,3,4,1,2,3,4,1,2,3,4,1,2,3,4,1,2,3,4,1,2,3,0,
0,2,3,4,1,2,3,4,1,2,3,4,1,2,3,4,1,2,3,4,1,2,3,4,1,2,3,4,1,2,3,0,
0,2,3,4,1,2,3,4,1,2,3,4,1,2,3,4,1,2,3,4,1,2,3,4,1,2,3,4,1,2,3,0,
0,2,3,4,1,2,3,4,1,2,3,4,1,2,3,4,1,2,3,4,1,2,3,4,1,2,3,4,1,2,3,0,
0,2,3,4,1,2,3,4,1,2,3,4,1,2,3,4,1,2,3,4,1,2,3,4,1,2,3,4,1,2,3,0,
0,2,3,4,1,2,3,4,1,2,3,4,1,2,3,4,1,2,3,4,1,2,3,4,1,2,3,4,1,2,3,0,
0,2,3,4,1,2,3,4,1,2,3,4,1,2,3,4,1,2,3,4,1,2,3,4,1,2,3,4,1,2,3,0,
0,2,3,4,1,2,3,4,1,2,3,4,1,2,3,4,1,2,3,4,1,2,3,4,1,2,3,4,1,2,3,0,
0,2,3,4,1,2,3,4,1,2,3,4,1,2,3,4,1,2,3,4,1,2,3,4,1,2,3,4,1,2,3,0,
0,2,3,4,1,2,3,4,1,2,3,4,1,2,3,4,1,2,3,4,1,2,3,4,1,2,3,4,1,2,3,0,
0,2,3,4,1,2,3,4,1,2,3,4,1,2,3,4,1,2,3,4,1,2,3,4,1,2,3,4,1,2,3,0,
0,0,0,0,0,0,0,0,0,0,0,0,0,0,0,0,0,0,0,0,0,0,0,0,0,0,0,0,0,0,0,0
</data>
 </layer>
 <layer id="2" name="Floor" width="32" height="18">
  <data encoding="csv">
0,0,0,0,0,0,0,0,0,0,0,0,0,0,0,0,0,0,0,0,0,0,0,0,0,0,0,0,0,0,0,0,
0,0,0,0,0,0,0,0,0,0,0,0,0,0,0,0,0,0,0,0,0,0,0,0,0,0,0,0,0,0,0,0,
0,0,0,0,0,0,0,0,0,0,0,0,0,0,0,0,0,0,0,0,0,0,0,0,0,0,0,0,0,0,0,0,
0,0,0,0,0,0,0,0,0,0,20,21,21,21,21,21,21,21,21,21,21,21,22,0,0,0,0,0,0,0,0,0,
0,0,0,0,20,21,21,21,21,21,48,32,32,32,32,32,32,32,32,32,32,32,47,21,21,21,21,22,0,0,0,0,
0,0,0,20,48,32,32,32,32,32,86,32,32,32,32,32,32,32,32,32,86,32,32,32,32,32,32,47,22,0,0,0,
0,0,0,31,32,32,32,75,32,32,32,32,32,32,32,32,86,32,32,32,32,32,32,32,32,32,32,32,33,0,0,0,
0,0,0,31,32,32,32,32,32,32,32,32,32,32,32,32,32,32,32,32,32,32,32,32,75,32,32,32,47,22,0,0,
0,0,0,31,32,32,32,32,32,32,32,32,75,32,32,32,32,32,75,32,32,32,32,32,32,32,32,32,32,33,0,0,
0,0,0,31,32,32,32,75,32,32,32,32,32,32,32,32,32,32,32,32,86,32,32,32,32,32,32,86,32,33,0,0,
0,0,0,31,32,32,32,32,32,32,32,32,32,32,32,86,32,32,32,32,32,32,32,32,32,32,32,32,32,33,0,0,
0,0,0,42,37,32,32,32,32,32,32,86,32,32,32,32,32,32,32,32,32,32,32,32,32,75,32,32,32,33,0,0,
0,0,0,0,31,32,86,32,32,32,32,32,32,32,32,32,32,32,75,32,32,32,32,32,32,32,32,32,32,33,0,0,
0,0,0,0,42,37,32,32,32,32,32,75,32,32,32,32,32,32,32,32,32,32,86,32,32,32,32,32,32,33,0,0,
0,0,0,0,0,31,32,32,32,32,32,32,32,32,32,32,32,32,32,32,32,32,32,32,32,32,32,32,32,33,0,0,
0,0,0,0,0,42,43,43,43,43,43,43,43,43,43,43,43,43,43,43,43,43,43,43,43,43,43,43,43,44,0,0,
0,0,0,0,0,0,0,0,0,0,0,0,0,0,0,0,0,0,0,0,0,0,0,0,0,0,0,0,0,0,0,0,
0,0,0,0,0,0,0,0,0,0,0,0,0,0,0,0,0,0,0,0,0,0,0,0,0,0,0,0,0,0,0,0
</data>
 </layer>
 <layer id="3" name="OnFloor" width="32" height="18">
  <data encoding="csv">
0,0,0,0,0,0,0,0,0,0,0,0,0,0,0,0,0,0,0,0,0,0,0,0,0,0,0,0,0,0,0,0,
0,0,0,0,0,0,0,0,0,0,0,0,0,0,0,10,0,0,140,0,0,0,141,0,0,139,0,0,0,0,0,0,
0,0,0,0,0,0,139,0,0,0,140,0,0,0,0,10,0,0,0,0,0,0,0,0,0,0,0,0,138,0,0,0,
0,0,138,0,0,0,0,0,141,0,0,0,0,0,0,15,0,0,0,0,0,0,0,0,0,140,0,0,0,0,0,0,
0,0,0,0,0,0,0,0,0,0,0,0,124,350,0,350,0,111,112,0,0,0,0,0,0,0,338,0,0,0,0,0,
0,0,0,0,0,0,0,0,0,0,0,124,355,360,0,359,364,364,364,364,364,364,356,0,0,135,136,137,0,0,0,0,
0,0,0,0,0,0,0,132,132,132,0,0,354,124,0,0,0,0,0,0,0,0,359,356,0,0,0,0,0,0,0,0,
0,139,0,378,0,0,355,364,364,364,356,0,359,364,364,364,364,364,356,0,105,104,0,354,0,0,0,0,0,0,0,0,
0,0,0,0,379,0,354,131,130,131,354,0,0,122,121,122,121,122,354,0,0,105,0,354,0,0,0,0,0,0,0,0,
0,0,0,379,0,0,354,0,0,0,359,364,364,364,364,364,364,364,360,0,0,0,355,360,0,0,182,183,184,185,140,0,
0,140,0,0,379,0,354,0,0,0,0,0,0,0,0,0,0,0,0,0,0,355,360,0,143,157,194,195,196,197,0,0,
0,0,0,0,0,0,359,356,0,124,124,0,0,427,426,427,0,0,111,112,0,354,0,0,142,302,0,0,0,0,0,0,
0,0,0,0,379,0,0,359,356,0,0,0,355,364,364,364,356,0,0,112,0,354,0,0,146,305,0,0,0,0,0,0,
0,0,0,0,0,0,0,0,354,102,103,102,354,425,425,427,359,364,364,364,364,360,0,0,146,312,0,0,314,0,0,0,
0,0,0,141,0,0,0,0,359,364,364,364,360,0,0,0,0,0,385,385,384,385,0,0,146,0,0,0,303,304,0,0,
0,0,0,0,0,0,0,0,0,0,0,0,0,0,0,0,0,0,0,0,0,0,0,0,150,0,0,0,306,307,0,0,
0,138,0,0,0,0,0,0,0,140,0,0,139,0,0,0,141,0,0,0,0,0,138,0,0,0,0,0,140,0,0,0,
0,0,0,0,0,0,0,0,0,0,0,0,0,0,0,0,0,0,0,0,0,0,0,0,0,0,0,0,0,0,0,0
</data>
 </layer>
 <layer id="4" name="InFrontOfPlayer" width="32" height="18">
  <data encoding="csv">
0,0,0,0,0,0,0,0,0,0,0,0,0,0,0,0,0,0,0,0,0,0,0,0,0,0,0,0,0,0,0,0,
0,0,0,0,0,0,0,0,0,0,0,0,0,0,0,0,0,0,0,0,0,0,0,0,0,0,0,0,0,0,0,0,
0,0,0,0,0,0,0,0,0,0,0,0,0,0,0,0,0,0,0,0,0,0,0,0,0,0,0,0,0,0,0,0,
0,0,0,0,0,0,0,0,0,0,0,0,0,0,0,0,0,0,0,0,0,0,0,0,0,0,0,0,0,0,0,0,
0,0,0,0,0,0,0,0,0,0,0,0,0,0,0,0,0,0,0,0,0,0,0,0,0,0,0,0,0,0,0,0,
0,0,0,0,0,0,0,123,123,123,0,0,0,0,0,0,0,0,0,0,0,0,0,0,0,0,0,0,0,0,0,0,
0,0,0,371,0,0,0,0,0,0,0,0,0,0,0,0,0,0,0,0,0,0,0,0,0,0,0,0,0,0,0,0,
0,0,0,0,372,0,0,0,0,0,0,0,0,0,0,0,0,0,0,0,0,0,0,0,0,0,158,159,160,161,0,0,
0,0,0,372,0,0,0,0,0,0,0,0,0,0,0,0,0,0,0,0,0,0,0,0,0,0,170,171,172,173,0,0,
0,0,0,0,372,0,0,0,0,0,0,0,0,0,0,0,0,0,0,0,0,0,0,0,0,0,0,0,0,0,0,0,
0,0,0,0,0,0,0,0,0,0,0,0,0,0,0,0,0,0,0,0,0,0,0,0,0,0,0,0,0,0,0,0,
0,0,0,0,372,0,0,0,0,0,0,0,0,0,0,0,0,0,0,0,0,0,0,0,0,0,0,0,0,0,0,0,
0,0,0,0,0,0,0,0,0,0,0,0,0,0,0,0,0,0,0,0,0,0,0,0,0,0,0,0,0,0,0,0,
0,0,0,0,0,0,0,0,0,0,0,0,0,0,0,0,0,0,0,0,0,0,0,0,0,0,0,0,0,0,0,0,
0,0,0,0,0,0,0,0,0,0,0,0,0,0,0,0,0,0,0,0,0,0,0,0,0,0,0,0,0,0,0,0,
0,0,0,0,0,0,0,0,0,0,0,0,0,0,0,0,0,0,0,0,0,0,0,0,0,0,0,0,0,0,0,0,
0,0,0,0,0,0,0,0,0,0,0,0,0,0,0,0,0,0,0,0,0,0,0,0,0,0,0,0,0,0,0,0,
0,0,0,0,0,0,0,0,0,0,0,0,0,0,0,0,0,0,0,0,0,0,0,0,0,0,0,0,0,0,0,0
</data>
 </layer>
 <layer id="5" name="Collisions" width="32" height="18" visible="0">
  <data encoding="csv">
601,601,601,601,601,601,601,601,601,601,601,601,601,601,601,0,601,601,601,601,601,601,601,601,601,601,601,601,601,601,601,601,
601,601,601,601,601,601,601,601,601,601,601,601,601,601,601,0,601,601,601,601,601,601,601,601,601,601,601,601,601,601,601,601,
601,601,601,601,601,601,601,601,601,601,601,601,601,601,601,0,601,601,601,601,601,601,601,601,601,601,601,601,601,601,601,601,
601,601,601,601,601,601,601,601,601,601,598,0,0,0,0,0,0,0,0,0,0,0,597,601,601,601,601,601,601,601,601,601,
601,601,601,601,598,0,0,0,0,0,0,0,601,0,0,0,0,0,0,0,0,0,0,0,0,0,0,597,601,601,601,601,
601,601,601,598,0,0,0,0,0,0,0,601,0,0,0,0,0,0,0,0,0,0,0,0,0,601,601,598,597,601,601,601,
601,601,601,601,0,0,0,601,601,601,0,0,0,601,0,0,0,0,0,0,0,0,0,0,0,0,0,0,597,601,601,601,
601,601,601,601,601,0,0,0,0,0,0,0,0,0,0,0,0,0,0,0,0,0,0,0,0,0,0,0,0,597,601,601,
601,601,601,601,601,0,0,0,0,0,0,0,0,0,0,0,0,0,0,0,0,0,0,0,0,0,0,0,0,0,601,601,
601,601,601,601,601,0,0,0,0,0,0,0,0,0,0,0,0,0,0,0,0,0,0,0,0,0,597,601,601,601,601,601,
601,601,601,601,601,0,0,0,0,0,0,0,0,0,0,0,0,0,0,0,0,0,0,0,618,612,601,601,601,601,601,601,
601,601,601,601,601,0,0,0,0,601,601,0,0,601,601,601,0,0,0,0,0,0,0,0,607,601,0,0,0,0,601,601,
601,601,601,601,601,0,0,0,0,0,0,0,0,0,0,0,0,0,0,0,0,0,0,0,607,601,0,0,0,0,601,601,
601,601,601,601,621,0,0,0,0,601,601,601,0,601,601,601,0,0,0,0,0,0,0,0,607,0,0,0,0,0,601,601,
601,601,601,601,601,598,0,0,0,0,0,0,0,0,0,0,0,0,601,601,601,601,0,0,607,0,0,0,0,601,601,601,
601,601,601,601,601,621,600,600,600,600,600,600,600,600,600,600,600,600,600,600,600,600,600,600,611,600,600,600,601,0,601,601,
601,601,601,601,601,601,601,601,601,601,601,601,601,601,601,601,601,601,601,601,601,601,601,601,601,601,601,601,601,601,601,601,
601,601,601,601,601,601,601,601,601,601,601,601,601,601,601,601,601,601,601,601,601,601,601,601,601,601,601,601,601,601,601,601
</data>
 </layer>
</map>
