<?xml version="1.0" encoding="UTF-8"?>
<map version="1.10" tiledversion="1.12.2" orientation="orthogonal" renderorder="right-down" width="32" height="18" tilewidth="16" tileheight="16" infinite="0" nextlayerid="7" nextobjectid="1">
 <editorsettings>
  <export target="lac_du_barrage.json" format="json"/>
 </editorsettings>
 <tileset firstgid="1" source="../tilesets/Water.tsx"/>
 <tileset firstgid="5" source="../tilesets/Wood Bridge.tsx"/>
 <tileset firstgid="16" source="../tilesets/Grass.tsx"/>
 <tileset firstgid="93" source="../tilesets/WaterDark.tsx"/>
 <tileset firstgid="97" source="../tilesets/collisions.tsx"/>
 <tileset firstgid="129" source="../tilesets/Fences.tsx"/>
 <tileset firstgid="145" source="../tilesets/Wooden_Bridge_v2.tsx"/>
 <tileset firstgid="157" source="../tilesets/Boats.tsx"/>
 <tileset firstgid="211" source="../tilesets/big fish 2 swimming in cirkels.tsx"/>
 <tileset firstgid="220" source="../tilesets/Basic_Grass_Biom_things.tsx"/>
 <tileset firstgid="265" source="../tilesets/small_House_light_with_door.tsx"/>
 <tileset firstgid="409" source="../tilesets/Paths.tsx"/>
 <tileset firstgid="425" source="../tilesets/Piknik blanket.tsx"/>
 <tileset firstgid="434" source="../tilesets/Piknik basket.tsx"/>
 <tileset firstgid="435" source="../tilesets/Basic_Furniture.tsx"/>
 <layer id="1" name="Water" width="32" height="18">
  <data encoding="csv">
0,0,0,0,0,0,0,0,0,0,0,0,0,0,0,0,0,0,0,0,0,0,0,0,0,0,0,0,0,0,0,0,
0,2,3,4,1,2,3,4,1,2,3,4,1,2,3,4,1,2,3,4,1,2,3,4,1,2,3,4,1,2,3,0,
0,2,3,4,1,2,3,4,1,2,3,4,1,2,3,4,1,2,3,4,1,2,3,4,1,2,3,4,1,2,3,0,
0,2,3,4,1,2,3,4,1,2,3,4,1,2,3,4,93,94,95,96,93,94,95,96,93,94,95,96,1,2,3,0,
0,2,3,4,1,2,3,4,1,2,3,4,1,2,3,4,93,94,95,96,93,94,95,96,93,94,95,96,93,94,3,0,
0,2,3,4,1,2,3,4,1,2,3,4,1,2,3,4,93,94,95,96,93,94,95,96,93,94,95,96,93,94,3,0,
0,2,3,4,1,2,3,4,1,2,3,4,1,2,3,4,93,94,95,96,93,94,95,96,93,94,95,96,93,94,95,0,
0,2,3,4,1,2,3,4,1,2,3,4,1,2,3,4,93,94,95,96,93,94,95,96,93,94,95,96,93,94,95,0,
0,2,3,4,1,2,3,4,1,2,3,4,1,2,3,4,93,94,95,96,93,94,95,96,93,94,95,96,93,94,95,0,
0,2,3,4,1,2,3,4,1,2,3,4,1,2,3,4,93,94,95,96,93,94,95,96,93,94,95,96,93,94,95,0,
0,2,3,4,1,2,3,4,1,2,3,4,1,2,3,4,93,94,95,96,93,94,95,96,93,94,95,96,93,94,95,0,
0,2,3,4,1,2,3,4,1,2,3,4,1,2,3,4,93,94,95,96,93,94,95,96,93,94,95,96,93,94,95,0,
0,2,3,4,1,2,3,4,1,2,3,4,1,2,3,4,93,94,95,96,93,94,95,96,93,94,95,96,93,94,95,0,
0,2,3,4,1,2,3,4,1,2,3,4,1,2,3,4,1,2,3,4,93,94,95,96,93,94,95,96,93,94,95,0,
0,2,3,4,1,2,3,4,1,2,3,4,1,2,3,4,1,2,3,4,93,94,95,96,93,94,95,96,93,94,95,0,
0,2,3,4,1,2,3,4,1,2,3,4,1,2,3,4,1,2,3,4,1,94,95,96,93,94,95,96,93,94,95,0,
0,2,3,4,1,2,3,4,1,2,3,4,1,2,3,4,1,2,3,4,1,94,95,96,93,94,95,96,93,94,95,0,
0,0,0,0,0,0,0,0,0,0,0,0,0,0,0,0,0,0,0,0,0,0,0,0,0,0,0,0,0,0,0,0
</data>
 </layer>
 <layer id="2" name="Floor" width="32" height="18">
  <data encoding="csv">
0,0,0,0,0,0,0,0,0,0,0,0,0,0,0,0,0,0,0,0,0,0,0,0,0,0,0,0,0,0,0,0,
0,0,0,0,0,0,0,0,0,0,0,0,0,0,0,0,0,16,17,17,17,17,17,17,17,17,18,0,0,0,0,0,
0,0,0,0,0,0,0,0,0,0,0,0,16,17,17,17,17,44,28,28,28,28,28,28,82,28,43,17,17,17,18,0,
0,0,0,0,0,0,16,17,17,17,17,17,44,28,28,28,28,71,28,32,39,39,39,39,39,39,33,28,71,28,29,0,
0,0,0,0,16,17,44,28,28,28,28,28,28,28,28,28,28,32,39,40,0,0,0,0,0,0,38,33,28,82,29,0,
0,0,0,16,44,28,28,28,28,82,28,28,28,71,28,82,32,40,0,0,0,0,0,0,0,0,0,27,28,28,43,0,
0,0,0,27,28,28,28,28,28,28,28,28,28,28,28,28,29,0,0,0,0,0,0,0,0,0,0,27,71,28,28,0,
0,0,16,44,28,28,28,71,28,28,28,28,82,28,28,28,29,0,0,0,0,0,0,0,0,0,0,38,33,28,71,0,
0,0,27,82,28,28,28,28,28,28,28,28,28,28,28,28,29,0,0,0,0,0,0,0,0,0,0,0,27,28,28,0,
0,0,27,28,28,28,28,28,28,28,28,28,28,28,82,28,43,18,0,0,0,0,0,0,0,0,0,0,27,28,28,0,
0,0,27,28,28,71,28,28,82,28,71,28,28,28,28,28,28,43,18,0,0,0,0,0,0,0,0,0,38,39,39,0,
0,0,38,33,28,28,28,28,28,28,28,28,28,28,71,28,28,28,43,18,0,0,0,0,0,0,0,0,0,0,0,0,
0,0,0,38,33,28,28,28,28,28,28,28,28,28,28,28,28,28,28,43,18,0,0,0,0,0,0,0,0,0,0,0,
0,0,0,0,38,39,33,28,28,71,28,28,28,82,28,28,28,32,39,33,29,0,0,0,0,0,0,0,0,0,0,0,
0,0,0,0,0,0,38,39,39,39,39,39,39,39,39,39,39,40,0,27,43,18,0,0,0,0,0,0,0,0,0,0,
0,0,0,0,0,0,0,0,0,0,0,0,0,0,0,0,0,0,0,38,33,29,0,0,0,0,0,0,0,0,0,0,
0,0,0,0,0,0,0,0,0,0,0,0,0,0,0,0,0,0,0,0,27,29,0,0,0,0,0,0,0,0,0,0,
0,0,0,0,0,0,0,0,0,0,0,0,0,0,0,0,0,0,0,0,0,0,0,0,0,0,0,0,0,0,0,0
</data>
 </layer>
 <layer id="3" name="OnFloor" width="32" height="18">
  <data encoding="csv">
0,0,0,0,0,0,0,0,0,0,0,0,0,0,0,0,0,0,0,0,0,0,0,0,0,0,0,0,0,0,0,0,
0,0,0,0,0,0,263,0,0,0,262,0,0,0,0,0,0,0,0,0,0,0,0,253,0,0,0,0,0,0,0,0,
0,0,261,0,0,0,0,0,0,0,0,0,0,0,0,0,0,0,0,244,0,0,0,0,0,0,0,0,0,0,0,0,
0,0,0,0,0,0,0,0,0,0,0,0,0,0,0,0,0,0,0,0,0,0,157,158,159,0,0,0,244,0,0,0,
0,0,0,264,0,0,0,0,341,342,343,344,0,0,0,254,0,0,0,0,0,0,166,167,168,0,0,0,0,0,0,0,
0,0,0,0,0,0,459,0,353,354,355,356,0,0,0,0,0,0,0,0,0,0,0,0,0,0,0,0,0,0,129,0,
0,0,0,0,0,253,465,0,0,0,0,245,0,0,0,0,0,0,0,0,0,262,0,0,0,0,0,0,0,253,133,0,
0,0,0,0,0,0,460,0,0,457,465,458,0,0,245,0,0,0,0,0,0,0,0,0,0,211,0,0,0,0,133,0,
0,0,0,0,0,0,0,0,254,0,0,0,0,414,423,424,149,153,153,150,0,0,0,0,0,0,0,0,0,0,133,0,
0,8,9,422,423,423,423,423,423,423,423,423,423,419,0,0,0,0,0,0,0,0,0,0,0,0,0,0,0,245,133,0,
0,0,0,0,0,244,0,0,0,0,0,0,0,418,415,0,0,0,129,0,0,0,0,0,0,0,264,0,0,0,137,0,
0,0,0,0,0,0,0,425,426,427,0,0,0,0,413,0,0,0,133,0,0,0,0,219,0,0,0,0,0,0,0,0,
0,0,0,0,0,0,0,428,429,430,0,0,0,245,418,415,254,0,133,0,0,0,0,0,0,0,0,0,0,0,0,0,
0,263,0,0,0,0,0,431,432,433,0,0,0,0,0,417,0,0,137,0,0,0,0,0,0,0,0,215,0,0,0,0,
0,0,0,0,0,0,0,0,0,0,0,0,0,0,0,5,0,0,0,0,253,0,0,0,261,0,0,0,0,0,0,0,
0,0,0,261,0,0,0,0,0,0,0,264,0,0,0,10,0,0,261,0,0,0,0,0,0,0,0,0,0,263,0,0,
0,0,0,0,0,0,0,262,0,0,0,0,0,0,0,10,0,0,0,0,0,0,0,0,0,0,0,0,0,0,0,0,
0,0,0,0,0,0,0,0,0,0,0,0,0,0,0,0,0,0,0,0,0,0,0,0,0,0,0,0,0,0,0,0
</data>
 </layer>
 <layer id="6" name="OnBlanket" width="32" height="18">
  <data encoding="csv">
0,0,0,0,0,0,0,0,0,0,0,0,0,0,0,0,0,0,0,0,0,0,0,0,0,0,0,0,0,0,0,0,
0,0,0,0,0,0,0,0,0,0,0,0,0,0,0,0,0,0,0,0,0,0,0,0,0,0,0,0,0,0,0,0,
0,0,0,0,0,0,0,0,0,0,0,0,0,0,0,0,0,0,0,0,0,0,0,0,0,0,0,0,0,0,0,0,
0,0,0,0,0,0,0,0,0,0,0,0,0,0,0,0,0,0,0,0,0,0,0,0,0,0,0,0,0,0,0,0,
0,0,0,0,0,0,0,0,0,0,0,0,0,0,0,0,0,0,0,0,0,0,0,0,0,0,0,0,0,0,0,0,
0,0,0,0,0,0,0,0,0,0,0,0,0,0,0,0,0,0,0,0,0,0,0,0,0,0,0,0,0,0,0,0,
0,0,0,0,0,0,0,0,0,0,0,0,0,0,0,0,0,0,0,0,0,0,0,0,0,0,0,0,0,0,0,0,
0,0,0,0,0,0,0,0,0,0,0,0,0,0,0,0,0,0,0,0,0,0,0,0,0,0,0,0,0,0,0,0,
0,0,0,0,0,0,0,0,0,0,0,0,0,0,0,0,0,0,0,0,0,0,0,0,0,0,0,0,0,0,0,0,
0,0,0,0,0,0,0,0,0,0,0,0,0,0,0,0,0,0,0,0,0,0,0,0,0,0,0,0,0,0,0,0,
0,0,0,0,0,0,0,0,0,0,0,0,0,0,0,0,0,0,0,0,0,0,0,0,0,0,0,0,0,0,0,0,
0,0,0,0,0,0,0,0,0,0,0,0,0,0,0,0,0,0,0,0,0,0,0,0,0,0,0,0,0,0,0,0,
0,0,0,0,0,0,0,0,434,0,0,0,0,0,0,0,0,0,0,0,0,0,0,0,0,0,0,0,0,0,0,0,
0,0,0,0,0,0,0,0,0,0,0,0,0,0,0,0,0,0,0,0,0,0,0,0,0,0,0,0,0,0,0,0,
0,0,0,0,0,0,0,0,0,0,0,0,0,0,0,0,0,0,0,0,0,0,0,0,0,0,0,0,0,0,0,0,
0,0,0,0,0,0,0,0,0,0,0,0,0,0,0,0,0,0,0,0,0,0,0,0,0,0,0,0,0,0,0,0,
0,0,0,0,0,0,0,0,0,0,0,0,0,0,0,0,0,0,0,0,0,0,0,0,0,0,0,0,0,0,0,0,
0,0,0,0,0,0,0,0,0,0,0,0,0,0,0,0,0,0,0,0,0,0,0,0,0,0,0,0,0,0,0,0
</data>
 </layer>
 <layer id="4" name="InFrontOfPlayer" width="32" height="18">
  <data encoding="csv">
0,0,0,0,0,0,0,0,0,0,0,0,0,0,0,0,0,0,0,0,0,0,0,0,0,0,0,0,0,0,0,0,
0,0,0,0,0,0,0,0,0,0,0,0,0,0,0,0,0,0,0,0,0,0,0,0,0,0,0,0,0,0,0,0,
0,0,0,0,0,0,0,0,317,318,319,320,0,0,0,0,0,0,0,0,0,0,0,0,0,0,0,0,0,0,0,0,
0,0,0,0,0,0,0,0,329,330,331,332,0,0,0,0,0,0,0,0,0,0,0,0,0,0,0,0,0,0,0,0,
0,0,0,0,0,0,0,0,0,0,0,0,0,0,0,0,0,0,0,0,0,0,0,0,0,0,0,0,0,0,0,0,
0,0,0,0,0,0,0,0,0,0,0,0,0,0,0,0,0,0,0,0,0,0,0,0,0,0,0,0,0,0,0,0,
0,0,0,0,0,0,0,0,0,0,0,0,0,0,0,0,0,0,0,0,0,0,0,0,0,0,0,0,0,0,0,0,
0,0,0,0,0,0,0,0,0,0,0,0,0,0,0,0,0,0,0,0,0,0,0,0,0,0,0,0,0,0,0,0,
0,0,0,0,0,0,0,0,0,0,0,0,0,0,0,0,0,0,0,0,0,0,0,0,0,0,0,0,0,0,0,0,
0,0,0,0,0,0,0,0,0,0,0,0,0,0,0,0,0,0,0,0,0,0,0,0,0,0,0,0,0,0,0,0,
0,0,0,0,0,0,0,0,0,0,0,0,0,0,0,0,0,0,0,0,0,0,0,0,0,0,0,0,0,0,0,0,
0,0,0,0,0,0,0,0,0,0,0,0,0,0,0,0,0,0,0,0,0,0,0,0,0,0,0,0,0,0,0,0,
0,0,0,0,0,0,0,0,0,0,0,0,0,0,0,0,0,0,0,0,0,0,0,0,0,0,0,0,0,0,0,0,
0,0,0,0,0,0,0,0,0,0,0,0,0,0,0,0,0,0,0,0,0,0,0,0,0,0,0,0,0,0,0,0,
0,0,0,0,0,0,0,0,0,0,0,0,0,0,0,0,0,0,0,0,0,0,0,0,0,0,0,0,0,0,0,0,
0,0,0,0,0,0,0,0,0,0,0,0,0,0,0,0,0,0,0,0,0,0,0,0,0,0,0,0,0,0,0,0,
0,0,0,0,0,0,0,0,0,0,0,0,0,0,0,0,0,0,0,0,0,0,0,0,0,0,0,0,0,0,0,0,
0,0,0,0,0,0,0,0,0,0,0,0,0,0,0,0,0,0,0,0,0,0,0,0,0,0,0,0,0,0,0,0
</data>
 </layer>
 <layer id="5" name="Collisions" width="32" height="18" visible="0">
  <data encoding="csv">
101,101,101,101,101,101,101,101,101,101,101,101,101,101,101,101,101,101,101,101,101,101,101,101,101,101,101,101,101,101,101,101,
101,101,101,101,101,101,101,101,101,101,101,101,101,101,101,101,101,123,99,99,99,99,99,99,99,99,124,101,101,101,101,101,
101,101,101,101,101,101,101,101,101,101,101,101,98,0,0,0,0,0,0,0,0,0,0,0,0,0,0,0,0,0,97,101,
101,101,101,101,101,101,98,0,97,101,101,98,0,0,0,0,0,0,0,0,100,100,100,100,100,100,0,0,0,0,97,101,
101,101,101,101,98,0,0,0,97,101,101,98,0,0,0,0,0,0,100,122,101,101,101,101,101,101,121,0,0,0,97,101,
101,101,101,98,0,0,101,0,97,101,101,98,0,0,0,0,0,122,101,101,101,101,101,101,101,101,101,98,0,0,110,101,
101,101,101,98,0,0,101,0,0,0,0,0,0,0,0,0,97,101,101,101,101,101,101,101,101,101,101,98,0,0,107,101,
101,101,98,0,0,0,101,0,0,101,101,101,0,0,0,0,97,101,101,101,101,101,101,101,101,101,101,121,0,0,107,101,
99,99,0,0,0,0,0,0,0,0,0,0,0,0,0,0,0,0,0,0,101,101,101,101,101,101,101,101,98,0,107,101,
0,0,0,0,0,0,0,0,0,0,0,0,0,0,0,0,0,97,101,101,101,101,101,101,101,101,101,101,98,0,107,101,
101,101,98,0,0,0,0,0,0,0,0,0,0,0,0,0,0,0,110,101,101,101,101,101,101,101,101,101,121,100,111,101,
101,101,121,0,0,0,0,0,0,0,0,0,0,0,0,0,0,0,107,0,101,101,101,101,101,101,101,101,101,101,101,101,
101,101,101,121,0,0,0,0,101,0,0,0,0,0,0,0,0,0,107,0,0,101,101,101,101,101,101,101,101,101,101,101,
101,101,101,101,121,100,0,0,0,0,0,0,0,0,0,0,0,0,101,0,0,101,101,101,101,101,101,101,101,101,101,101,
101,101,101,101,101,101,121,100,100,100,100,100,100,100,0,0,0,122,101,98,0,0,101,101,101,101,101,101,101,101,101,101,
101,101,101,101,101,101,101,101,101,101,101,101,101,101,98,0,97,101,101,121,0,0,101,101,101,101,101,101,101,101,101,101,
101,101,101,101,101,101,101,101,101,101,101,101,101,101,98,0,97,101,101,101,0,0,101,101,101,101,101,101,101,101,101,101,
101,101,101,101,101,101,101,101,101,101,101,101,101,101,98,0,97,101,101,101,101,101,101,101,101,101,101,101,101,101,101,101
</data>
 </layer>
</map>
