<?xml version="1.0" encoding="UTF-8"?>
<map version="1.10" tiledversion="1.12.2" orientation="orthogonal" renderorder="right-down" width="30" height="20" tilewidth="48" tileheight="48" infinite="0" nextlayerid="3" nextobjectid="1">
 <tileset firstgid="1" source="8.tsx"/>
 <tileset firstgid="257" source="6.tsx"/>
 <tileset firstgid="513" source="1.tsx"/>
 <tileset firstgid="769" source="7.tsx"/>
 <tileset firstgid="1025" source="3.tsx"/>
 <tileset firstgid="1281" source="5.tsx"/>
 <layer id="1" name="ground" width="30" height="20">
  <data encoding="csv">
33,1,84,33,49,33,1,49,112,49,49,112,112,1,1,84,49,1,33,112,112,112,1,112,1,1,84,33,1,49,
49,33,112,33,112,33,1,49,112,84,112,33,112,33,84,112,1,112,1,1,49,1,49,112,1,1,1,1,112,1,
33,1,1,49,1,1,84,1,84,112,49,33,112,49,84,84,112,49,1,33,33,33,112,112,112,33,33,112,112,33,
112,112,49,112,112,1,1,1,84,49,112,112,33,49,112,1,112,1,33,33,49,1,112,112,112,49,1,49,49,112,
84,84,112,1,1,33,112,1,112,1,112,33,112,1,33,49,33,112,84,33,1,1,33,1,1,1,112,112,112,84,
84,33,112,112,33,84,33,33,1,84,1,33,1,33,33,1,33,112,33,33,1,33,1,84,112,33,1,112,1610612817,1610612833,
84,33,112,84,112,112,33,33,84,112,1,33,49,33,49,1,49,1,112,1,33,1,112,33,33,33,112,1,49,112,
1,1,112,1,84,112,33,1,33,84,1,33,33,33,33,33,33,49,33,112,112,112,33,33,112,1,1,49,33,49,
33,112,112,112,1,112,33,112,1,49,112,49,33,1,33,33,33,112,49,112,33,112,84,33,84,84,112,49,33,33,
49,49,112,49,112,33,33,112,33,33,84,1,33,33,1,49,112,1,84,33,1,112,1,1,112,84,33,33,33,33,
33,33,1,33,33,84,33,112,1,112,1,33,84,84,112,112,1,84,84,49,84,1,1,49,84,84,33,33,112,112,
112,1,112,1,1,112,33,1,49,49,112,1,33,49,1,112,33,1,84,1,112,1,84,33,112,33,33,112,112,49,
1,84,84,112,1,112,112,33,84,1,49,112,112,1,33,84,33,33,33,112,112,33,33,1,1,33,33,112,1,49,
112,33,112,1,1,33,112,112,49,112,84,33,33,33,33,33,1,33,112,1,112,112,112,1,1,1,33,112,112,1,
1,112,49,1,112,33,112,1,33,1,84,33,33,33,33,33,33,112,33,84,112,1,33,112,84,112,112,33,1610612817,1610612833,
112,33,84,84,1,84,49,49,112,112,33,33,33,33,33,84,1,112,112,112,1,49,112,33,49,1,112,84,112,49,
1,49,1,112,1,1,112,1,1,84,112,112,49,49,1,112,1,112,1,1,1,33,49,33,49,84,112,84,49,1,
49,1,1,1,112,112,33,1,84,49,1,33,1,84,1,112,1,33,1,49,112,33,33,1,1,112,1,1,1,33,
1,1,1,33,84,1,112,33,84,1,84,1,84,1,1,49,33,112,112,1,112,112,1,112,84,49,1,112,84,1,
33,49,112,1,84,1,1,112,1,33,84,112,112,1,112,112,112,84,84,33,112,112,1,84,33,1,84,49,84,1
</data>
 </layer>
 <layer id="2" name="collision" width="30" height="20">
  <data encoding="csv">
3221226864,3221225488,3221225487,3221225486,3221225485,3221225484,3221225483,3221225482,3221225481,3221225480,3221225479,3221225478,3221225477,3221225476,3221225475,3221225474,3221225488,3221225487,3221225486,3221225485,3221225484,3221225483,3221225482,3221225481,3221225480,3221225479,3221225478,3221225477,3221225476,3221225475,
3221226848,0,0,0,0,0,0,0,0,0,0,0,0,0,0,0,0,0,0,0,0,0,0,0,0,0,0,0,0,1344,
3221226832,0,0,0,0,0,0,0,0,0,0,0,0,0,0,0,0,0,0,0,0,0,0,0,0,0,773,0,0,1360,
3221226816,0,0,0,0,0,0,0,0,0,0,0,0,0,0,0,0,0,0,0,909,910,0,0,0,0,789,0,0,1376,
3221226800,0,0,0,0,0,0,0,0,0,0,0,0,0,0,0,0,0,0,0,925,926,573,0,0,0,805,0,0,1392,
2684354945,0,0,0,909,910,0,0,0,641,642,643,644,393,394,395,396,907,908,0,0,0,0,0,0,0,0,1025,1028,1029,
2684354946,0,0,0,925,926,0,0,0,657,658,659,660,409,410,411,412,923,924,0,0,0,927,0,0,0,0,1041,1044,1045,
2684354947,0,0,0,0,0,0,0,0,0,0,0,0,0,0,0,0,0,0,0,941,942,943,0,0,935,0,1057,1060,1061,
2684354948,0,0,0,0,0,0,0,0,0,0,0,0,0,0,0,0,0,0,0,0,0,0,0,0,951,0,0,0,0,
2684354945,0,0,0,0,0,0,0,0,737,738,739,740,425,426,427,428,0,0,0,0,0,0,0,0,0,0,0,0,0,
2684354946,0,0,0,0,0,0,0,0,753,754,755,756,441,442,443,444,0,0,0,937,938,939,940,941,942,0,0,0,0,
2684354947,0,0,0,0,0,0,0,0,0,0,0,0,0,0,0,0,0,0,0,0,0,0,0,0,0,0,0,0,608,
2684354948,0,0,0,903,904,905,906,0,393,394,395,396,641,642,643,644,0,0,0,0,0,0,0,0,0,0,0,0,624,
2147484195,0,0,0,919,920,921,922,0,409,410,411,412,657,658,659,660,679,0,0,1009,1010,1011,1012,941,942,0,0,0,640,
2147484211,0,0,0,0,0,0,0,0,0,0,0,0,0,0,0,0,0,0,0,0,0,0,0,0,0,0,0,0,0,
2147484227,0,0,0,0,0,0,0,0,0,0,0,0,0,0,0,0,0,0,0,0,0,0,0,0,0,0,0,0,0,
2147484243,0,0,0,0,0,0,0,0,0,0,0,0,0,0,0,0,0,0,0,0,0,0,0,0,0,0,0,0,0,
564,0,0,0,0,0,0,0,0,0,0,297,298,0,0,0,0,0,0,0,0,300,0,0,0,0,0,0,0,0,
580,0,0,0,0,0,0,0,0,0,265,265,0,0,0,0,0,0,3221225739,3221225738,0,299,0,0,0,0,0,0,0,0,
596,0,0,0,0,0,0,0,0,0,0,0,0,0,0,0,0,0,0,0,0,0,0,0,0,0,0,0,0,0
</data>
 </layer>
</map>
