<?xml version="1.0" encoding="UTF-8"?>
<map version="1.10" tiledversion="1.12.2" orientation="orthogonal" renderorder="right-down" width="30" height="20" tilewidth="48" tileheight="48" infinite="0" nextlayerid="3" nextobjectid="1">
 <tileset firstgid="1" source="6.tsx"/>
 <tileset firstgid="257" source="5.tsx"/>
 <tileset firstgid="513" source="3.tsx"/>
 <tileset firstgid="769" source="1.tsx"/>
 <tileset firstgid="1025" source="8.tsx"/>
 <layer id="1" name="ground" width="30" height="20">
  <data encoding="csv">
100,115,100,116,115,116,116,100,116,115,116,115,71,100,100,115,116,100,100,115,100,116,115,116,116,100,115,100,116,115,
115,100,100,100,100,115,115,116,100,115,116,115,115,116,116,116,100,100,100,115,100,116,115,100,100,100,115,115,115,115,
116,116,115,115,100,116,100,116,116,115,116,116,115,100,100,115,100,116,115,115,100,100,116,115,115,116,116,100,115,116,
116,115,116,116,116,100,100,100,116,100,116,116,115,100,116,116,100,116,100,116,115,115,115,100,116,115,116,116,116,115,
116,100,100,115,115,100,115,100,115,116,116,115,115,116,116,116,115,115,100,115,100,116,116,116,116,100,116,116,116,115,
115,115,115,100,100,115,115,116,100,115,100,116,100,115,116,116,100,116,116,100,116,100,100,100,100,100,115,115,100,100,
100,116,116,100,100,100,116,116,116,116,100,100,100,115,116,115,100,115,116,100,116,115,115,115,100,116,116,116,115,116,
115,100,116,100,115,116,115,100,115,116,100,100,116,115,115,100,116,116,100,100,116,116,115,116,100,100,115,115,116,100,
116,100,100,100,100,100,115,100,116,115,115,115,100,100,100,100,116,115,100,116,100,100,100,100,116,116,116,115,116,116,
100,116,115,115,100,116,116,116,115,100,115,100,100,100,116,100,115,115,100,115,116,115,116,116,83,116,115,100,100,100,
116,100,115,100,115,116,115,115,116,116,100,116,115,115,100,115,116,100,116,100,100,116,115,100,116,115,116,115,116,100,
115,115,100,115,100,116,100,115,115,100,115,115,116,100,116,100,100,116,115,116,115,116,116,116,100,116,116,100,115,115,
115,116,116,100,100,116,115,100,116,115,100,100,116,115,100,115,115,100,115,115,100,116,116,116,116,116,115,116,116,116,
100,115,116,116,100,116,115,116,116,100,115,115,115,100,115,116,115,116,116,100,115,100,100,100,116,116,116,116,115,100,
116,116,116,100,100,115,100,116,100,100,116,100,100,115,116,115,116,115,115,115,100,116,115,116,100,100,115,100,100,115,
100,116,100,100,100,100,115,115,100,100,115,115,100,116,115,116,116,116,100,116,100,115,116,100,116,115,116,115,100,100,
116,115,116,116,116,100,116,115,115,115,100,116,115,100,115,116,116,115,100,116,116,115,115,100,100,100,115,115,100,100,
115,115,115,116,116,100,100,116,115,100,116,100,100,100,100,115,116,115,115,100,116,116,115,115,116,115,116,116,115,116,
116,116,115,116,100,100,115,115,115,100,115,100,116,115,116,115,116,115,100,100,116,115,116,116,115,115,115,115,116,100,
116,116,100,100,115,115,116,115,116,115,116,100,100,116,115,116,116,100,116,116,116,115,116,100,115,100,115,116,100,100
</data>
 </layer>
 <layer id="2" name="collision" width="30" height="20">
  <data encoding="csv">
0,0,0,0,0,0,0,0,299,300,301,0,0,0,0,0,0,0,0,0,297,298,0,0,0,0,0,0,0,0,
0,0,0,0,0,0,0,0,315,316,317,0,0,0,0,0,0,0,0,0,313,314,0,0,0,0,0,0,0,0,
0,0,0,0,0,0,0,0,331,332,333,0,0,0,0,0,0,0,0,0,329,330,0,0,0,0,0,0,0,0,
0,0,0,0,0,0,0,0,0,0,0,0,0,0,0,0,0,0,0,0,0,0,0,0,0,0,0,0,0,0,
321,322,0,0,0,0,0,0,0,0,0,0,0,0,0,0,0,0,0,0,0,0,0,0,0,0,0,0,0,0,
337,338,0,0,0,0,0,0,0,0,0,0,0,0,0,0,0,0,0,0,0,0,0,0,0,0,0,0,0,0,
353,354,355,0,0,0,0,0,0,0,0,0,0,0,0,0,0,0,0,0,0,0,0,0,0,793,0,0,0,0,
369,370,371,0,0,0,0,0,0,0,0,0,0,0,0,0,617,618,619,678,679,680,620,621,0,809,0,0,0,0,
0,0,0,0,0,0,0,0,673,674,675,0,0,0,0,0,633,634,635,694,695,696,636,637,829,0,0,0,0,0,
0,0,0,0,0,0,0,0,689,690,691,0,0,0,0,0,0,0,0,0,0,0,0,0,0,0,0,0,0,0,
0,0,0,0,0,0,0,0,0,0,0,0,0,0,0,0,0,0,0,0,0,0,0,0,0,0,0,0,0,0,
0,0,0,0,0,0,0,0,659,645,660,0,0,0,0,0,574,575,576,569,570,571,572,573,0,0,0,0,0,0,
0,0,0,0,0,0,0,0,689,690,691,0,0,0,0,935,590,591,592,585,586,587,588,589,0,0,0,0,0,0,
289,290,0,0,0,0,0,0,0,0,0,0,0,0,0,0,0,0,0,0,0,0,0,0,0,0,0,0,0,0,
305,306,0,0,0,0,0,0,0,0,0,0,0,0,0,0,521,522,523,524,525,526,527,528,0,0,0,0,0,0,
0,0,0,0,0,0,0,0,0,0,0,0,0,0,0,0,537,538,539,540,541,542,543,544,0,0,0,0,0,0,
0,0,0,0,0,0,0,0,0,0,0,0,0,0,0,0,553,554,555,556,557,558,559,560,0,0,0,0,0,0,
0,0,0,0,0,0,0,0,0,0,0,0,0,0,0,0,0,0,0,0,0,0,0,0,0,0,0,0,0,0,
0,0,0,0,0,0,0,0,0,0,0,0,0,0,0,0,0,0,0,0,0,0,0,0,0,0,0,0,0,0,
0,0,0,0,0,0,0,0,0,0,0,0,0,0,0,0,0,0,0,0,0,0,0,0,0,0,0,0,0,0
</data>
 </layer>
</map>
