<?xml version="1.0" encoding="UTF-8"?>
<map version="1.10" tiledversion="1.12.2" orientation="orthogonal" renderorder="right-down" width="32" height="18" tilewidth="16" tileheight="16" infinite="0" nextlayerid="7" nextobjectid="1">
 <tileset firstgid="1" source="../tilesets/Water.tsx"/>
 <tileset firstgid="5" source="../tilesets/Wood Bridge.tsx"/>
 <tileset firstgid="20" source="../tilesets/Grass.tsx"/>
 <tileset firstgid="97" source="../tilesets/Basic_Grass_Biom_things.tsx"/>
 <tileset firstgid="142" source="../tilesets/Paths.tsx"/>
 <tileset firstgid="158" source="../tilesets/Basic_Furniture.tsx"/>
 <tileset firstgid="212" source="../tilesets/collisions.tsx"/>
 <tileset firstgid="244" source="../tilesets/Piknik blanket.tsx"/>
 <tileset firstgid="253" source="../tilesets/Piknik basket.tsx"/>
 <layer id="1" name="Water" width="32" height="18">
  <data encoding="csv">
0,0,0,0,0,0,0,0,0,0,0,0,0,0,0,0,0,0,0,0,0,0,0,0,0,0,0,0,0,0,0,0,
0,2,3,4,1,2,3,4,1,2,3,4,1,2,3,4,1,2,3,4,1,2,3,4,1,2,3,4,1,2,3,0,
0,2,3,4,1,2,3,4,1,2,3,4,1,2,3,4,1,2,3,4,1,2,3,4,1,2,3,4,1,2,3,0,
0,2,3,4,1,2,3,4,1,2,3,4,1,2,3,4,1,2,3,4,1,2,3,4,1,2,3,4,1,2,3,0,
0,2,3,4,1,2,3,4,1,2,3,4,1,2,3,4,1,2,3,4,1,2,3,4,1,2,3,4,1,2,3,0,
0,2,3,4,1,2,3,4,1,2,3,4,1,2,3,4,1,2,3,4,1,2,3,4,1,2,3,4,1,2,3,0,
0,2,3,4,1,2,3,4,1,2,3,4,1,2,3,4,1,2,3,4,1,2,3,4,1,2,3,4,1,2,3,0,
0,2,3,4,1,2,3,4,1,2,3,4,1,2,3,4,1,2,3,4,1,2,3,4,1,2,3,4,1,2,3,0,
0,2,3,4,1,2,3,4,1,2,3,4,1,2,3,4,1,2,3,4,1,2,3,4,1,2,3,4,1,2,3,0,
0,2,3,4,1,2,3,4,1,2,3,4,1,2,3,4,1,2,3,4,1,2,3,4,1,2,3,4,1,2,3,0,
0,2,3,4,1,2,3,4,1,2,3,4,1,2,3,4,1,2,3,4,1,2,3,4,1,2,3,4,1,2,3,0,
0,2,3,4,1,2,3,4,1,2,3,4,1,2,3,4,1,2,3,4,1,2,3,4,1,2,3,4,1,2,3,0,
0,2,3,4,1,2,3,4,1,2,3,4,1,2,3,4,1,2,3,4,1,2,3,4,1,2,3,4,1,2,3,0,
0,2,3,4,1,2,3,4,1,2,3,4,1,2,3,4,1,2,3,4,1,2,3,4,1,2,3,4,1,2,3,0,
0,2,3,4,1,2,3,4,1,2,3,4,1,2,3,4,1,2,3,4,1,2,3,4,1,2,3,4,1,2,3,0,
0,2,3,4,1,2,3,4,1,2,3,4,1,2,3,4,1,2,3,4,1,2,3,4,1,2,3,4,1,2,3,0,
0,2,3,4,1,2,3,4,1,2,3,4,1,2,3,4,1,2,3,4,1,2,3,4,1,2,3,4,1,2,3,0,
0,0,0,0,0,0,0,0,0,0,0,0,0,0,0,0,0,0,0,0,0,0,0,0,0,0,0,0,0,0,0,0
</data>
 </layer>
 <layer id="3" name="Floor" width="32" height="18">
  <data encoding="csv">
0,0,0,0,0,0,0,0,0,0,0,0,0,0,0,0,0,0,0,0,0,0,0,0,0,0,0,0,0,0,0,0,
0,0,0,0,0,0,0,0,0,0,0,0,0,0,0,0,0,0,0,0,0,0,0,0,0,0,0,0,0,0,0,0,
0,0,0,0,0,0,0,0,0,0,0,0,0,0,0,0,0,0,0,0,0,0,0,0,0,0,0,0,0,0,0,0,
0,0,0,0,20,21,21,21,21,21,21,21,21,21,21,21,21,21,21,21,21,21,21,21,21,21,21,22,0,0,0,0,
0,0,0,0,31,32,32,32,32,32,32,32,32,32,32,32,32,32,32,32,32,32,32,32,32,32,32,33,0,0,0,0,
0,0,0,0,31,32,32,32,32,32,32,32,32,88,32,32,32,32,32,32,32,32,32,32,32,32,32,33,0,0,0,0,
0,0,0,0,31,32,32,32,75,32,32,32,32,32,32,32,32,88,32,32,32,32,32,75,32,32,32,33,0,0,0,0,
0,0,0,0,31,32,32,32,32,32,32,88,32,32,32,32,32,32,32,32,32,32,32,32,32,88,32,33,0,0,0,0,
0,0,0,0,31,32,32,32,32,32,32,32,32,32,75,32,32,32,32,75,32,32,32,32,32,32,32,33,0,0,0,0,
0,0,0,0,31,32,32,32,32,32,32,32,32,32,32,32,32,32,32,32,32,32,32,32,32,32,32,33,0,0,0,0,
0,0,0,0,31,32,32,32,32,32,32,32,32,32,32,32,88,32,32,32,32,32,32,32,32,32,32,33,0,0,0,0,
0,0,0,0,31,32,32,88,32,32,32,75,32,32,32,32,32,32,32,32,32,75,32,32,32,32,32,33,0,0,0,0,
0,0,0,0,31,32,32,32,32,32,32,32,32,32,32,32,32,32,75,32,32,32,32,32,32,88,32,33,0,0,0,0,
0,0,0,0,31,32,32,32,32,32,32,32,32,32,32,88,32,32,32,32,32,32,32,32,32,32,32,33,0,0,0,0,
0,0,0,0,42,43,43,43,43,43,43,43,43,43,43,43,43,43,43,43,43,43,43,43,43,43,43,44,0,0,0,0,
0,0,0,0,0,0,0,0,0,0,0,0,0,0,0,0,0,0,0,0,0,0,0,0,0,0,0,0,0,0,0,0,
0,0,0,0,0,0,0,0,0,0,0,0,0,0,0,0,0,0,0,0,0,0,0,0,0,0,0,0,0,0,0,0,
0,0,0,0,0,0,0,0,0,0,0,0,0,0,0,0,0,0,0,0,0,0,0,0,0,0,0,0,0,0,0,0
</data>
 </layer>
 <layer id="2" name="OnFloor" width="32" height="18">
  <data encoding="csv">
0,0,0,0,0,0,0,0,0,0,0,0,0,0,0,0,0,0,0,0,0,0,0,0,0,0,0,0,0,0,0,0,
0,0,0,0,0,138,0,0,141,0,0,0,0,0,0,10,0,0,139,0,0,0,0,0,0,0,0,140,0,0,0,0,
0,0,0,0,0,0,0,0,0,0,0,0,0,0,0,10,0,0,0,0,0,0,138,0,0,0,0,0,0,0,0,0,
0,140,0,0,0,0,0,0,0,0,0,0,0,0,0,15,0,0,0,0,0,0,0,0,0,0,0,0,0,0,0,0,
0,0,0,0,0,0,0,0,0,0,0,122,0,0,0,142,0,0,182,0,0,0,0,0,0,0,0,0,0,0,0,0,
0,0,0,0,0,0,0,130,0,0,0,0,0,0,0,146,0,180,188,181,0,0,121,0,0,0,0,0,0,141,0,0,
0,0,139,0,0,0,0,0,0,0,0,107,108,130,0,146,0,0,183,0,0,0,0,182,0,0,0,0,0,0,0,0,
0,0,0,0,0,0,0,107,108,0,0,0,0,0,0,146,0,0,131,0,0,0,180,188,181,0,131,0,0,0,0,0,
0,0,0,0,0,0,0,0,0,0,0,0,0,0,147,152,148,0,0,0,0,0,0,183,0,0,0,0,0,0,0,0,
0,8,8,8,9,155,156,156,156,156,156,156,156,156,148,0,151,156,156,156,156,156,156,156,156,156,157,7,8,8,8,0,
0,0,0,0,0,0,0,0,0,0,0,0,0,0,151,147,152,0,0,0,0,0,0,0,0,0,0,0,0,0,0,0,
0,141,0,0,0,0,0,0,182,0,0,0,0,106,0,146,0,0,0,131,0,0,244,245,246,0,0,0,0,0,0,0,
0,0,0,0,0,0,0,180,188,181,0,0,131,0,0,146,0,0,0,0,0,0,247,248,249,0,0,0,0,140,0,0,
0,0,138,0,0,0,0,0,183,0,0,0,0,0,0,150,0,0,0,0,130,0,250,251,252,0,131,0,0,0,0,0,
0,0,0,0,0,0,0,0,0,0,0,0,0,0,0,5,0,0,0,0,0,0,0,0,0,0,0,0,0,0,0,0,
0,0,0,0,0,0,0,0,0,139,0,0,0,0,0,10,0,0,0,0,0,0,0,0,0,0,0,0,0,138,0,0,
0,0,0,0,0,140,0,0,0,0,0,0,0,140,0,10,0,0,0,0,139,0,0,141,0,0,0,0,0,0,0,0,
0,0,0,0,0,0,0,0,0,0,0,0,0,0,0,0,0,0,0,0,0,0,0,0,0,0,0,0,0,0,0,0
</data>
 </layer>
 <layer id="6" name="OnBlanket" width="32" height="18">
  <data encoding="csv">
0,0,0,0,0,0,0,0,0,0,0,0,0,0,0,0,0,0,0,0,0,0,0,0,0,0,0,0,0,0,0,0,
0,0,0,0,0,0,0,0,0,0,0,0,0,0,0,0,0,0,0,0,0,0,0,0,0,0,0,0,0,0,0,0,
0,0,0,0,0,0,0,0,0,0,0,0,0,0,0,0,0,0,0,0,0,0,0,0,0,0,0,0,0,0,0,0,
0,0,0,0,0,0,0,0,0,0,0,0,0,0,0,0,0,0,0,0,0,0,0,0,0,0,0,0,0,0,0,0,
0,0,0,0,0,0,0,0,0,0,0,0,0,0,0,0,0,0,0,0,0,0,0,0,0,0,0,0,0,0,0,0,
0,0,0,0,0,0,0,0,0,0,0,0,0,0,0,0,0,0,0,0,0,0,0,0,0,0,0,0,0,0,0,0,
0,0,0,0,0,0,0,0,0,0,0,0,0,0,0,0,0,0,0,0,0,0,0,0,0,0,0,0,0,0,0,0,
0,0,0,0,0,0,0,0,0,0,0,0,0,0,0,0,0,0,0,0,0,0,0,0,0,0,0,0,0,0,0,0,
0,0,0,0,0,0,0,0,0,0,0,0,0,0,0,0,0,0,0,0,0,0,0,0,0,0,0,0,0,0,0,0,
0,0,0,0,0,0,0,0,0,0,0,0,0,0,0,0,0,0,0,0,0,0,0,0,0,0,0,0,0,0,0,0,
0,0,0,0,0,0,0,0,0,0,0,0,0,0,0,0,0,0,0,0,0,0,0,0,0,0,0,0,0,0,0,0,
0,0,0,0,0,0,0,0,0,0,0,0,0,0,0,0,0,0,0,0,0,0,0,0,0,0,0,0,0,0,0,0,
0,0,0,0,0,0,0,0,0,0,0,0,0,0,0,0,0,0,0,0,0,0,0,253,0,0,0,0,0,0,0,0,
0,0,0,0,0,0,0,0,0,0,0,0,0,0,0,0,0,0,0,0,0,0,0,0,0,0,0,0,0,0,0,0,
0,0,0,0,0,0,0,0,0,0,0,0,0,0,0,0,0,0,0,0,0,0,0,0,0,0,0,0,0,0,0,0,
0,0,0,0,0,0,0,0,0,0,0,0,0,0,0,0,0,0,0,0,0,0,0,0,0,0,0,0,0,0,0,0,
0,0,0,0,0,0,0,0,0,0,0,0,0,0,0,0,0,0,0,0,0,0,0,0,0,0,0,0,0,0,0,0,
0,0,0,0,0,0,0,0,0,0,0,0,0,0,0,0,0,0,0,0,0,0,0,0,0,0,0,0,0,0,0,0
</data>
 </layer>
 <layer id="4" name="InFrontOfPlayer" width="32" height="18">
  <data encoding="csv">
0,0,0,0,0,0,0,0,0,0,0,0,0,0,0,0,0,0,0,0,0,0,0,0,0,0,0,0,0,0,0,0,
0,0,0,0,0,0,0,0,0,0,0,0,0,0,0,0,0,0,0,0,0,0,0,0,0,0,0,0,0,0,0,0,
0,0,0,0,0,0,0,0,0,0,0,0,0,0,0,0,0,0,0,0,0,0,0,0,0,0,0,0,0,0,0,0,
0,0,0,0,0,0,0,0,0,0,0,0,0,0,0,0,0,0,0,0,0,0,0,0,0,0,0,0,0,0,0,0,
0,0,0,0,0,0,0,0,0,0,0,0,0,0,0,0,0,0,0,0,0,0,0,0,0,0,0,0,0,0,0,0,
0,0,0,0,0,0,0,0,0,0,0,98,99,0,0,0,0,0,171,0,0,0,0,0,0,0,0,0,0,0,0,0,
0,0,0,0,0,0,0,98,99,0,0,0,0,0,0,0,0,0,0,0,0,0,0,0,0,0,0,0,0,0,0,0,
0,0,0,0,0,0,0,0,0,0,0,0,0,0,0,0,0,0,0,0,0,0,0,171,0,0,0,0,0,0,0,0,
0,0,0,0,0,0,0,0,0,0,0,0,0,0,0,0,0,0,0,0,0,0,0,0,0,0,0,0,0,0,0,0,
0,0,0,0,0,0,0,0,0,0,0,0,0,0,0,0,0,0,0,0,0,0,0,0,0,0,0,0,0,0,0,0,
0,0,0,0,0,0,0,0,0,0,0,0,0,97,0,0,0,0,0,0,0,0,0,0,0,0,0,0,0,0,0,0,
0,0,0,0,0,0,0,0,0,0,0,0,0,0,0,0,0,0,0,0,0,0,0,0,0,0,0,0,0,0,0,0,
0,0,0,0,0,0,0,0,172,0,0,0,0,0,0,0,0,0,0,0,0,0,0,0,0,0,0,0,0,0,0,0,
0,0,0,0,0,0,0,0,0,0,0,0,0,0,0,0,0,0,0,0,0,0,0,0,0,0,0,0,0,0,0,0,
0,0,0,0,0,0,0,0,0,0,0,0,0,0,0,0,0,0,0,0,0,0,0,0,0,0,0,0,0,0,0,0,
0,0,0,0,0,0,0,0,0,0,0,0,0,0,0,0,0,0,0,0,0,0,0,0,0,0,0,0,0,0,0,0,
0,0,0,0,0,0,0,0,0,0,0,0,0,0,0,0,0,0,0,0,0,0,0,0,0,0,0,0,0,0,0,0,
0,0,0,0,0,0,0,0,0,0,0,0,0,0,0,0,0,0,0,0,0,0,0,0,0,0,0,0,0,0,0,0
</data>
 </layer>
 <layer id="5" name="Collisions" width="32" height="18" visible="0">
  <data encoding="csv">
216,216,216,216,216,216,216,216,216,216,216,216,216,216,216,0,216,216,216,216,216,216,216,216,216,216,216,216,216,216,216,216,
216,216,216,216,216,216,216,216,216,216,216,216,216,216,216,0,216,216,216,216,216,216,216,216,216,216,216,216,216,216,216,216,
216,216,216,216,216,216,216,216,216,216,216,216,216,216,216,0,216,216,216,216,216,216,216,216,216,216,216,216,216,216,216,216,
216,216,216,216,213,0,0,0,0,0,0,0,0,0,0,0,0,0,0,0,0,0,0,0,0,0,0,212,216,216,216,216,
216,216,216,216,213,0,0,0,0,0,0,0,0,0,0,0,0,0,216,0,0,0,0,0,0,0,0,212,216,216,216,216,
216,216,216,216,213,0,0,0,0,0,0,0,0,0,0,0,0,216,216,216,0,0,0,0,0,0,0,212,216,216,216,216,
216,216,216,216,213,0,0,0,0,0,0,212,213,0,0,0,0,0,216,0,0,0,0,216,0,0,0,212,216,216,216,216,
216,216,216,216,213,0,0,212,213,0,0,0,0,0,0,0,0,0,0,0,0,0,216,216,216,0,0,212,216,216,216,216,
216,216,216,216,213,0,0,0,0,0,0,0,0,0,0,0,0,0,0,0,0,0,0,216,0,0,0,212,216,216,216,216,
0,0,0,0,0,0,0,0,0,0,0,0,0,0,0,0,0,0,0,0,0,0,0,0,0,0,0,0,0,0,0,0,
216,216,216,216,213,0,0,0,0,0,0,0,0,0,0,0,0,0,0,0,0,0,0,0,0,0,0,212,216,216,216,216,
216,216,216,216,213,0,0,0,216,0,0,0,0,226,0,0,0,0,0,0,0,0,0,0,0,0,0,212,216,216,216,216,
216,216,216,216,213,0,0,216,216,216,0,0,0,0,0,0,0,0,0,0,0,0,0,216,0,0,0,212,216,216,216,216,
216,216,216,216,213,0,0,0,216,0,0,0,0,0,0,0,0,0,0,0,0,0,0,0,0,0,0,212,216,216,216,216,
216,216,216,216,236,215,215,215,215,215,215,215,215,215,215,0,215,215,215,215,215,215,215,215,215,215,215,237,216,216,216,216,
216,216,216,216,216,216,216,216,216,216,216,216,216,216,216,0,216,216,216,216,216,216,216,216,216,216,216,216,216,216,216,216,
216,216,216,216,216,216,216,216,216,216,216,216,216,216,216,0,216,216,216,216,216,216,216,216,216,216,216,216,216,216,216,216,
216,216,216,216,216,216,216,216,216,216,216,216,216,216,216,0,216,216,216,216,216,216,216,216,216,216,216,216,216,216,216,216
</data>
 </layer>
</map>
