<?xml version="1.0" encoding="UTF-8"?>
<map version="1.10" tiledversion="1.12.2" orientation="orthogonal" renderorder="right-down" width="32" height="18" tilewidth="16" tileheight="16" infinite="0" nextlayerid="7" nextobjectid="1">
 <editorsettings>
  <export target="foret_malicieuse.json" format="json"/>
 </editorsettings>
 <tileset firstgid="1" source="../tilesets/Grass.tsx"/>
 <tileset firstgid="78" source="../tilesets/Water.tsx"/>
 <tileset firstgid="82" source="../tilesets/Wood Bridge.tsx"/>
 <tileset firstgid="97" source="../tilesets/Basic_Grass_Biom_things.tsx"/>
 <tileset firstgid="142" source="../tilesets/collisions.tsx"/>
 <tileset firstgid="174" source="../tilesets/Pine Tree Biome.tsx"/>
 <layer id="3" name="Water" width="32" height="18">
  <data encoding="csv">
0,0,0,0,0,0,0,0,0,0,0,0,0,0,0,0,0,0,0,0,0,0,0,0,0,0,0,0,0,0,0,0,
0,79,80,81,78,79,80,81,78,79,80,81,78,79,80,81,78,79,80,81,78,79,80,81,78,79,80,81,78,79,80,0,
0,79,80,81,78,79,80,81,78,79,80,81,78,79,80,81,78,79,80,81,78,79,80,81,78,79,80,81,78,79,80,0,
0,79,80,81,78,79,80,81,78,79,80,81,78,79,80,81,78,79,80,81,78,79,80,81,78,79,80,81,78,79,80,0,
0,79,80,81,78,79,80,81,78,79,80,81,78,79,80,81,78,79,80,81,78,79,80,81,78,79,80,81,78,79,80,0,
0,79,80,81,78,79,80,81,78,79,80,81,78,79,80,81,78,79,80,81,78,79,80,81,78,79,80,81,78,79,80,0,
0,79,80,81,78,79,80,81,78,79,80,81,78,79,80,81,78,79,80,81,78,79,80,81,78,79,80,81,78,79,80,0,
0,79,80,81,78,79,80,81,78,79,80,81,78,79,80,81,78,79,80,81,78,79,80,81,78,79,80,81,78,79,80,0,
0,79,80,81,78,79,80,81,78,79,80,81,78,79,80,81,78,79,80,81,78,79,80,81,78,79,80,81,78,79,80,0,
0,79,80,81,78,79,80,81,78,79,80,81,78,79,80,81,78,79,80,81,78,79,80,81,78,79,80,81,78,79,80,0,
0,79,80,81,78,79,80,81,78,79,80,81,78,79,80,81,78,79,80,81,78,79,80,81,78,79,80,81,78,79,80,0,
0,79,80,81,78,79,80,81,78,79,80,81,78,79,80,81,78,79,80,81,78,79,80,81,78,79,80,81,78,79,80,0,
0,79,80,81,78,79,80,81,78,79,80,81,78,79,80,81,78,79,80,81,78,79,80,81,78,79,80,81,78,79,80,0,
0,79,80,81,78,79,80,81,78,79,80,81,78,79,80,81,78,79,80,81,78,79,80,81,78,79,80,81,78,79,80,0,
0,79,80,81,78,79,80,81,78,79,80,81,78,79,80,81,78,79,80,81,78,79,80,81,78,79,80,81,78,79,80,0,
0,79,80,81,78,79,80,81,78,79,80,81,78,79,80,81,78,79,80,81,78,79,80,81,78,79,80,81,78,79,80,0,
0,79,80,81,78,79,80,81,78,79,80,81,78,79,80,81,78,79,80,81,78,79,80,81,78,79,80,81,78,79,80,0,
0,0,0,0,0,0,0,0,0,0,0,0,0,0,0,0,0,0,0,0,0,0,0,0,0,0,0,0,0,0,0,0
</data>
 </layer>
 <layer id="1" name="Floor" width="32" height="18">
  <data encoding="csv">
0,0,0,0,0,0,0,0,0,0,0,0,0,0,0,0,0,0,0,0,0,0,0,0,0,0,0,0,0,0,0,0,
0,0,0,0,0,0,0,0,0,0,0,0,0,0,0,0,0,0,0,0,0,0,0,0,0,0,0,0,0,0,0,0,
0,0,1,2,2,2,2,2,2,2,2,2,2,2,2,2,2,2,2,2,2,2,2,2,2,2,2,2,2,3,0,0,
0,0,12,13,13,13,13,13,13,13,13,13,13,13,13,13,13,13,13,13,13,13,13,13,13,13,13,13,13,14,0,0,
0,0,12,13,13,13,13,13,13,13,13,13,13,13,13,13,13,13,13,13,13,13,13,13,13,13,13,13,13,14,0,0,
0,0,12,13,13,13,13,13,13,13,13,13,13,13,13,13,13,13,13,67,13,13,13,13,13,13,13,13,13,14,0,0,
0,0,12,13,13,13,13,13,67,13,13,13,13,13,13,13,56,13,13,13,13,13,13,13,13,13,13,13,13,14,0,0,
0,0,12,13,13,13,13,13,13,13,13,56,13,13,67,13,13,13,13,13,13,56,13,13,13,13,13,13,13,14,0,0,
0,0,12,13,13,13,13,13,13,13,13,13,13,13,13,13,13,13,67,13,13,13,13,13,13,13,13,13,13,14,0,0,
0,0,12,13,13,13,13,13,13,13,13,13,13,13,56,13,13,13,13,13,13,13,13,13,13,13,13,13,13,14,0,0,
0,0,12,13,13,13,13,13,56,13,67,13,13,13,13,13,67,13,13,13,56,13,13,13,67,13,13,13,13,14,0,0,
0,0,12,13,13,13,13,13,13,13,13,13,13,13,13,13,13,13,13,13,13,13,13,13,13,13,13,13,13,14,0,0,
0,0,12,13,13,13,13,13,13,13,13,13,13,13,13,13,13,13,13,13,13,13,13,13,13,13,13,13,13,14,0,0,
0,0,12,13,13,13,13,13,13,13,13,13,13,13,13,13,13,13,13,13,13,13,13,13,13,13,13,13,13,14,0,0,
0,0,12,13,13,13,13,13,13,13,13,13,13,13,13,13,13,13,13,13,13,13,13,13,13,13,13,13,13,14,0,0,
0,0,23,24,24,24,24,24,24,24,24,24,24,24,24,24,24,24,24,24,24,24,24,24,24,24,24,24,24,25,0,0,
0,0,0,0,0,0,0,0,0,0,0,0,0,0,0,0,0,0,0,0,0,0,0,0,0,0,0,0,0,0,0,0,
0,0,0,0,0,0,0,0,0,0,0,0,0,0,0,0,0,0,0,0,0,0,0,0,0,0,0,0,0,0,0,0
</data>
 </layer>
 <layer id="2" name="OnFloor" width="32" height="18">
  <data encoding="csv">
0,0,0,0,0,0,0,0,0,0,0,0,0,0,0,0,0,0,0,0,0,0,0,0,0,0,0,0,0,0,0,0,
0,0,0,0,0,0,0,0,0,0,0,0,0,0,0,87,0,0,0,0,0,0,0,0,0,0,0,0,0,0,0,0,
0,0,106,106,106,106,106,106,106,106,106,106,106,106,106,92,106,106,106,106,106,106,106,106,106,106,106,106,106,106,0,0,
0,0,106,106,106,106,106,106,106,106,106,106,106,106,106,0,106,106,106,106,106,106,106,106,106,106,106,106,106,106,0,0,
0,0,106,106,106,106,106,106,106,106,106,106,106,106,106,0,106,106,106,106,106,106,106,106,106,106,106,106,106,106,0,0,
0,0,106,106,106,106,0,0,0,0,0,0,0,0,0,0,0,0,0,0,0,0,0,0,0,0,106,106,106,106,0,0,
0,0,106,106,106,106,0,0,0,0,0,0,0,0,0,0,0,0,0,0,0,0,0,176,0,0,106,106,106,106,0,0,
0,0,106,106,106,106,0,0,207,208,0,0,0,0,0,0,0,0,0,0,0,0,0,0,0,0,106,106,106,106,0,0,
0,0,106,106,106,106,0,0,0,0,0,0,0,0,0,0,0,0,0,0,0,0,0,0,0,0,106,106,106,106,0,0,
0,85,86,0,0,0,0,0,0,0,0,0,0,0,0,202,0,0,0,0,0,0,0,0,0,0,0,0,0,84,85,0,
0,0,106,106,106,106,0,0,0,0,0,0,177,0,0,0,0,0,0,0,0,0,210,211,0,0,106,106,106,106,0,0,
0,0,106,106,106,106,0,0,0,0,0,0,0,0,0,0,0,0,0,0,0,0,0,0,0,0,106,106,106,106,0,0,
0,0,106,106,106,106,0,0,0,0,0,0,0,0,0,0,0,0,0,0,0,0,0,0,0,0,106,106,106,106,0,0,
0,0,106,106,106,106,106,106,106,106,106,106,106,106,106,0,106,106,106,106,106,106,106,106,106,106,106,106,106,106,0,0,
0,0,106,106,106,106,106,106,106,106,106,106,106,106,106,0,106,106,106,106,106,106,106,106,106,106,106,106,106,106,0,0,
0,0,106,106,106,106,106,106,106,106,106,106,106,106,106,82,106,106,106,106,106,106,106,106,106,106,106,106,106,106,0,0,
0,0,0,0,0,0,0,0,0,0,0,0,0,0,0,87,0,0,0,0,0,0,0,0,0,0,0,0,0,0,0,0,
0,0,0,0,0,0,0,0,0,0,0,0,0,0,0,0,0,0,0,0,0,0,0,0,0,0,0,0,0,0,0,0
</data>
 </layer>
 <layer id="5" name="InFrontOfPlayer" width="32" height="18">
  <data encoding="csv">
0,0,0,0,0,0,0,0,0,0,0,0,0,0,0,0,0,0,0,0,0,0,0,0,0,0,0,0,0,0,0,0,
0,0,97,97,97,97,97,97,97,97,97,97,97,97,97,0,97,97,97,97,97,97,97,97,97,97,97,97,97,97,0,0,
0,0,97,97,97,97,97,97,97,97,97,97,97,97,97,0,97,97,97,97,97,97,97,97,97,97,97,97,97,97,0,0,
0,0,97,97,97,97,97,97,97,97,97,97,97,97,97,0,97,97,97,97,97,97,97,97,97,97,97,97,97,97,0,0,
0,0,97,97,97,97,0,0,0,0,0,0,0,0,0,0,0,0,0,0,0,0,0,0,0,0,97,97,97,97,0,0,
0,0,97,97,97,97,0,0,0,0,0,0,0,0,0,0,0,0,0,0,0,0,0,0,0,0,97,97,97,97,0,0,
0,0,97,97,97,97,0,0,0,0,0,0,0,0,0,0,0,0,0,0,0,0,0,0,0,0,97,97,97,97,0,0,
0,0,97,97,97,97,0,0,0,0,0,0,0,0,181,182,183,0,0,0,0,0,0,0,0,0,97,97,97,97,0,0,
0,0,0,0,0,0,0,0,0,0,0,0,0,0,191,192,193,0,0,0,0,0,0,0,0,0,0,0,0,0,0,0,
0,0,97,97,97,97,0,0,0,0,0,0,0,0,201,0,203,0,0,0,0,0,0,0,0,0,97,97,97,97,0,0,
0,0,97,97,97,97,0,0,0,0,0,0,0,0,0,0,0,0,0,0,0,0,0,0,0,0,97,97,97,97,0,0,
0,0,97,97,97,97,0,0,0,0,0,0,0,0,0,0,0,0,0,0,0,0,0,0,0,0,97,97,97,97,0,0,
0,0,97,97,97,97,97,97,97,97,97,97,97,97,97,0,97,97,97,97,97,97,97,97,97,97,97,97,97,97,0,0,
0,0,97,97,97,97,97,97,97,97,97,97,97,97,97,0,97,97,97,97,97,97,97,97,97,97,97,97,97,97,0,0,
0,0,97,97,97,97,97,97,97,97,97,97,97,97,97,0,97,97,97,97,97,97,97,97,97,97,97,97,97,97,0,0,
0,0,0,0,0,0,0,0,0,0,0,0,0,0,0,0,0,0,0,0,0,0,0,0,0,0,0,0,0,0,0,0,
0,0,0,0,0,0,0,0,0,0,0,0,0,0,0,0,0,0,0,0,0,0,0,0,0,0,0,0,0,0,0,0,
0,0,0,0,0,0,0,0,0,0,0,0,0,0,0,0,0,0,0,0,0,0,0,0,0,0,0,0,0,0,0,0
</data>
 </layer>
 <layer id="6" name="Collisions" width="32" height="18" visible="0">
  <data encoding="csv">
146,146,146,146,146,146,146,146,146,146,146,146,146,146,146,0,146,146,146,146,146,146,146,146,146,146,146,146,146,146,146,146,
146,146,146,146,146,146,146,146,146,146,146,146,146,146,146,0,146,146,146,146,146,146,146,146,146,146,146,146,146,146,146,146,
146,146,146,146,146,146,146,146,146,146,146,146,146,146,146,0,146,146,146,146,146,146,146,146,146,146,146,146,146,146,146,146,
146,146,146,146,146,146,146,146,146,146,146,146,146,146,146,0,146,146,146,146,146,146,146,146,146,146,146,146,146,146,146,146,
146,146,146,146,146,146,144,144,144,144,144,144,144,144,144,0,144,144,144,144,144,144,144,144,144,144,146,146,146,146,146,146,
146,146,146,146,146,146,0,0,0,0,0,0,0,0,0,0,0,0,0,0,0,0,0,0,0,0,146,146,146,146,146,146,
146,146,146,146,146,146,0,0,0,0,0,0,0,0,0,0,0,0,0,0,0,0,0,0,0,0,146,146,146,146,146,146,
146,146,146,146,146,146,0,0,142,143,0,0,0,0,0,0,0,0,0,0,0,0,0,0,0,0,146,146,146,146,146,146,
144,144,144,144,144,144,0,0,0,0,0,0,0,0,0,0,0,0,0,0,0,0,0,0,0,0,144,144,144,144,144,144,
0,0,0,0,0,0,0,0,0,0,0,0,0,0,0,146,0,0,0,0,0,0,0,0,0,0,0,0,0,0,0,0,
146,146,146,146,146,146,0,0,0,0,0,0,0,0,0,0,0,0,0,0,0,0,157,157,0,0,146,146,146,146,146,146,
146,146,146,146,146,146,0,0,0,0,0,0,0,0,0,0,0,0,0,0,0,0,0,0,0,0,146,146,146,146,146,146,
146,146,146,146,146,146,0,0,0,0,0,0,0,0,0,0,0,0,0,0,0,0,0,0,0,0,146,146,146,146,146,146,
146,146,146,146,146,146,146,146,146,146,146,146,146,146,146,0,146,146,146,146,146,146,146,146,146,146,146,146,146,146,146,146,
146,146,146,146,146,146,146,146,146,146,146,146,146,146,146,0,146,146,146,146,146,146,146,146,146,146,146,146,146,146,146,146,
146,146,146,146,146,146,146,146,146,146,146,146,146,146,146,0,146,146,146,146,146,146,146,146,146,146,146,146,146,146,146,146,
146,146,146,146,146,146,146,146,146,146,146,146,146,146,146,0,146,146,146,146,146,146,146,146,146,146,146,146,146,146,146,146,
146,146,146,146,146,146,146,146,146,146,146,146,146,146,146,0,146,146,146,146,146,146,146,146,146,146,146,146,146,146,146,146
</data>
 </layer>
</map>
