<?xml version="1.0" encoding="UTF-8"?>
<map version="1.10" tiledversion="1.12.2" orientation="orthogonal" renderorder="right-down" width="32" height="18" tilewidth="16" tileheight="16" infinite="0" nextlayerid="7" nextobjectid="1">
 <editorsettings>
  <export target="riviere.json" format="json"/>
 </editorsettings>
 <tileset firstgid="1" source="../tilesets/Water.tsx"/>
 <tileset firstgid="5" source="../tilesets/Wood Bridge.tsx"/>
 <tileset firstgid="20" source="../tilesets/Grass.tsx"/>
 <tileset firstgid="97" source="../tilesets/Hills.tsx"/>
 <tileset firstgid="196" source="../tilesets/Basic_Grass_Biom_things.tsx"/>
 <tileset firstgid="241" source="../tilesets/collisions.tsx"/>
 <tileset firstgid="273" source="../tilesets/WaterDark.tsx"/>
 <tileset firstgid="277" source="../tilesets/Fences.tsx"/>
 <tileset firstgid="293" source="../tilesets/Boats.tsx"/>
 <tileset firstgid="347" source="../tilesets/big fish 2 swimming in cirkels.tsx"/>
 <layer id="1" name="Water" width="32" height="18">
  <data encoding="csv">
0,0,0,0,0,0,0,0,0,0,0,0,0,0,0,0,0,0,0,0,0,0,0,0,0,0,0,0,0,0,0,0,
0,2,3,273,274,275,276,273,274,275,276,4,1,2,3,4,1,2,3,273,274,275,276,273,274,275,276,4,1,2,3,0,
0,2,3,273,274,275,276,273,274,275,276,273,274,275,276,4,1,2,3,273,274,275,276,273,274,275,276,4,1,2,3,0,
0,2,3,273,274,275,276,273,274,275,276,273,274,275,276,4,1,2,3,273,274,275,276,273,274,275,276,273,1,2,3,0,
0,2,3,273,274,275,276,273,274,275,276,273,274,275,276,273,274,275,276,273,274,275,276,273,274,275,276,273,1,2,3,0,
0,2,3,4,1,2,3,273,274,275,276,273,274,275,276,273,274,275,276,273,274,275,276,273,274,275,276,273,1,2,3,0,
0,2,3,4,1,2,3,273,274,275,276,273,274,275,276,273,274,275,276,273,274,275,276,273,274,275,276,4,1,2,3,0,
0,2,3,4,1,2,3,273,274,275,276,273,274,275,276,273,274,275,276,273,274,275,276,273,274,275,276,4,1,2,3,0,
0,2,3,4,1,2,3,273,274,275,276,273,274,275,276,273,274,275,276,273,274,275,276,273,274,275,276,4,1,2,3,0,
0,2,3,4,1,2,3,4,1,2,3,273,274,275,276,273,274,275,276,273,274,275,276,273,274,275,276,4,1,2,3,0,
0,2,3,4,1,2,3,4,1,2,3,4,1,2,3,273,274,275,276,273,274,275,276,273,274,275,276,4,1,2,3,0,
0,2,3,4,1,2,3,4,1,2,3,4,1,2,3,273,274,275,276,273,274,275,276,273,274,275,276,4,1,2,3,0,
0,2,3,4,1,2,3,4,1,2,3,4,1,2,3,273,274,275,276,273,274,275,276,273,274,275,276,4,1,2,3,0,
0,2,3,4,1,2,3,4,1,2,3,4,1,2,3,273,274,275,276,273,274,275,276,273,274,275,276,4,1,2,3,0,
0,2,3,4,1,2,3,4,1,2,3,4,1,2,3,4,1,2,3,273,274,275,276,273,274,275,276,4,1,2,3,0,
0,2,3,4,1,2,3,4,1,2,3,4,1,2,3,4,1,2,3,273,274,275,276,273,274,275,276,4,1,2,3,0,
0,2,3,4,1,2,3,4,1,2,3,4,1,2,3,4,1,2,3,273,274,275,276,273,274,275,276,4,1,2,3,0,
0,0,0,0,0,0,0,0,0,0,0,0,0,0,0,0,0,0,0,0,0,0,0,0,0,0,0,0,0,0,0,0
</data>
 </layer>
 <layer id="2" name="Floor" width="32" height="18">
  <data encoding="csv">
0,0,0,0,0,0,0,0,0,0,0,0,0,0,0,0,0,0,0,0,0,0,0,0,0,0,0,0,0,0,0,0,
0,32,32,47,22,0,0,0,0,0,31,32,86,32,32,32,32,32,32,32,33,0,0,0,0,0,31,32,32,33,0,0,
0,32,32,32,47,22,0,0,0,0,42,37,32,32,75,32,32,32,32,75,47,22,0,0,0,0,31,75,32,33,0,0,
0,43,37,75,32,47,21,22,0,0,0,42,43,37,32,32,32,86,32,32,32,33,0,0,0,0,42,37,36,44,0,0,
0,0,31,32,32,32,32,47,22,0,0,0,0,42,43,37,32,32,32,32,36,44,0,0,0,0,0,31,33,0,0,0,
0,0,42,37,32,32,32,86,47,22,0,0,0,0,0,42,37,32,75,32,33,0,0,0,0,0,20,48,33,0,0,0,
0,0,0,31,32,32,32,32,32,47,22,0,0,0,0,0,42,43,37,86,33,0,0,0,0,0,31,32,33,0,0,0,
0,0,0,31,32,86,32,32,32,32,47,21,22,0,0,0,0,0,42,43,44,0,0,0,0,20,48,32,47,22,0,0,
0,0,0,31,32,32,32,75,32,32,86,32,47,21,22,0,0,0,0,0,0,0,0,0,0,31,75,32,86,33,0,0,
0,0,0,31,32,32,32,32,32,32,32,32,32,32,47,22,0,0,0,0,0,0,0,0,0,31,32,32,32,33,0,0,
0,0,0,31,32,32,32,32,32,32,32,75,32,32,32,47,22,0,0,0,0,0,0,0,20,48,32,32,75,33,0,0,
0,0,0,31,32,32,32,86,32,32,32,32,32,32,32,32,47,22,0,0,0,0,0,0,31,32,32,32,32,33,0,0,
0,0,0,31,32,32,32,32,32,75,32,32,32,32,75,32,32,47,22,0,0,0,0,0,31,32,32,75,36,44,0,0,
0,0,0,31,75,32,32,32,32,32,32,86,32,32,32,32,32,32,47,22,0,0,0,0,31,86,32,32,33,0,0,0,
0,0,0,31,32,32,32,32,86,32,32,32,75,32,32,32,32,32,32,47,22,0,0,0,42,37,32,36,44,0,0,0,
0,0,0,42,43,43,43,43,43,43,43,43,43,43,43,43,43,43,37,32,33,0,0,0,0,31,32,33,0,0,0,0,
0,0,0,0,0,0,0,0,0,0,0,0,0,0,0,0,0,0,31,32,33,0,0,0,0,31,75,33,0,0,0,0,
0,0,0,0,0,0,0,0,0,0,0,0,0,0,0,0,0,0,0,0,0,0,0,0,0,0,0,0,0,0,0,0
</data>
 </layer>
 <layer id="3" name="OnFloor" width="32" height="18">
  <data encoding="csv">
0,0,0,0,0,0,0,0,0,0,0,0,0,0,0,0,0,0,0,0,0,0,0,0,0,0,0,0,0,0,0,0,
0,0,0,0,277,0,0,238,0,0,290,291,291,291,292,15,290,291,291,291,292,0,0,0,0,0,0,0,229,0,0,0,
0,0,229,278,288,0,0,0,0,0,0,0,0,230,0,0,0,0,0,0,221,0,0,0,0,0,0,0,0,0,0,0,
0,0,290,288,0,0,0,0,0,355,0,0,0,0,0,0,0,0,0,230,0,0,0,240,0,0,0,0,0,0,0,0,
0,0,0,0,0,0,0,0,0,0,0,0,0,0,0,0,221,0,0,0,0,0,0,0,0,0,0,0,0,0,240,0,
0,0,0,0,229,0,0,0,0,0,0,0,0,239,240,0,0,0,0,0,0,0,0,0,0,0,0,0,0,0,0,0,
0,0,0,0,0,0,0,0,0,0,0,239,237,238,237,240,0,0,0,0,230,0,355,0,237,0,0,0,0,0,0,0,
0,237,0,0,0,0,0,220,0,0,0,0,0,240,238,0,0,0,0,0,0,0,0,0,0,0,221,0,0,0,0,0,
0,0,0,0,0,221,0,0,0,0,0,0,0,0,0,0,351,0,0,0,0,0,238,0,0,0,0,0,0,0,0,0,
0,8,8,9,0,0,0,0,229,0,0,0,0,0,0,0,0,0,311,312,313,0,0,0,0,0,0,0,0,221,0,0,
0,0,0,0,0,0,0,0,0,0,0,0,0,0,220,0,0,0,320,321,322,0,0,0,0,0,0,0,0,0,0,0,
0,0,0,0,220,0,0,0,0,0,0,221,0,0,0,0,0,0,0,0,0,347,0,0,0,229,0,0,0,0,0,0,
0,0,0,0,0,0,229,0,0,0,0,0,0,0,0,0,0,229,0,0,0,0,0,0,0,0,0,221,0,0,238,0,
0,0,240,0,0,0,0,0,0,0,0,0,0,0,0,0,0,0,0,0,0,0,0,0,0,0,0,0,0,0,0,0,
0,0,0,0,0,0,0,0,0,0,0,0,0,220,0,0,0,0,0,0,0,0,0,0,0,0,0,0,0,0,0,0,
0,0,0,0,0,0,0,0,0,0,0,0,0,0,0,5,0,0,0,0,0,0,240,0,0,0,0,0,0,237,0,0,
0,0,0,0,0,238,0,0,0,0,0,0,0,0,0,10,0,0,290,291,292,0,0,0,0,0,0,0,0,0,0,0,
0,0,0,0,0,0,0,0,0,0,0,0,0,0,0,0,0,0,0,0,0,0,0,0,0,0,0,0,0,0,0,0
</data>
 </layer>
 <layer id="6" name="Collisions" width="32" height="18" visible="0">
  <data encoding="csv">
245,245,245,245,245,245,245,245,245,245,245,245,245,245,245,0,245,245,245,245,245,245,245,245,245,245,245,245,245,245,245,245,
245,245,245,245,254,245,245,245,245,245,256,256,256,256,256,0,256,256,256,256,256,245,245,245,245,245,245,245,245,245,245,245,
245,245,245,262,263,245,245,245,245,245,265,0,0,0,0,0,0,0,0,0,0,241,245,245,245,245,245,245,245,245,245,245,
245,245,258,263,0,0,0,241,245,245,245,265,244,0,0,0,0,0,0,0,0,241,245,245,245,245,245,245,245,245,245,245,
245,245,0,0,0,0,0,0,241,245,245,245,245,0,0,0,0,0,0,0,0,266,245,245,245,245,245,245,245,245,245,245,
245,245,265,0,0,0,0,0,0,241,243,243,243,0,0,0,0,0,0,0,241,245,245,245,245,245,245,245,245,245,245,245,
245,245,245,0,0,0,0,0,0,0,0,0,0,0,0,244,244,244,0,0,241,245,245,245,245,245,245,245,245,245,245,245,
245,245,245,0,0,0,0,0,0,0,0,0,0,0,0,245,245,245,265,244,266,245,245,245,245,245,245,245,245,245,245,245,
245,245,245,0,0,0,0,0,0,0,0,0,0,0,0,245,245,245,245,245,245,245,245,245,245,245,245,245,245,245,245,245,
0,0,0,0,0,0,0,0,0,0,0,0,0,0,0,241,245,245,245,245,245,245,245,245,245,245,245,245,245,245,245,245,
245,245,245,0,0,0,0,0,0,0,0,0,0,0,0,0,241,245,245,245,245,245,245,245,245,245,245,245,245,245,245,245,
245,245,245,0,0,0,0,0,0,0,0,0,0,0,0,0,0,241,245,245,245,245,245,245,245,245,245,245,245,245,245,245,
245,245,245,0,0,0,0,0,0,0,0,0,0,0,0,0,0,0,241,245,245,245,245,245,245,245,245,245,245,245,245,245,
245,245,245,0,0,0,0,0,0,0,0,0,0,0,0,0,0,0,0,241,245,245,245,245,245,245,245,245,245,245,245,245,
245,245,245,0,0,0,0,0,0,0,0,0,0,0,0,0,0,0,0,0,241,245,245,245,245,245,245,245,245,245,245,245,
245,245,245,265,244,244,244,244,244,244,244,244,244,244,244,0,244,244,0,0,241,245,245,245,245,245,245,245,245,245,245,245,
245,245,245,245,245,245,245,245,245,245,245,245,245,245,245,0,245,245,256,256,256,245,245,245,245,245,245,245,245,245,245,245,
245,245,245,245,245,245,245,245,245,245,245,245,245,245,245,0,245,245,245,245,245,245,245,245,245,245,245,245,245,245,245,245
</data>
 </layer>
</map>
