<?xml version="1.0" encoding="UTF-8"?>
<map version="1.10" tiledversion="1.12.2" orientation="orthogonal" renderorder="right-down" width="32" height="18" tilewidth="16" tileheight="16" infinite="0" nextlayerid="8" nextobjectid="1">
 <editorsettings>
  <export target="riviere.json" format="json"/>
 </editorsettings>
 <tileset firstgid="1" source="../tilesets/Water.tsx"/>
 <tileset firstgid="5" source="../tilesets/Wood Bridge.tsx"/>
 <tileset firstgid="16" source="../tilesets/Grass.tsx"/>
 <tileset firstgid="93" source="../tilesets/Hills.tsx"/>
 <tileset firstgid="192" source="../tilesets/Basic_Grass_Biom_things.tsx"/>
 <tileset firstgid="237" source="../tilesets/collisions.tsx"/>
 <tileset firstgid="269" source="../tilesets/WaterDark.tsx"/>
 <tileset firstgid="273" source="../tilesets/Fences.tsx"/>
 <tileset firstgid="289" source="../tilesets/Boats.tsx"/>
 <tileset firstgid="343" source="../tilesets/big fish 2 swimming in cirkels.tsx"/>
 <tileset firstgid="352" source="../tilesets/WaterLight.tsx"/>
 <tileset firstgid="356" source="../tilesets/Bush_Tiles.tsx"/>
 <tileset firstgid="371" source="../Wood_Bridge.tsx"/>
 <layer id="1" name="Water" width="32" height="18">
  <data encoding="csv">
0,0,0,0,0,0,0,0,0,0,0,0,0,0,0,0,0,0,0,0,0,0,0,0,0,0,0,0,0,0,0,0,
0,2,3,4,1,2,3,4,1,2,3,4,1,2,3,4,1,2,3,4,1,2,3,4,1,2,3,4,1,2,3,0,
0,2,3,4,1,2,3,4,1,2,3,4,1,2,3,4,1,2,3,4,1,2,3,4,1,2,3,4,1,2,3,0,
0,2,3,4,1,2,3,4,1,2,3,4,1,2,3,4,1,2,3,4,1,2,3,4,1,2,3,4,1,2,3,0,
0,2,3,4,1,2,3,4,1,2,3,4,1,2,3,4,1,2,3,4,1,2,3,4,1,2,3,4,1,2,3,0,
0,2,3,4,1,2,3,4,1,2,3,4,1,2,3,4,1,2,3,4,1,2,3,4,1,2,3,4,1,2,3,0,
0,2,3,4,1,2,3,4,1,2,3,4,1,2,3,4,1,2,3,4,1,2,3,4,1,2,3,4,1,2,3,0,
0,2,3,4,1,2,3,4,1,2,3,4,1,2,3,4,1,2,3,4,1,2,3,4,1,2,3,4,1,2,3,0,
0,2,3,4,1,2,3,4,1,2,3,4,1,2,3,4,1,2,3,4,1,2,3,4,1,2,3,4,1,2,3,0,
0,2,3,4,1,2,3,4,1,2,3,4,1,2,3,4,1,2,3,4,1,2,3,4,1,2,3,4,1,2,3,0,
0,2,3,4,1,2,3,4,1,2,3,4,1,2,3,4,1,2,3,4,1,2,3,4,1,2,3,4,1,2,3,0,
0,2,3,4,1,2,3,4,1,2,3,4,1,2,3,4,1,2,3,4,1,2,3,4,1,2,3,4,1,2,3,0,
0,2,3,4,1,2,3,4,1,2,3,4,1,2,3,4,1,2,3,4,1,2,3,4,1,2,3,4,1,2,3,0,
0,2,3,4,1,2,3,4,1,2,3,4,1,2,3,4,1,2,3,4,1,2,3,4,1,2,3,4,1,2,3,0,
0,2,3,4,1,2,3,4,1,2,3,4,1,2,3,4,1,2,3,4,1,2,3,4,1,2,3,4,1,2,3,0,
0,2,3,4,1,2,3,4,1,2,3,4,1,2,3,4,1,2,3,4,1,2,3,4,1,2,3,4,1,2,3,0,
0,2,3,4,1,2,3,4,1,2,3,4,1,2,3,4,1,2,3,4,1,2,3,4,1,2,3,4,1,2,3,0,
0,0,0,0,0,0,0,0,0,0,0,0,0,0,0,0,0,0,0,0,0,0,0,0,0,0,0,0,0,0,0,0
</data>
 </layer>
 <layer id="7" name="WarterDark" width="32" height="18">
  <data encoding="csv">
0,0,0,0,0,0,0,0,0,0,0,0,0,0,0,0,0,0,0,0,0,0,0,0,0,0,0,0,0,0,0,0,
0,0,0,0,0,0,0,0,0,0,0,0,0,0,0,355,352,353,354,355,352,353,354,355,352,353,354,355,352,353,354,0,
0,0,0,0,0,0,0,0,0,0,0,0,0,0,0,355,352,353,354,355,352,353,354,355,352,353,354,355,352,353,354,0,
0,0,0,0,0,0,0,0,0,0,0,0,0,0,0,355,352,353,354,355,352,353,354,355,352,353,354,355,352,353,354,0,
0,0,0,0,0,0,0,0,0,0,0,0,0,353,354,355,352,353,354,355,352,353,354,355,352,353,354,355,352,353,354,0,
0,0,0,0,0,0,0,0,352,353,354,355,352,353,354,355,352,353,354,355,352,353,354,355,352,353,354,355,352,353,354,0,
0,0,0,0,0,0,0,0,352,353,354,355,352,353,354,355,352,353,354,355,352,353,354,355,352,353,354,355,352,353,354,0,
0,0,0,0,0,0,354,355,352,353,354,355,352,353,354,355,352,353,354,355,352,353,354,355,352,353,354,355,352,353,354,0,
0,0,0,0,0,0,354,355,352,353,354,355,352,353,354,355,352,353,354,355,352,353,354,355,352,353,354,355,352,353,354,0,
0,0,0,0,0,0,354,355,352,353,354,355,352,353,354,355,352,353,354,355,352,353,354,355,352,353,354,355,352,353,354,0,
0,0,0,0,0,0,354,355,352,353,354,355,352,353,354,355,352,353,354,355,352,353,354,355,352,353,354,355,352,353,354,0,
0,0,0,0,0,0,354,355,352,353,354,355,352,353,354,355,352,353,354,355,352,353,354,355,352,353,354,355,352,353,354,0,
0,0,0,0,0,0,0,0,352,353,354,355,352,353,354,355,352,353,354,355,352,353,354,355,352,353,354,355,352,353,354,0,
0,0,0,0,0,0,0,0,352,353,354,355,352,353,354,355,352,353,354,355,352,353,354,355,352,353,354,355,352,0,0,0,
0,0,0,0,0,0,0,0,352,353,354,355,352,353,354,355,352,353,354,355,352,353,354,355,352,353,354,355,352,0,0,0,
0,0,0,0,0,0,0,0,0,0,0,0,0,0,0,0,0,0,0,0,0,0,0,0,0,0,0,0,0,0,0,0,
0,0,0,0,0,0,0,0,0,0,0,0,0,0,0,0,0,0,0,0,0,0,0,0,0,0,0,0,0,0,0,0,
0,0,0,0,0,0,0,0,0,0,0,0,0,0,0,0,0,0,0,0,0,0,0,0,0,0,0,0,0,0,0,0
</data>
 </layer>
 <layer id="2" name="Floor" width="32" height="18">
  <data encoding="csv">
0,0,0,0,0,0,0,0,0,0,0,0,0,0,0,0,0,0,0,0,0,0,0,0,0,0,0,0,0,0,0,0,
0,0,0,0,0,0,0,0,0,0,0,0,0,0,27,28,28,28,29,0,0,0,0,0,16,44,28,28,28,28,28,0,
0,0,0,0,0,0,0,0,0,0,0,0,0,0,27,28,32,39,40,0,0,0,0,0,27,28,28,28,28,28,28,0,
0,0,0,0,0,0,0,16,17,17,17,17,17,17,44,32,40,0,0,0,0,0,0,0,27,28,28,28,71,28,28,0,
0,0,0,0,0,16,17,44,28,28,28,28,28,32,39,40,0,0,0,0,0,0,16,17,44,28,28,28,28,28,28,0,
0,0,0,0,16,44,28,28,28,32,39,39,39,40,0,0,0,0,0,0,16,17,44,71,28,28,28,28,28,28,28,0,
0,0,0,16,44,28,28,28,32,40,0,0,0,0,0,0,0,0,0,16,44,28,28,28,71,28,28,28,82,32,39,0,
0,0,16,44,28,28,71,32,40,0,0,0,0,0,0,0,16,17,17,44,28,82,28,28,28,28,28,32,39,40,0,0,
0,0,27,28,71,28,28,29,0,0,0,0,0,0,16,17,44,28,71,28,71,28,28,32,39,39,39,40,0,0,0,0,
0,0,27,28,28,28,28,29,0,0,0,0,0,16,44,28,82,28,28,32,39,39,39,40,0,0,0,0,0,0,0,0,
0,0,27,28,28,28,71,29,0,0,0,0,0,38,39,39,39,39,39,40,0,0,0,0,0,0,0,0,0,0,0,0,
0,0,38,33,28,28,28,43,18,0,0,0,0,0,0,0,0,0,0,0,0,0,0,0,0,0,0,16,17,17,17,0,
0,0,0,38,33,28,28,28,43,17,18,0,0,0,0,0,0,0,0,0,0,0,0,16,17,17,17,44,28,28,28,0,
0,0,0,0,27,82,28,28,28,28,43,17,17,17,17,17,17,17,17,17,17,17,17,44,28,82,28,28,28,28,32,0,
0,0,0,0,38,39,33,28,28,28,28,28,28,71,28,28,28,28,28,28,82,28,28,28,28,28,28,28,71,32,40,0,
0,0,0,0,0,0,38,39,39,39,39,39,39,39,39,39,39,39,39,39,39,39,39,39,39,39,39,39,39,40,0,0,
0,0,0,0,0,0,0,0,0,0,0,0,0,0,0,0,0,0,0,0,0,0,0,0,0,0,0,0,0,0,0,0,
0,0,0,0,0,0,0,0,0,0,0,0,0,0,0,0,0,0,0,0,0,0,0,0,0,0,0,0,0,0,0,0
</data>
 </layer>
 <layer id="3" name="OnFloor" width="32" height="18">
  <data encoding="csv">
0,0,0,0,0,0,0,0,0,0,0,0,0,0,0,0,0,0,0,0,0,0,0,0,0,0,0,0,0,0,0,0,
0,0,0,0,0,0,0,0,0,0,0,0,10,0,286,287,287,287,288,0,0,0,0,0,286,287,287,287,287,287,276,0,
0,233,0,0,0,0,236,0,0,0,0,0,376,0,0,0,0,0,0,235,0,0,347,0,0,225,0,0,0,0,277,0,
0,0,0,0,0,0,0,0,0,0,217,0,381,216,0,0,0,0,0,0,0,0,0,0,0,0,0,0,0,0,277,0,
0,0,0,234,0,0,0,0,0,0,0,0,0,0,0,0,0,234,0,0,0,0,0,0,0,0,226,0,0,0,277,0,
0,235,0,0,0,0,226,0,0,0,0,0,0,0,0,307,308,309,0,0,0,0,0,0,0,0,0,0,0,225,277,0,
0,0,0,0,0,0,0,0,0,0,0,0,0,0,0,316,317,318,0,0,0,225,0,0,0,0,0,0,0,0,281,0,
0,0,0,0,0,0,0,0,0,0,0,0,0,351,0,0,0,0,0,0,0,0,0,0,216,0,0,0,0,0,0,0,
0,0,0,0,0,0,0,0,0,233,0,0,0,0,0,0,0,0,226,0,0,0,0,0,0,0,0,0,0,0,0,0,
0,8,9,0,0,0,0,0,0,0,0,236,0,0,0,0,0,0,0,0,0,0,0,0,0,0,0,0,0,233,0,0,
0,0,0,0,0,217,0,0,0,0,351,0,0,0,0,0,0,0,0,0,0,0,0,0,0,343,0,0,0,0,0,0,
0,0,0,0,0,0,0,0,0,0,0,0,0,0,0,0,0,0,234,0,0,0,0,0,0,0,235,0,0,0,273,0,
0,0,0,0,0,0,0,225,0,0,0,0,0,0,233,0,0,0,0,347,0,0,0,0,0,0,0,216,0,0,277,0,
0,0,236,0,0,0,0,0,0,0,0,0,0,0,217,0,0,0,0,0,0,0,0,0,0,0,0,0,0,0,281,0,
0,0,0,0,0,0,0,0,226,0,0,0,0,0,0,0,0,0,0,0,0,0,216,0,0,0,225,0,0,0,0,0,
0,0,0,233,0,0,0,0,0,0,0,0,0,0,0,5,0,0,0,0,0,0,0,0,0,0,0,0,0,0,0,0,
0,0,0,0,0,0,0,235,0,0,234,0,0,0,0,10,0,0,0,236,0,0,0,0,0,0,0,0,0,234,0,0,
0,0,0,0,0,0,0,0,0,0,0,0,0,0,0,0,0,0,0,0,0,0,0,0,0,0,0,0,0,0,0,0
</data>
 </layer>
 <layer id="6" name="Collisions" width="32" height="18" visible="0">
  <data encoding="csv">
241,241,241,241,241,241,241,241,241,241,241,238,0,237,241,241,241,241,241,241,241,241,241,241,241,241,241,241,241,241,241,241,
241,241,241,241,241,241,241,241,241,241,241,238,0,237,254,252,252,252,253,241,241,241,241,241,254,252,252,252,252,252,257,241,
241,241,241,241,241,241,241,241,241,241,241,238,0,237,0,0,0,240,262,241,241,241,241,241,238,0,0,0,0,0,247,241,
241,241,241,241,241,241,241,238,0,0,0,0,0,0,0,0,262,241,241,241,241,241,241,241,238,0,0,0,0,0,247,241,
241,241,241,241,241,238,0,0,0,0,0,0,0,0,240,262,241,241,241,241,241,241,238,0,0,0,0,0,0,0,247,241,
241,241,241,241,238,0,0,0,0,0,240,240,240,262,241,241,241,241,241,241,238,0,0,0,0,0,0,0,0,0,247,241,
241,241,241,238,0,0,0,0,0,262,241,241,241,241,241,241,241,241,241,238,0,0,0,0,0,0,0,0,0,0,251,241,
241,241,238,0,0,0,0,0,262,241,241,241,241,241,241,241,238,0,0,0,0,0,0,0,0,0,0,0,240,262,241,241,
239,239,0,0,0,0,0,237,241,241,241,241,241,241,238,0,0,0,0,0,0,0,0,0,240,240,240,262,241,241,241,241,
0,0,0,0,0,0,0,237,241,241,241,241,241,238,0,0,0,0,0,0,240,240,240,262,241,241,241,241,241,241,241,241,
241,241,238,0,0,0,0,237,241,241,241,241,241,261,240,240,240,240,240,262,241,241,241,241,241,241,241,241,241,241,241,241,
241,241,261,0,0,0,0,0,237,241,241,241,241,241,241,241,241,241,241,241,241,241,241,241,241,241,241,238,0,0,250,241,
241,241,241,261,0,0,0,0,0,237,241,241,241,241,241,241,241,241,241,241,241,241,241,238,0,0,0,0,0,0,247,241,
241,241,241,241,238,0,0,0,0,0,0,0,0,0,0,0,0,0,0,0,0,0,0,0,0,0,0,0,0,0,251,241,
241,241,241,241,261,240,0,0,0,0,0,0,0,0,0,0,0,0,0,0,0,0,0,0,0,0,0,0,0,0,262,241,
241,241,241,241,241,241,261,240,240,240,240,240,240,240,0,0,0,240,240,240,240,240,240,240,240,240,240,240,240,262,241,241,
241,241,241,241,241,241,241,241,241,241,241,241,241,241,238,0,237,241,241,241,241,241,241,241,241,241,241,241,241,241,241,241,
241,241,241,241,241,241,241,241,241,241,241,241,241,241,238,0,237,241,241,241,241,241,241,241,241,241,241,241,241,241,241,241
</data>
 </layer>
</map>
