<?xml version="1.0" encoding="UTF-8"?>
<map version="1.10" tiledversion="1.12.2" orientation="orthogonal" renderorder="right-down" width="32" height="18" tilewidth="16" tileheight="16" infinite="0" nextlayerid="6" nextobjectid="1">
 <editorsettings>
  <export format="json"/>
 </editorsettings>
 <tileset firstgid="1" source="../tilesets/Water.tsx"/>
 <tileset firstgid="5" source="../tilesets/Wood Bridge.tsx"/>
 <tileset firstgid="20" source="../tilesets/Grass.tsx"/>
 <tileset firstgid="97" source="../tilesets/Basic_Grass_Biom_things.tsx"/>
 <tileset firstgid="142" source="../tilesets/collisions.tsx"/>
 <tileset firstgid="174" source="../tilesets/Trees, stumps and bushes v2.tsx"/>
 <tileset firstgid="270" source="../tilesets/Cherry Blossom Biom.tsx"/>
 <layer id="1" name="Water" width="32" height="18">
  <data encoding="csv">
0,0,0,0,0,0,0,0,0,0,0,0,0,0,0,0,0,0,0,0,0,0,0,0,0,0,0,0,0,0,0,0,
0,2,3,4,1,2,3,4,1,2,3,4,1,2,3,4,1,2,3,4,1,2,3,4,1,2,3,4,1,2,3,0,
0,2,3,4,1,2,3,4,1,2,3,4,1,2,3,4,1,2,3,4,1,2,3,4,1,2,3,4,1,2,3,0,
0,2,3,4,1,2,3,4,1,2,3,4,1,2,3,4,1,2,3,4,1,2,3,4,1,2,3,4,1,2,3,0,
0,2,3,4,1,2,3,4,1,2,3,4,1,2,3,4,1,2,3,4,1,2,3,4,1,2,3,4,1,2,3,0,
0,2,3,4,1,2,3,4,1,2,3,4,1,2,3,4,1,2,3,4,1,2,3,4,1,2,3,4,1,2,3,0,
0,2,3,4,1,2,3,4,1,2,3,4,1,2,3,4,1,2,3,4,1,2,3,4,1,2,3,4,1,2,3,0,
0,2,3,4,1,2,3,4,1,2,3,4,1,2,3,4,1,2,3,4,1,2,3,4,1,2,3,4,1,2,3,0,
0,2,3,4,1,2,3,4,1,2,3,4,1,2,3,4,1,2,3,4,1,2,3,4,1,2,3,4,1,2,3,0,
0,2,3,4,1,2,3,4,1,2,3,4,1,2,3,4,1,2,3,4,1,2,3,4,1,2,3,4,1,2,3,0,
0,2,3,4,1,2,3,4,1,2,3,4,1,2,3,4,1,2,3,4,1,2,3,4,1,2,3,4,1,2,3,0,
0,2,3,4,1,2,3,4,1,2,3,4,1,2,3,4,1,2,3,4,1,2,3,4,1,2,3,4,1,2,3,0,
0,2,3,4,1,2,3,4,1,2,3,4,1,2,3,4,1,2,3,4,1,2,3,4,1,2,3,4,1,2,3,0,
0,2,3,4,1,2,3,4,1,2,3,4,1,2,3,4,1,2,3,4,1,2,3,4,1,2,3,4,1,2,3,0,
0,2,3,4,1,2,3,4,1,2,3,4,1,2,3,4,1,2,3,4,1,2,3,4,1,2,3,4,1,2,3,0,
0,2,3,4,1,2,3,4,1,2,3,4,1,2,3,4,1,2,3,4,1,2,3,4,1,2,3,4,1,2,3,0,
0,2,3,4,1,2,3,4,1,2,3,4,1,2,3,4,1,2,3,4,1,2,3,4,1,2,3,4,1,2,3,0,
0,0,0,0,0,0,0,0,0,0,0,0,0,0,0,0,0,0,0,0,0,0,0,0,0,0,0,0,0,0,0,0
</data>
 </layer>
 <layer id="2" name="Floor" width="32" height="18">
  <data encoding="csv">
0,0,0,0,0,0,0,0,0,0,0,0,0,0,0,0,0,0,0,0,0,0,0,0,0,0,0,0,0,0,0,0,
0,0,0,0,0,0,0,0,0,0,0,0,0,0,0,0,0,0,0,0,0,0,0,0,0,0,0,0,0,0,0,0,
0,0,0,0,0,0,0,0,0,0,0,0,0,20,21,21,21,21,22,0,0,0,0,0,0,0,0,0,0,0,0,0,
0,0,0,0,0,0,20,21,21,21,21,21,21,48,32,32,32,32,47,21,21,21,21,22,0,0,0,0,0,0,0,0,
0,0,0,20,21,21,48,32,32,32,32,32,32,32,75,32,32,32,32,32,32,32,32,47,22,0,0,0,0,0,0,0,
0,0,20,48,32,32,32,32,32,32,32,32,32,32,32,32,32,32,75,32,32,32,32,32,47,21,22,0,0,0,0,0,
0,0,31,32,32,87,32,32,32,32,32,32,32,32,32,32,32,32,32,32,32,32,32,32,32,32,47,22,0,0,0,0,
0,0,31,32,32,32,32,32,32,75,32,32,32,87,32,32,32,32,32,32,32,32,87,32,32,32,32,47,22,0,0,0,
0,0,31,32,32,32,32,32,32,32,32,32,32,32,32,32,32,32,32,32,32,32,32,32,32,32,32,32,33,0,0,0,
0,0,31,32,32,32,32,32,32,32,32,32,32,32,32,32,32,32,32,32,32,32,32,32,32,32,32,32,33,0,0,0,
0,0,31,32,32,32,32,32,32,32,32,32,32,32,32,32,87,32,32,32,32,32,32,32,32,32,32,32,33,0,0,0,
0,0,31,32,32,87,32,32,32,32,32,87,32,32,75,32,32,32,32,32,32,32,32,32,75,32,32,32,33,0,0,0,
0,0,31,75,32,32,32,32,32,32,32,32,32,32,32,32,32,32,32,36,43,43,37,32,32,32,32,32,47,22,0,0,
0,0,31,32,32,32,32,32,75,32,32,32,32,32,32,32,32,32,36,44,0,0,42,37,32,87,32,32,32,33,0,0,
0,0,42,43,43,43,43,43,43,43,43,43,43,43,43,43,43,43,44,0,0,0,0,31,32,32,32,32,36,44,0,0,
0,0,0,0,0,0,0,0,0,0,0,0,0,0,0,0,0,0,0,0,0,0,0,42,43,43,43,43,44,0,0,0,
0,0,0,0,0,0,0,0,0,0,0,0,0,0,0,0,0,0,0,0,0,0,0,0,0,0,0,0,0,0,0,0,
0,0,0,0,0,0,0,0,0,0,0,0,0,0,0,0,0,0,0,0,0,0,0,0,0,0,0,0,0,0,0,0
</data>
 </layer>
 <layer id="3" name="OnFloor" width="32" height="18">
  <data encoding="csv">
0,0,0,0,0,0,0,0,0,0,0,0,0,0,0,0,0,0,0,0,0,0,0,0,0,0,0,0,0,0,0,0,
0,0,0,0,0,0,0,0,138,0,0,140,0,0,0,10,0,0,0,0,141,0,0,0,0,0,0,0,0,140,0,0,
0,0,0,0,0,0,0,0,0,0,0,0,0,0,0,15,0,0,0,0,0,0,0,0,138,0,0,0,0,0,0,0,
0,0,0,139,0,0,0,0,0,0,0,0,0,0,0,0,0,0,0,0,0,0,0,0,0,0,0,0,139,0,0,0,
0,141,0,0,0,0,0,0,131,0,0,0,0,0,0,0,0,119,0,0,0,0,0,0,0,0,0,0,0,0,0,0,
0,0,0,0,0,0,0,0,0,121,0,0,0,0,0,0,122,0,0,0,0,0,0,122,0,0,0,0,0,0,0,0,
0,0,0,0,0,250,251,0,0,0,0,109,110,0,0,0,0,0,0,0,248,249,0,0,0,0,0,0,0,0,141,0,
0,0,0,0,0,0,0,0,0,0,0,0,0,0,0,0,131,0,0,0,0,0,0,0,0,0,0,0,0,0,0,0,
0,0,0,0,131,0,0,0,0,122,0,0,0,0,297,298,299,0,130,0,0,0,0,109,110,0,130,0,0,0,0,0,
0,8,9,0,0,0,0,252,253,0,0,0,0,0,0,121,0,0,0,0,121,0,0,0,0,0,0,0,7,8,8,0,
0,0,0,0,0,0,0,0,0,0,0,0,0,0,0,0,0,0,248,249,0,0,0,0,0,0,0,0,0,0,0,0,
0,0,0,0,0,133,134,119,0,0,0,0,0,0,0,0,0,0,0,0,0,131,0,252,253,0,0,0,0,0,0,0,
0,0,0,0,0,0,0,0,0,131,0,250,251,0,0,0,0,122,0,0,0,0,0,0,0,0,0,0,0,0,139,0,
0,140,0,0,0,121,0,0,0,0,0,0,0,130,0,0,0,0,0,0,0,0,0,0,0,0,295,296,0,0,0,0,
0,0,0,0,0,0,0,0,0,0,0,0,0,0,0,5,0,0,0,0,0,0,0,0,0,0,0,0,130,0,0,0,
0,0,0,0,0,0,0,0,0,0,0,138,0,0,0,10,0,0,0,0,0,139,0,0,0,0,0,0,0,0,0,0,
0,0,0,0,139,0,0,0,141,0,0,0,0,0,0,10,0,0,0,141,0,0,0,0,0,0,141,0,0,0,138,0,
0,0,0,0,0,0,0,0,0,0,0,0,0,0,0,0,0,0,0,0,0,0,0,0,0,0,0,0,0,0,0,0
</data>
 </layer>
 <layer id="4" name="InFrontOfPlayer" width="32" height="18">
  <data encoding="csv">
0,0,0,0,0,0,0,0,0,0,0,0,0,0,0,0,0,0,0,0,0,0,0,0,0,0,0,0,0,0,0,0,
0,0,0,0,0,0,0,0,0,0,0,0,0,0,0,0,0,0,0,0,0,0,0,0,0,0,0,0,0,0,0,0,
0,0,0,0,0,0,0,0,0,0,0,0,0,0,0,0,0,0,0,0,0,0,0,0,0,0,0,0,0,0,0,0,
0,0,0,0,0,0,0,0,0,0,0,0,0,0,0,0,0,0,0,0,0,0,0,0,0,0,0,0,0,0,0,0,
0,0,0,0,0,0,0,0,0,0,0,0,0,0,0,0,0,0,0,0,0,0,0,0,0,0,0,0,0,0,0,0,
0,0,0,0,0,238,239,0,0,0,0,100,101,0,0,0,0,0,0,0,236,237,0,0,0,0,0,0,0,0,0,0,
0,0,0,0,0,0,0,0,0,0,0,0,0,0,277,278,279,0,0,0,0,0,0,0,0,0,0,0,0,0,0,0,
0,0,0,0,0,0,0,0,0,0,0,0,0,0,287,288,289,0,0,0,0,0,0,100,101,0,0,0,0,0,0,0,
0,0,0,0,0,0,0,240,241,0,0,0,0,0,0,0,0,0,0,0,0,0,0,0,0,0,0,0,0,0,0,0,
0,0,0,0,0,0,0,0,0,0,0,0,0,0,0,0,0,0,236,237,0,0,0,0,0,0,0,0,0,0,0,0,
0,0,0,0,0,0,0,0,0,0,0,0,0,0,0,0,0,0,0,0,0,0,0,240,241,0,0,0,0,0,0,0,
0,0,0,0,0,0,0,0,0,0,0,238,239,0,0,0,0,0,0,0,0,0,0,0,0,0,0,0,0,0,0,0,
0,0,0,0,0,0,0,0,0,0,0,0,0,0,0,0,0,0,0,0,0,0,0,0,0,0,285,286,0,0,0,0,
0,0,0,0,0,0,0,0,0,0,0,0,0,0,0,0,0,0,0,0,0,0,0,0,0,0,0,0,0,0,0,0,
0,0,0,0,0,0,0,0,0,0,0,0,0,0,0,0,0,0,0,0,0,0,0,0,0,0,0,0,0,0,0,0,
0,0,0,0,0,0,0,0,0,0,0,0,0,0,0,0,0,0,0,0,0,0,0,0,0,0,0,0,0,0,0,0,
0,0,0,0,0,0,0,0,0,0,0,0,0,0,0,0,0,0,0,0,0,0,0,0,0,0,0,0,0,0,0,0,
0,0,0,0,0,0,0,0,0,0,0,0,0,0,0,0,0,0,0,0,0,0,0,0,0,0,0,0,0,0,0,0
</data>
 </layer>
 <layer id="5" name="Collisions" width="32" height="18" visible="0">
  <data encoding="csv">
146,146,146,146,146,146,146,146,146,146,146,146,146,146,146,0,146,146,146,146,146,146,146,146,146,146,146,146,146,146,146,146,
146,146,146,146,146,146,146,146,146,146,146,146,146,146,146,0,146,146,146,146,146,146,146,146,146,146,146,146,146,146,146,146,
146,146,146,146,146,146,146,146,146,146,146,146,146,143,0,0,0,0,142,146,146,146,146,146,146,146,146,146,146,146,146,146,
146,146,146,146,146,146,143,0,0,0,0,0,0,0,0,0,0,0,0,0,0,0,0,142,146,146,146,146,146,146,146,146,
146,146,146,143,0,0,0,0,0,0,0,0,0,0,0,0,0,170,0,0,0,0,0,0,142,146,146,146,146,146,146,146,
146,146,143,0,0,0,0,0,0,0,0,0,0,0,0,0,0,0,0,0,0,0,0,0,0,0,142,146,146,146,146,146,
146,146,143,0,0,142,143,0,0,0,0,142,143,0,0,0,0,0,0,0,142,143,0,0,0,0,0,142,146,146,146,146,
146,146,143,0,0,0,0,0,0,0,0,0,0,0,0,0,0,0,0,0,0,0,0,0,0,0,0,0,142,146,146,146,
146,146,143,0,0,0,0,0,0,0,0,0,0,0,0,146,0,0,0,0,0,0,0,142,143,0,0,0,142,146,146,146,
0,0,0,0,0,0,0,142,143,0,0,0,0,0,0,0,0,0,0,0,0,0,0,0,0,0,0,0,0,0,0,0,
146,146,143,0,0,0,0,0,0,0,0,0,0,0,0,0,0,0,142,143,0,0,0,0,0,0,0,0,142,146,146,146,
146,146,143,0,0,146,145,170,0,0,0,0,0,0,0,0,0,0,0,0,0,0,0,142,143,0,0,0,142,146,146,146,
146,146,143,0,0,0,0,0,0,0,0,142,143,0,0,0,0,0,0,0,145,145,0,0,0,0,0,0,0,142,146,146,
146,146,143,0,0,0,0,0,0,0,0,0,0,0,0,0,0,0,0,167,146,146,166,0,0,0,142,143,0,142,146,146,
146,146,166,145,145,145,145,145,145,145,145,145,145,145,145,0,145,145,167,146,146,146,146,143,0,0,0,0,0,167,146,146,
146,146,146,146,146,146,146,146,146,146,146,146,146,146,146,0,146,146,146,146,146,146,146,166,145,145,145,145,167,146,146,146,
146,146,146,146,146,146,146,146,146,146,146,146,146,146,146,0,146,146,146,146,146,146,146,146,146,146,146,146,146,146,146,146,
146,146,146,146,146,146,146,146,146,146,146,146,146,146,146,0,146,146,146,146,146,146,146,146,146,146,146,146,146,146,146,146
</data>
 </layer>
</map>
