<?xml version="1.0" encoding="UTF-8"?>
<map version="1.10" tiledversion="1.12.2" orientation="orthogonal" renderorder="right-down" width="32" height="18" tilewidth="16" tileheight="16" infinite="0" nextlayerid="6" nextobjectid="1">
 <editorsettings>
  <export target="../maps/north_bridge.json" format="json"/>
 </editorsettings>
 <tileset firstgid="1" source="Water.tsx"/>
 <tileset firstgid="5" source="Grass.tsx"/>
 <tileset firstgid="82" source="Wood Bridge.tsx"/>
 <tileset firstgid="97" source="Free Cow Sprites.tsx"/>
 <tileset firstgid="121" source="Free Chicken Sprites.tsx"/>
 <tileset firstgid="129" source="Basic Grass Biom things 1.tsx"/>
 <tileset firstgid="174" source="collisions.tsx"/>
 <layer id="1" name="Water" width="32" height="18">
  <data encoding="csv">
0,0,0,0,0,0,0,0,0,0,0,0,0,0,0,0,0,0,0,0,0,0,0,0,0,0,0,0,0,0,0,0,
0,2,3,4,1,2,3,4,1,2,3,4,1,2,3,4,1,2,3,4,1,2,3,4,1,2,3,4,1,2,3,0,
0,2,3,4,1,2,3,4,1,2,3,4,1,2,3,4,1,2,3,4,1,2,3,4,1,2,3,4,1,2,3,0,
0,2,3,4,1,2,3,4,1,2,3,4,1,2,3,4,1,2,3,4,1,2,3,4,1,2,3,4,1,2,3,0,
0,2,3,4,1,2,3,4,1,2,3,4,1,2,3,4,1,2,3,4,1,2,3,4,1,2,3,4,1,2,3,0,
0,2,3,4,1,2,3,4,1,2,3,4,1,2,3,4,1,2,3,4,1,2,3,4,1,2,3,4,1,2,3,0,
0,2,3,4,1,2,3,4,1,2,3,4,1,2,3,4,1,2,3,4,1,2,3,4,1,2,3,4,1,2,3,0,
0,2,3,4,1,2,3,4,1,2,3,4,1,2,3,4,1,2,3,4,1,2,3,4,1,2,3,4,1,2,3,0,
0,2,3,4,1,2,3,4,1,2,3,4,1,2,3,4,1,2,3,4,1,2,3,4,1,2,3,4,1,2,3,0,
0,2,3,4,1,2,3,4,1,2,3,4,1,2,3,4,1,2,3,4,1,2,3,4,1,2,3,4,1,2,3,0,
0,2,3,4,1,2,3,4,1,2,3,4,1,2,3,4,1,2,3,4,1,2,3,4,1,2,3,4,1,2,3,0,
0,2,3,4,1,2,3,4,1,2,3,4,1,2,3,4,1,2,3,4,1,2,3,4,1,2,3,4,1,2,3,0,
0,2,3,4,1,2,3,4,1,2,3,4,1,2,3,4,1,2,3,4,1,2,3,4,1,2,3,4,1,2,3,0,
0,2,3,4,1,2,3,4,1,2,3,4,1,2,3,4,1,2,3,4,1,2,3,4,1,2,3,4,1,2,3,0,
0,2,3,4,1,2,3,4,1,2,3,4,1,2,3,4,1,2,3,4,1,2,3,4,1,2,3,4,1,2,3,0,
0,2,3,4,1,2,3,4,1,2,3,4,1,2,3,4,1,2,3,4,1,2,3,4,1,2,3,4,1,2,3,0,
0,2,3,4,1,2,3,4,1,2,3,4,1,2,3,4,1,2,3,4,1,2,3,4,1,2,3,4,1,2,3,0,
0,0,0,0,0,0,0,0,0,0,0,0,0,0,0,0,0,0,0,0,0,0,0,0,0,0,0,0,0,0,0,0
</data>
 </layer>
 <layer id="2" name="Floor" width="32" height="18">
  <data encoding="csv">
0,0,0,0,0,0,0,0,0,0,0,0,0,0,0,0,0,0,0,0,0,0,0,0,0,0,0,0,0,0,0,0,
0,0,0,0,0,0,0,0,0,0,0,0,0,0,0,0,0,0,0,0,0,0,0,0,0,0,0,0,0,0,0,0,
0,0,0,0,5,6,6,6,6,6,6,6,6,6,6,6,6,6,6,6,6,7,0,0,0,0,0,0,0,0,0,0,
0,0,0,5,33,17,17,17,17,17,17,17,17,17,17,17,17,17,17,17,17,32,6,6,7,0,0,0,0,0,0,0,
0,0,0,16,17,17,17,17,17,17,17,17,17,17,17,17,17,17,17,17,17,17,17,17,32,7,0,0,0,0,0,0,
0,0,5,33,17,17,21,28,28,28,28,28,28,28,28,28,28,28,28,28,28,22,17,17,17,32,7,0,0,0,0,0,
0,0,16,17,17,21,29,0,0,0,0,0,0,0,0,0,0,0,0,0,0,27,22,17,17,17,32,7,0,0,0,0,
0,0,16,17,17,18,0,0,0,0,0,0,0,0,0,0,0,0,0,0,0,0,27,22,17,17,17,18,0,0,0,0,
0,0,16,17,17,18,0,0,0,0,0,0,0,0,0,0,0,0,0,0,0,0,0,16,17,17,17,18,0,0,0,0,
0,0,16,17,17,18,0,0,0,0,0,0,5,6,6,6,6,6,7,0,0,0,5,33,17,17,17,18,0,0,0,0,
0,0,16,17,17,18,0,0,0,0,0,5,33,17,17,17,17,17,32,6,6,6,33,17,17,21,28,29,0,0,0,0,
0,0,16,17,17,18,0,0,0,0,5,33,17,17,17,17,17,17,17,17,17,17,17,17,21,29,0,0,0,0,0,0,
0,0,27,22,17,32,7,0,0,5,33,17,21,28,28,28,22,17,17,17,17,17,17,17,18,0,0,0,0,0,0,0,
0,0,0,16,17,17,32,6,6,33,17,17,18,0,0,0,27,28,22,17,17,17,17,17,18,0,0,0,0,0,0,0,
0,0,0,27,22,17,17,17,17,17,17,21,29,0,0,0,0,0,27,28,28,28,28,28,29,0,0,0,0,0,0,0,
0,0,0,0,27,28,28,28,28,28,28,29,0,0,0,0,0,0,0,0,0,0,0,0,0,0,0,0,0,0,0,0,
0,0,0,0,0,0,0,0,0,0,0,0,0,0,0,0,0,0,0,0,0,0,0,0,0,0,0,0,0,0,0,0,
0,0,0,0,0,0,0,0,0,0,0,0,0,0,0,0,0,0,0,0,0,0,0,0,0,0,0,0,0,0,0,0
</data>
 </layer>
 <layer id="3" name="OnFloor" width="32" height="18">
  <data encoding="csv">
0,0,0,0,0,0,0,0,0,0,0,0,0,0,0,0,0,0,0,0,0,0,0,0,0,0,0,0,0,0,0,0,
0,0,0,0,0,0,0,0,0,0,0,171,0,0,0,88,0,0,0,0,0,0,0,0,0,0,0,0,0,0,0,0,
0,0,0,0,0,0,0,0,0,0,0,0,0,0,0,92,0,0,97,98,0,0,0,0,0,171,0,0,172,0,0,0,
0,0,170,0,162,0,97,98,161,0,0,0,0,163,0,0,0,0,103,104,161,0,0,0,0,0,0,0,0,0,0,0,
0,0,0,0,0,0,103,104,0,0,0,153,0,0,0,153,0,0,0,0,0,0,0,0,0,0,0,0,0,0,0,0,
0,0,0,0,0,0,0,0,0,0,0,0,0,0,82,0,0,0,0,0,0,0,162,0,0,153,0,0,0,170,0,0,
0,0,0,0,163,0,0,0,0,0,0,0,0,0,87,0,0,0,0,0,0,0,0,0,0,0,0,0,0,0,0,0,
0,0,153,0,0,0,0,0,0,0,0,173,0,0,87,0,0,0,0,170,0,0,0,0,0,121,0,0,0,0,0,0,
0,0,0,0,0,0,0,0,170,0,0,0,0,0,87,0,0,0,0,0,0,0,0,0,0,162,0,0,0,0,0,0,
0,85,86,0,0,0,0,0,0,0,0,0,0,0,92,0,0,141,142,0,0,0,0,0,0,0,0,84,85,85,85,0,
0,0,0,0,163,0,0,0,0,0,0,0,0,0,0,0,0,153,0,0,0,0,0,0,163,0,0,0,0,0,0,0,
0,0,0,0,0,0,0,0,171,0,0,0,162,0,163,0,0,0,0,0,121,154,0,0,0,0,0,0,0,0,0,0,
0,0,0,0,0,0,0,0,0,0,0,153,0,0,0,82,0,0,0,0,0,0,0,0,0,0,0,0,0,0,0,0,
0,0,0,0,0,0,0,0,0,0,0,0,0,0,0,87,0,0,0,0,0,152,0,153,0,0,0,0,170,0,0,0,
0,0,0,0,0,153,0,0,122,0,163,0,0,0,0,87,0,0,0,0,0,0,0,0,0,0,0,0,0,0,0,0,
0,0,172,0,0,0,0,0,0,0,0,0,0,0,0,87,0,0,0,0,0,0,0,0,173,0,0,0,0,0,0,0,
0,0,0,0,0,0,0,0,172,0,0,0,0,0,0,87,0,0,0,171,0,0,0,0,0,0,0,0,0,0,0,0,
0,0,0,0,0,0,0,0,0,0,0,0,0,0,0,0,0,0,0,0,0,0,0,0,0,0,0,0,0,0,0,0
</data>
 </layer>
 <layer id="4" name="InFrontOfPlayer" width="32" height="18">
  <data encoding="csv">
0,0,0,0,0,0,0,0,0,0,0,0,0,0,0,0,0,0,0,0,0,0,0,0,0,0,0,0,0,0,0,0,
0,0,0,0,0,0,0,0,0,0,0,0,0,0,0,0,0,0,0,0,0,0,0,0,0,0,0,0,0,0,0,0,
0,0,0,0,0,0,0,0,0,0,0,0,0,0,0,0,0,0,0,0,0,0,0,0,0,0,0,0,0,0,0,0,
0,0,0,0,0,0,0,0,0,0,0,0,0,0,0,0,0,0,0,0,0,0,0,0,0,0,0,0,0,0,0,0,
0,0,0,0,0,0,0,0,0,0,0,0,0,0,0,0,0,0,0,0,0,0,0,0,0,0,0,0,0,0,0,0,
0,0,0,0,0,0,0,0,0,0,0,0,0,0,0,0,0,0,0,0,0,0,0,0,0,0,0,0,0,0,0,0,
0,0,0,0,0,0,0,0,0,0,0,0,0,0,0,0,0,0,0,0,0,0,0,0,0,0,0,0,0,0,0,0,
0,0,0,0,0,0,0,0,0,0,0,0,0,0,0,0,0,0,0,0,0,0,0,0,0,0,0,0,0,0,0,0,
0,0,0,0,0,0,0,0,0,0,0,0,0,0,0,0,0,132,133,0,0,0,0,0,0,0,0,0,0,0,0,0,
0,0,0,0,0,0,0,0,0,0,0,0,0,0,0,0,0,0,0,0,0,0,0,0,0,0,0,0,0,0,0,0,
0,0,0,0,0,0,0,0,0,0,0,0,0,0,0,0,0,0,0,0,0,0,0,0,0,0,0,0,0,0,0,0,
0,0,0,0,0,0,0,0,0,0,0,0,0,0,0,0,0,0,0,0,0,0,0,0,0,0,0,0,0,0,0,0,
0,0,0,0,0,0,0,0,0,0,0,0,0,0,0,0,0,0,0,0,0,0,0,0,0,0,0,0,0,0,0,0,
0,0,0,0,0,0,0,0,0,0,0,0,0,0,0,0,0,0,0,0,0,0,0,0,0,0,0,0,0,0,0,0,
0,0,0,0,0,0,0,0,0,0,0,0,0,0,0,0,0,0,0,0,0,0,0,0,0,0,0,0,0,0,0,0,
0,0,0,0,0,0,0,0,0,0,0,0,0,0,0,0,0,0,0,0,0,0,0,0,0,0,0,0,0,0,0,0,
0,0,0,0,0,0,0,0,0,0,0,0,0,0,0,0,0,0,0,0,0,0,0,0,0,0,0,0,0,0,0,0,
0,0,0,0,0,0,0,0,0,0,0,0,0,0,0,0,0,0,0,0,0,0,0,0,0,0,0,0,0,0,0,0
</data>
 </layer>
 <layer id="5" name="Collisions" width="32" height="18" visible="0">
  <data encoding="csv">
178,178,178,178,178,178,178,178,178,178,178,178,178,178,178,0,178,178,178,178,178,178,178,178,178,178,178,178,178,178,178,178,
178,178,178,178,178,178,178,178,178,178,178,178,178,178,178,0,178,178,178,178,178,178,178,178,178,178,178,178,178,178,178,178,
178,178,178,178,175,0,0,0,0,0,0,0,0,0,0,0,0,0,0,0,0,174,178,178,178,178,178,178,178,178,178,178,
178,178,178,175,0,0,0,0,0,0,0,0,0,0,0,0,0,0,178,178,0,0,0,0,174,178,178,178,178,178,178,178,
178,178,178,175,0,0,178,178,0,0,0,0,0,0,0,0,0,0,0,0,0,0,0,0,0,174,178,178,178,178,178,178,
178,178,175,0,0,0,0,177,177,177,177,177,177,177,0,177,177,177,177,177,177,0,0,0,0,0,174,178,178,178,178,178,
178,178,175,0,0,0,199,178,178,178,178,178,178,178,0,178,178,178,178,178,178,198,0,0,0,0,0,174,178,178,178,178,
178,178,175,0,0,174,178,178,178,178,178,178,178,178,0,178,178,178,178,178,178,178,198,0,0,0,0,174,178,178,178,178,
178,178,175,0,0,174,178,178,178,178,178,178,178,178,0,178,178,178,178,178,178,178,178,175,0,0,0,174,178,178,178,178,
0,0,0,0,0,174,178,178,178,178,178,178,175,0,0,0,0,174,178,178,178,178,175,0,0,0,0,0,0,0,0,0,
178,178,175,0,0,174,178,178,178,178,178,175,0,0,0,0,0,0,0,0,0,0,0,0,0,0,177,199,178,178,178,178,
178,178,175,0,0,174,178,178,178,178,175,0,0,0,0,0,0,0,0,0,0,0,0,0,0,199,178,178,178,178,178,178,
178,178,198,0,0,0,174,178,178,175,0,0,0,177,177,0,0,0,0,0,0,0,0,0,174,178,178,178,178,178,178,178,
178,178,178,175,0,0,0,0,0,0,0,0,174,178,178,0,198,177,0,0,0,189,0,0,174,178,178,178,178,178,178,178,
178,178,178,198,0,0,0,0,0,0,0,0,199,178,178,0,178,178,198,177,177,177,177,177,199,178,178,178,178,178,178,178,
178,178,178,178,198,177,177,177,177,177,177,199,178,178,178,0,178,178,178,178,178,178,178,178,178,178,178,178,178,178,178,178,
178,178,178,178,178,178,178,178,178,178,178,178,178,178,178,0,178,178,178,178,178,178,178,178,178,178,178,178,178,178,178,178,
178,178,178,178,178,178,178,178,178,178,178,178,178,178,178,0,178,178,178,178,178,178,178,178,178,178,178,178,178,178,178,178
</data>
 </layer>
</map>
