<?xml version="1.0" encoding="UTF-8"?>
<map version="1.10" tiledversion="1.12.2" orientation="orthogonal" renderorder="right-down" width="32" height="18" tilewidth="16" tileheight="16" infinite="0" nextlayerid="6" nextobjectid="1">
 <tileset firstgid="1" source="Water.tsx"/>
 <tileset firstgid="5" source="Grass.tsx"/>
 <tileset firstgid="82" source="Wood Bridge.tsx"/>
 <tileset firstgid="97" source="Paths.tsx"/>
 <tileset firstgid="113" source="Free Chicken Sprites.tsx"/>
 <tileset firstgid="121" source="Basic Grass Biom things 1.tsx"/>
 <tileset firstgid="166" source="collisions.tsx"/>
 <layer id="1" name="Water" width="32" height="18">
  <data encoding="csv">
0,0,0,0,0,0,0,0,0,0,0,0,0,0,0,0,0,0,0,0,0,0,0,0,0,0,0,0,0,0,0,0,
0,2,3,4,1,2,3,4,1,2,3,4,1,2,3,4,1,2,3,4,1,2,3,4,1,2,3,4,1,2,3,0,
0,2,3,4,1,2,3,4,1,2,3,4,1,2,3,4,1,2,3,4,1,2,3,4,1,2,3,4,1,2,3,0,
0,2,3,4,1,2,3,4,1,2,3,4,1,2,3,4,1,2,3,4,1,2,3,4,1,2,3,4,1,2,3,0,
0,2,3,4,1,2,3,4,1,2,3,4,1,2,3,4,1,2,3,4,1,2,3,4,1,2,3,4,1,2,3,0,
0,2,3,4,1,2,3,4,1,2,3,4,1,2,3,4,1,2,3,4,1,2,3,4,1,2,3,4,1,2,3,0,
0,2,3,4,1,2,3,4,1,2,3,4,1,2,3,4,1,2,3,4,1,2,3,4,1,2,3,4,1,2,3,0,
0,2,3,4,1,2,3,4,1,2,3,4,1,2,3,4,1,2,3,4,1,2,3,4,1,2,3,4,1,2,3,0,
0,2,3,4,1,2,3,4,1,2,3,4,1,2,3,4,1,2,3,4,1,2,3,4,1,2,3,4,1,2,3,0,
0,2,3,4,1,2,3,4,1,2,3,4,1,2,3,4,1,2,3,4,1,2,3,4,1,2,3,4,1,2,3,0,
0,2,3,4,1,2,3,4,1,2,3,4,1,2,3,4,1,2,3,4,1,2,3,4,1,2,3,4,1,2,3,0,
0,2,3,4,1,2,3,4,1,2,3,4,1,2,3,4,1,2,3,4,1,2,3,4,1,2,3,4,1,2,3,0,
0,2,3,4,1,2,3,4,1,2,3,4,1,2,3,4,1,2,3,4,1,2,3,4,1,2,3,4,1,2,3,0,
0,2,3,4,1,2,3,4,1,2,3,4,1,2,3,4,1,2,3,4,1,2,3,4,1,2,3,4,1,2,3,0,
0,2,3,4,1,2,3,4,1,2,3,4,1,2,3,4,1,2,3,4,1,2,3,4,1,2,3,4,1,2,3,0,
0,2,3,4,1,2,3,4,1,2,3,4,1,2,3,4,1,2,3,4,1,2,3,4,1,2,3,4,1,2,3,0,
0,2,3,4,1,2,3,4,1,2,3,4,1,2,3,4,1,2,3,4,1,2,3,4,1,2,3,4,1,2,3,0,
0,0,0,0,0,0,0,0,0,0,0,0,0,0,0,0,0,0,0,0,0,0,0,0,0,0,0,0,0,0,0,0
</data>
 </layer>
 <layer id="2" name="Floor" width="32" height="18">
  <data encoding="csv">
0,0,0,0,0,0,0,0,0,0,0,0,0,0,0,0,0,0,0,0,0,0,0,0,0,0,0,0,0,0,0,0,
0,0,0,0,0,0,0,0,0,0,0,0,0,0,0,0,0,0,0,0,0,0,0,0,0,0,0,0,0,0,0,0,
0,0,0,0,5,6,7,0,0,0,0,0,0,0,0,0,0,0,0,0,5,6,6,6,7,0,0,0,0,0,0,0,
0,0,0,5,33,17,32,7,0,0,0,0,0,0,0,0,0,0,0,5,33,17,17,17,18,0,0,0,0,0,0,0,
0,0,0,27,22,17,17,18,0,0,0,0,5,6,6,6,6,6,6,33,17,17,17,17,32,7,0,0,0,0,0,0,
0,0,0,0,27,22,17,32,6,6,6,6,33,17,17,17,17,17,17,17,17,17,17,17,17,32,7,0,0,0,0,0,
0,0,0,0,0,16,17,17,17,17,17,17,17,17,17,17,17,17,17,17,17,17,17,17,17,17,32,7,0,0,0,0,
0,0,0,5,6,33,17,17,17,17,17,17,17,17,17,17,17,17,17,17,17,17,17,17,17,17,17,18,0,0,0,0,
0,0,0,16,17,17,17,17,17,17,17,17,17,17,17,17,17,17,17,17,17,17,17,17,17,17,17,18,0,0,0,0,
0,0,0,16,17,17,17,17,17,17,17,17,17,17,17,17,17,17,17,17,17,17,17,17,17,17,17,18,0,0,0,0,
0,0,0,27,22,17,17,17,17,17,17,17,17,17,17,17,17,17,17,17,17,17,17,17,17,17,17,18,0,0,0,0,
0,0,0,0,16,17,17,17,17,17,17,17,17,17,17,17,17,17,17,17,17,17,17,17,17,17,21,29,0,0,0,0,
0,0,0,0,16,17,17,17,17,17,17,17,17,17,17,17,17,17,17,17,21,28,28,28,28,28,29,0,0,0,0,0,
0,0,0,0,16,17,17,17,17,17,17,17,17,17,17,17,17,17,17,21,29,0,0,0,0,0,0,0,0,0,0,0,
0,0,0,0,27,28,28,28,28,28,28,28,28,28,28,28,28,28,28,29,0,0,0,0,0,0,0,0,0,0,0,0,
0,0,0,0,0,0,0,0,0,0,0,0,0,0,0,0,0,0,0,0,0,0,0,0,0,0,0,0,0,0,0,0,
0,0,0,0,0,0,0,0,0,0,0,0,0,0,0,0,0,0,0,0,0,0,0,0,0,0,0,0,0,0,0,0,
0,0,0,0,0,0,0,0,0,0,0,0,0,0,0,0,0,0,0,0,0,0,0,0,0,0,0,0,0,0,0,0
</data>
 </layer>
 <layer id="3" name="OnFloor" width="32" height="18">
  <data encoding="csv">
0,0,0,0,0,0,0,0,0,0,0,0,0,0,0,0,0,0,0,0,0,0,0,0,0,0,0,0,0,0,0,0,
0,0,0,0,0,165,0,0,0,0,0,0,0,0,0,87,0,0,0,0,0,0,0,0,0,165,0,0,0,0,0,0,
0,0,0,0,0,0,0,0,0,163,0,164,0,165,0,87,0,162,0,0,0,0,0,0,0,0,0,0,0,164,0,0,
0,163,0,0,0,0,0,0,0,0,0,0,0,0,0,87,0,0,0,0,0,0,0,0,0,0,0,162,0,0,0,0,
0,0,0,0,0,146,0,0,0,0,0,0,0,0,0,92,0,0,0,0,0,0,0,0,0,0,0,0,0,163,0,0,
0,0,0,0,0,0,0,0,0,0,0,0,0,0,0,97,0,0,0,0,0,0,114,0,0,0,0,0,0,0,0,0,
0,0,164,0,0,0,0,0,113,0,0,0,154,0,0,101,0,155,0,113,0,0,0,0,0,130,0,0,0,0,0,0,
0,0,0,0,0,0,0,0,0,0,0,0,0,0,0,101,0,0,0,0,146,0,0,155,0,0,0,0,0,164,0,0,
0,0,0,0,131,132,0,0,0,0,0,146,0,0,102,106,103,0,0,0,0,0,0,0,0,0,0,0,0,0,0,0,
0,85,85,86,110,111,111,111,111,111,111,111,111,111,107,0,102,111,111,111,111,111,111,111,111,111,112,84,85,85,85,0,
0,0,0,0,0,0,154,0,0,0,0,0,0,0,106,103,107,0,0,0,0,0,0,0,0,0,0,0,0,0,0,0,
0,0,0,0,0,0,0,0,0,146,0,0,0,0,0,101,0,0,0,0,146,0,0,155,0,0,0,0,0,0,0,0,
0,0,162,0,0,0,0,0,0,0,0,154,0,0,0,101,0,0,114,0,0,0,0,0,0,0,0,0,0,0,0,0,
0,0,0,0,0,0,0,113,0,0,0,0,144,0,0,105,0,0,0,0,0,0,0,0,0,0,0,0,0,164,0,0,
0,165,0,0,0,0,0,0,0,0,0,0,0,0,0,82,0,0,0,0,0,0,165,0,0,0,164,0,0,0,0,0,
0,0,0,0,0,0,0,0,0,163,0,0,0,0,0,87,0,0,0,0,0,0,0,162,0,0,0,163,0,0,0,0,
0,0,0,0,164,0,0,0,0,0,0,165,0,0,0,87,0,0,164,0,0,0,0,0,0,0,0,0,0,0,0,0,
0,0,0,0,0,0,0,0,0,0,0,0,0,0,0,0,0,0,0,0,0,0,0,0,0,0,0,0,0,0,0,0
</data>
 </layer>
 <layer id="4" name="InFrontOfPlayer" width="32" height="18">
  <data encoding="csv">
0,0,0,0,0,0,0,0,0,0,0,0,0,0,0,0,0,0,0,0,0,0,0,0,0,0,0,0,0,0,0,0,
0,0,0,0,0,0,0,0,0,0,0,0,0,0,0,0,0,0,0,0,0,0,0,0,0,0,0,0,0,0,0,0,
0,0,0,0,0,0,0,0,0,0,0,0,0,0,0,0,0,0,0,0,0,0,0,0,0,0,0,0,0,0,0,0,
0,0,0,0,0,0,0,0,0,0,0,0,0,0,0,0,0,0,0,0,0,0,0,0,0,0,0,0,0,0,0,0,
0,0,0,0,0,0,0,0,0,0,0,0,0,0,0,0,0,0,0,0,0,0,0,0,0,0,0,0,0,0,0,0,
0,0,0,0,0,0,0,0,0,0,0,0,0,0,0,0,0,0,0,0,0,0,0,0,0,121,0,0,0,0,0,0,
0,0,0,0,0,0,0,0,0,0,0,0,0,0,0,0,0,0,0,0,0,0,0,0,0,0,0,0,0,0,0,0,
0,0,0,0,122,123,0,0,0,0,0,0,0,0,0,0,0,0,0,0,0,0,0,0,0,0,0,0,0,0,0,0,
0,0,0,0,0,0,0,0,0,0,0,0,0,0,0,0,0,0,0,0,0,0,0,0,0,0,0,0,0,0,0,0,
0,0,0,0,0,0,0,0,0,0,0,0,0,0,0,0,0,0,0,0,0,0,0,0,0,0,0,0,0,0,0,0,
0,0,0,0,0,0,0,0,0,0,0,0,0,0,0,0,0,0,0,0,0,0,0,0,0,0,0,0,0,0,0,0,
0,0,0,0,0,0,0,0,0,0,0,0,0,0,0,0,0,0,0,0,0,0,0,0,0,0,0,0,0,0,0,0,
0,0,0,0,0,0,0,0,0,0,0,0,0,0,0,0,0,0,0,0,0,0,0,0,0,0,0,0,0,0,0,0,
0,0,0,0,0,0,0,0,0,0,0,0,0,0,0,0,0,0,0,0,0,0,0,0,0,0,0,0,0,0,0,0,
0,0,0,0,0,0,0,0,0,0,0,0,0,0,0,0,0,0,0,0,0,0,0,0,0,0,0,0,0,0,0,0,
0,0,0,0,0,0,0,0,0,0,0,0,0,0,0,0,0,0,0,0,0,0,0,0,0,0,0,0,0,0,0,0,
0,0,0,0,0,0,0,0,0,0,0,0,0,0,0,0,0,0,0,0,0,0,0,0,0,0,0,0,0,0,0,0,
0,0,0,0,0,0,0,0,0,0,0,0,0,0,0,0,0,0,0,0,0,0,0,0,0,0,0,0,0,0,0,0
</data>
 </layer>
 <layer id="5" name="Collisions" width="32" height="18" visible="0">
  <data encoding="csv">
170,170,170,170,170,170,170,170,170,170,170,170,170,170,170,0,170,170,170,170,170,170,170,170,170,170,170,170,170,170,170,170,
170,170,170,170,170,170,170,170,170,170,170,170,170,170,170,0,170,170,170,170,170,170,170,170,170,170,170,170,170,170,170,170,
170,170,170,170,167,0,166,170,170,170,170,170,170,170,170,0,170,170,170,170,167,0,0,0,166,170,170,170,170,170,170,170,
170,170,170,167,0,0,0,166,170,170,170,170,170,170,170,0,170,170,170,167,0,0,0,0,166,170,170,170,170,170,170,170,
170,170,170,190,0,0,0,166,170,170,170,170,167,0,0,0,0,0,0,0,0,0,0,0,0,166,170,170,170,170,170,170,
170,170,170,170,190,0,0,0,0,0,0,0,0,0,0,0,0,0,0,0,0,0,0,0,0,0,166,170,170,170,170,170,
170,170,170,170,170,167,0,0,0,0,0,0,0,0,0,0,0,0,0,0,0,0,0,0,0,180,0,166,170,170,170,170,
170,170,170,167,0,0,0,0,0,0,0,0,0,0,0,0,0,0,0,0,0,0,0,0,0,0,0,166,170,170,170,170,
170,170,170,167,166,167,0,0,0,0,0,0,0,0,0,0,0,0,0,0,0,0,0,0,0,0,0,166,170,170,170,170,
0,0,0,0,0,0,0,0,0,0,0,0,0,0,0,0,0,0,0,0,0,0,0,0,0,0,0,0,0,0,0,0,
170,170,170,190,0,0,0,0,0,0,0,0,0,0,0,0,0,0,0,0,0,0,0,0,0,0,0,166,170,170,170,170,
170,170,170,170,167,0,0,0,0,0,0,0,0,0,0,0,0,0,0,0,0,0,0,0,0,0,0,191,170,170,170,170,
170,170,170,170,167,0,0,0,0,0,0,0,0,0,0,0,0,0,0,0,0,169,169,169,169,169,191,170,170,170,170,170,
170,170,170,170,167,0,0,0,0,0,0,0,181,0,0,0,0,0,0,0,191,170,170,170,170,170,170,170,170,170,170,170,
170,170,170,170,190,169,169,169,169,169,169,169,169,169,169,0,169,169,169,191,170,170,170,170,170,170,170,170,170,170,170,170,
170,170,170,170,170,170,170,170,170,170,170,170,170,170,170,0,170,170,170,170,170,170,170,170,170,170,170,170,170,170,170,170,
170,170,170,170,170,170,170,170,170,170,170,170,170,170,170,0,170,170,170,170,170,170,170,170,170,170,170,170,170,170,170,170,
170,170,170,170,170,170,170,170,170,170,170,170,170,170,170,0,170,170,170,170,170,170,170,170,170,170,170,170,170,170,170,170
</data>
 </layer>
</map>
