<?xml version="1.0" encoding="UTF-8"?>
<map version="1.10" tiledversion="1.12.2" orientation="orthogonal" renderorder="right-down" width="32" height="18" tilewidth="16" tileheight="16" infinite="0" nextlayerid="7" nextobjectid="1">
 <tileset firstgid="1" source="Water.tsx"/>
 <tileset firstgid="5" source="Grass.tsx"/>
 <tileset firstgid="82" source="Wood Bridge.tsx"/>
 <tileset firstgid="97" source="Paths.tsx"/>
 <tileset firstgid="113" source="small_huts.tsx"/>
 <tileset firstgid="257" source="collisions.tsx"/>
 <tileset firstgid="289" source="Basic Grass Biom things 1.tsx"/>
 <layer id="1" name="Water" width="32" height="18">
  <data encoding="csv">
0,0,0,0,0,0,0,0,0,0,0,0,0,0,0,0,0,0,0,0,0,0,0,0,0,0,0,0,0,0,0,0,
0,2,3,4,1,2,3,4,1,2,3,4,1,2,3,4,1,2,3,4,1,2,3,4,1,2,3,4,1,2,3,0,
0,2,3,4,1,2,3,4,1,2,3,4,1,2,3,4,1,2,3,4,1,2,3,4,1,2,3,4,1,2,3,0,
0,2,3,4,1,2,3,4,1,2,3,4,1,2,3,4,1,2,3,4,1,2,3,4,1,2,3,4,1,2,3,0,
0,2,3,4,1,2,3,4,1,2,3,4,1,2,3,4,1,2,3,4,1,2,3,4,1,2,3,4,1,2,3,0,
0,2,3,4,1,2,3,4,1,2,3,4,1,2,3,4,1,2,3,4,1,2,3,4,1,2,3,4,1,2,3,0,
0,2,3,4,1,2,3,4,1,2,3,4,1,2,3,4,1,2,3,4,1,2,3,4,1,2,3,4,1,2,3,0,
0,2,3,4,1,2,3,4,1,2,3,4,1,2,3,4,1,2,3,4,1,2,3,4,1,2,3,4,1,2,3,0,
0,2,3,4,1,2,3,4,1,2,3,4,1,2,3,4,1,2,3,4,1,2,3,4,1,2,3,4,1,2,3,0,
0,2,3,4,1,2,3,4,1,2,3,4,1,2,3,4,1,2,3,4,1,2,3,4,1,2,3,4,1,2,3,0,
0,2,3,4,1,2,3,4,1,2,3,4,1,2,3,4,1,2,3,4,1,2,3,4,1,2,3,4,1,2,3,0,
0,2,3,4,1,2,3,4,1,2,3,4,1,2,3,4,1,2,3,4,1,2,3,4,1,2,3,4,1,2,3,0,
0,2,3,4,1,2,3,4,1,2,3,4,1,2,3,4,1,2,3,4,1,2,3,4,1,2,3,4,1,2,3,0,
0,2,3,4,1,2,3,4,1,2,3,4,1,2,3,4,1,2,3,4,1,2,3,4,1,2,3,4,1,2,3,0,
0,2,3,4,1,2,3,4,1,2,3,4,1,2,3,4,1,2,3,4,1,2,3,4,1,2,3,4,1,2,3,0,
0,2,3,4,1,2,3,4,1,2,3,4,1,2,3,4,1,2,3,4,1,2,3,4,1,2,3,4,1,2,3,0,
0,2,3,4,1,2,3,4,1,2,3,4,1,2,3,4,1,2,3,4,1,2,3,4,1,2,3,4,1,2,3,0,
0,0,0,0,0,0,0,0,0,0,0,0,0,0,0,0,0,0,0,0,0,0,0,0,0,0,0,0,0,0,0,0
</data>
 </layer>
 <layer id="2" name="Floor" width="32" height="18">
  <data encoding="csv">
0,0,0,0,0,0,0,0,0,0,0,0,0,0,0,0,0,0,0,0,0,0,0,0,0,0,0,0,0,0,0,0,
0,0,0,0,0,0,0,0,0,0,0,0,0,0,0,0,0,0,0,0,0,0,0,0,0,0,0,0,0,0,0,0,
0,0,0,0,0,0,0,0,0,0,0,0,0,0,0,0,0,0,0,0,0,0,0,0,0,0,0,0,0,0,0,0,
0,0,0,0,0,0,0,0,0,0,0,0,0,0,0,0,0,0,0,0,0,0,0,0,0,0,0,0,0,0,0,0,
0,0,0,0,0,0,5,6,6,6,6,6,6,6,6,6,6,6,6,6,6,6,6,6,6,7,0,0,0,0,0,0,
0,0,0,0,0,0,16,17,17,17,17,17,17,17,17,17,17,17,17,17,17,17,17,17,17,18,0,0,0,0,0,0,
0,0,0,0,0,0,16,17,17,17,17,17,17,17,17,17,17,17,17,17,17,17,17,17,17,18,0,0,0,0,0,0,
0,0,0,0,0,0,16,17,17,17,17,17,17,17,17,17,17,17,17,17,17,17,17,17,17,18,0,0,0,0,0,0,
0,0,0,0,0,0,16,17,17,17,17,17,17,17,17,17,17,17,17,17,17,17,17,17,17,18,0,0,0,0,0,0,
0,0,0,0,0,0,16,17,17,17,17,17,17,17,17,17,17,17,17,17,17,17,17,17,17,18,0,0,0,0,0,0,
0,0,0,0,0,0,16,17,17,17,17,17,17,17,17,17,17,17,17,17,17,17,17,17,17,18,0,0,0,0,0,0,
0,0,0,0,0,0,16,17,17,17,17,17,17,17,17,17,17,17,17,17,17,17,17,17,17,18,0,0,0,0,0,0,
0,0,0,0,0,0,16,17,17,17,17,17,17,17,17,17,17,17,17,17,17,17,17,17,17,18,0,0,0,0,0,0,
0,0,0,0,0,0,16,17,17,17,17,17,17,17,17,17,17,17,17,17,17,17,17,17,17,18,0,0,0,0,0,0,
0,0,0,0,0,0,27,28,28,28,28,28,28,28,28,28,28,28,28,28,28,28,28,28,28,29,0,0,0,0,0,0,
0,0,0,0,0,0,0,0,0,0,0,0,0,0,0,0,0,0,0,0,0,0,0,0,0,0,0,0,0,0,0,0,
0,0,0,0,0,0,0,0,0,0,0,0,0,0,0,0,0,0,0,0,0,0,0,0,0,0,0,0,0,0,0,0,
0,0,0,0,0,0,0,0,0,0,0,0,0,0,0,0,0,0,0,0,0,0,0,0,0,0,0,0,0,0,0,0
</data>
 </layer>
 <layer id="3" name="OnFloor" width="32" height="18">
  <data encoding="csv">
0,0,0,0,0,0,0,0,0,0,0,0,0,0,0,0,0,0,0,0,0,0,0,0,0,0,0,0,0,0,0,0,
0,0,0,0,0,0,0,333,0,0,0,0,0,0,0,87,0,0,0,0,0,0,0,0,0,0,0,0,0,0,0,0,
0,0,0,0,0,0,0,0,0,0,0,332,0,0,0,87,0,0,0,0,330,0,0,332,0,0,0,0,0,0,0,0,
0,0,0,0,331,0,0,0,0,0,0,0,0,332,0,87,0,0,0,0,0,0,0,0,0,0,0,331,0,0,0,0,
0,0,0,0,0,0,0,0,0,0,0,0,0,0,0,92,0,0,0,0,0,0,0,0,0,0,0,0,0,0,0,0,
0,0,0,0,0,0,0,0,322,0,0,0,0,322,0,97,0,0,322,0,0,212,0,0,0,0,0,0,0,0,0,0,
0,0,0,333,0,0,0,0,0,0,0,323,0,314,102,107,0,0,0,0,0,0,0,314,0,0,0,0,0,332,0,0,
0,0,0,0,0,0,0,0,313,0,0,0,0,102,107,0,0,0,233,234,235,236,0,0,0,0,0,0,0,0,0,0,
0,0,0,0,330,0,0,0,0,0,0,0,0,101,0,0,314,0,245,246,247,248,0,0,322,0,0,333,0,0,0,0,
0,331,0,0,0,0,0,0,0,0,0,313,0,101,0,323,0,0,0,0,97,0,0,0,0,0,0,0,0,333,0,0,
0,0,0,0,0,0,0,0,0,0,0,0,0,106,103,0,0,0,0,102,107,0,323,0,0,0,0,0,0,0,0,0,
0,0,0,0,0,0,0,0,0,314,0,0,0,0,106,111,111,111,111,107,0,0,0,313,0,0,0,0,332,0,0,0,
0,0,0,0,0,0,0,323,0,0,0,0,0,0,0,0,0,0,0,0,0,0,0,0,0,0,0,0,0,0,0,0,
0,0,0,330,0,0,0,0,0,0,0,313,0,0,0,0,323,0,0,323,0,0,0,313,0,0,0,0,331,0,0,0,
0,0,0,0,0,0,0,0,0,0,0,0,0,0,0,0,0,0,0,0,0,0,0,0,0,0,0,0,0,0,0,0,
0,0,0,0,0,0,0,0,333,0,0,0,331,0,0,0,0,0,0,0,0,0,0,0,0,0,0,0,0,0,0,0,
0,0,0,0,0,0,0,0,0,0,0,0,0,0,0,0,0,0,0,0,332,0,0,0,0,0,0,330,0,0,0,0,
0,0,0,0,0,0,0,0,0,0,0,0,0,0,0,0,0,0,0,0,0,0,0,0,0,0,0,0,0,0,0,0
</data>
 </layer>
 <layer id="4" name="InFrontOfPlayer" width="32" height="18">
  <data encoding="csv">
0,0,0,0,0,0,0,0,0,0,0,0,0,0,0,0,0,0,0,0,0,0,0,0,0,0,0,0,0,0,0,0,
0,0,0,0,0,0,0,0,0,0,0,0,0,0,0,0,0,0,0,0,0,0,0,0,0,0,0,0,0,0,0,0,
0,0,0,0,0,0,0,0,0,0,0,0,0,0,0,0,0,0,0,0,0,0,0,0,0,0,0,0,0,0,0,0,
0,0,0,0,0,0,0,0,0,0,0,0,0,0,0,0,0,0,0,0,0,0,0,0,0,0,0,0,0,0,0,0,
0,0,0,0,0,0,0,0,0,0,0,0,0,0,0,0,0,0,0,0,0,0,0,0,0,0,0,0,0,0,0,0,
0,0,0,0,0,0,0,0,0,0,0,0,0,0,0,0,0,0,209,210,211,212,0,0,0,0,0,0,0,0,0,0,
0,0,0,0,0,0,0,0,0,0,0,0,0,0,0,0,0,0,221,222,223,224,0,0,0,0,0,0,0,0,0,0,
0,0,0,0,0,0,0,0,0,0,0,0,0,0,0,0,0,0,0,0,0,0,0,0,0,0,0,0,0,0,0,0,
0,0,0,0,0,0,0,0,0,0,0,0,0,0,0,0,0,0,0,0,0,0,0,0,0,0,0,0,0,0,0,0,
0,0,0,0,0,0,0,0,0,0,0,0,0,0,0,0,0,0,0,0,0,0,0,0,0,0,0,0,0,0,0,0,
0,0,0,0,0,0,0,0,0,0,0,0,0,0,0,0,0,0,0,0,0,0,0,0,0,0,0,0,0,0,0,0,
0,0,0,0,0,0,0,0,0,0,0,0,0,0,0,0,0,0,0,0,0,0,0,0,0,0,0,0,0,0,0,0,
0,0,0,0,0,0,0,0,0,0,0,0,0,0,0,0,0,0,0,0,0,0,0,0,0,0,0,0,0,0,0,0,
0,0,0,0,0,0,0,0,0,0,0,0,0,0,0,0,0,0,0,0,0,0,0,0,0,0,0,0,0,0,0,0,
0,0,0,0,0,0,0,0,0,0,0,0,0,0,0,0,0,0,0,0,0,0,0,0,0,0,0,0,0,0,0,0,
0,0,0,0,0,0,0,0,0,0,0,0,0,0,0,0,0,0,0,0,0,0,0,0,0,0,0,0,0,0,0,0,
0,0,0,0,0,0,0,0,0,0,0,0,0,0,0,0,0,0,0,0,0,0,0,0,0,0,0,0,0,0,0,0,
0,0,0,0,0,0,0,0,0,0,0,0,0,0,0,0,0,0,0,0,0,0,0,0,0,0,0,0,0,0,0,0
</data>
 </layer>
 <layer id="6" name="Collisions" width="32" height="18" visible="0">
  <data encoding="csv">
261,261,261,261,261,261,261,261,261,261,261,261,261,261,261,0,261,261,261,261,261,261,261,261,261,261,261,261,261,261,261,261,
261,261,261,261,261,261,261,261,261,261,261,261,261,261,261,0,261,261,261,261,261,261,261,261,261,261,261,261,261,261,261,261,
261,261,261,261,261,261,261,261,261,261,261,261,261,261,261,0,261,261,261,261,261,261,261,261,261,261,261,261,261,261,261,261,
261,261,261,261,261,261,261,261,261,261,261,261,261,261,261,0,261,261,261,261,261,261,261,261,261,261,261,261,261,261,261,261,
261,261,261,261,261,261,258,0,0,0,0,0,0,0,0,0,0,0,0,0,0,0,0,0,0,257,261,261,261,261,261,261,
261,261,261,261,261,261,258,0,0,0,0,0,0,0,0,0,0,0,0,0,0,0,0,0,0,257,261,261,261,261,261,261,
261,261,261,261,261,261,258,0,0,0,0,0,0,0,0,0,0,0,0,0,0,0,0,0,0,257,261,261,261,261,261,261,
261,261,261,261,261,261,258,0,0,0,0,0,0,0,0,0,0,0,257,261,261,258,0,0,0,257,261,261,261,261,261,261,
261,261,261,261,261,261,258,0,0,0,0,0,0,0,0,0,0,0,257,261,261,258,0,0,0,257,261,261,261,261,261,261,
261,261,261,261,261,261,258,0,0,0,0,0,0,0,0,0,0,0,0,0,0,0,0,0,0,257,261,261,261,261,261,261,
261,261,261,261,261,261,258,0,0,0,0,0,0,0,0,0,0,0,0,0,0,0,0,0,0,257,261,261,261,261,261,261,
261,261,261,261,261,261,258,0,0,0,0,0,0,0,0,0,0,0,0,0,0,0,0,0,0,257,261,261,261,261,261,261,
261,261,261,261,261,261,258,0,0,0,0,0,0,0,0,0,0,0,0,0,0,0,0,0,0,257,261,261,261,261,261,261,
261,261,261,261,261,261,258,0,0,0,0,0,0,0,0,0,0,0,0,0,0,0,0,0,0,257,261,261,261,261,261,261,
261,261,261,261,261,261,281,260,260,260,260,260,260,260,260,260,260,260,260,260,260,260,260,260,260,282,261,261,261,261,261,261,
261,261,261,261,261,261,261,261,261,261,261,261,261,261,261,261,261,261,261,261,261,261,261,261,261,261,261,261,261,261,261,261,
261,261,261,261,261,261,261,261,261,261,261,261,261,261,261,261,261,261,261,261,261,261,261,261,261,261,261,261,261,261,261,261,
261,261,261,261,261,261,261,261,261,261,261,261,261,261,261,261,261,261,261,261,261,261,261,261,261,261,261,261,261,261,261,261
</data>
 </layer>
</map>
